; HEADER_BLOCK_START
; generated by OrcaSlicer 2.0.0 on 2024-04-16 at 18:14:13
; total layer number: 240
; filament_density: 1.24
; filament_diameter: 1.75
; max_z_height: 48.00
; HEADER_BLOCK_END

; THUMBNAIL_BLOCK_START

;
; THUMBNAIL_BLOCK_END

; external perimeters extrusion width = 0.45mm
; perimeters extrusion width = 0.45mm
; infill extrusion width = 0.45mm
; solid infill extrusion width = 0.45mm
; top infill extrusion width = 0.40mm

; EXECUTABLE_BLOCK_START
M73 P0 R68
M201 X10000 Y10000 Z500 E5000
M203 X500 Y500 Z10 E60
M204 P10000 R1000 T10000
M205 X8.00 Y8.00 Z0.40 E5.00 ; sets the jerk limits, mm/sec
;TYPE:Custom
G90 ; use absolute coordinates
M83 ; extruder relative mode
M204 S10000 T1000
M104 S220 ; set extruder temp
M140 S60 ; set bed temp
G28 ; home all
G1 Y1.0 Z0.3 F1000 ; move print head up
M190 S60 ; wait for bed temp
M109 S220 ; wait for extruder temp
G92 E0.0
; initial load
G1 X205.0 E19 F1000
G1 Y1.6
G1 X5.0 E19 F1000
G92 E0.0
; intro line
G1 Y2.0 Z0.2 F1000
G1 X65.0 E9.0 F1000
G1 X105.0 E12.5 F1000
G92 E0.0
G90
G21
M83 ; use relative distances for extrusion
; filament start gcode
M106 S0
;LAYER_CHANGE
;Z:0.2
;HEIGHT:0.2
;BEFORE_LAYER_CHANGE
;0.2
G92 E0

M73 P0 R67
G1 E-.9 F2700
;AFTER_LAYER_CHANGE
;0.2
;_SET_FAN_SPEED_CHANGING_LAYER
M204 S300
G1 Z.4 F7200
G1 X44.436 Y29.308
G1 Z.4
G1 Z.2
G1 E.9 F2100
;TYPE:Skirt
;WIDTH:0.45
G1 F3000
G1 X44.94 Y28.544 E.03035
G1 X46.49 Y26.757 E.07847
G1 X48.251 Y25.202 E.07794
G1 X50.212 Y23.89 E.07826
G1 X52.326 Y22.851 E.07817
G1 X54.484 Y22.123 E.07553
G1 X56.787 Y21.667 E.07788
G1 X59.208 Y21.522 E.08044
G1 X83.599 Y22.982 E.81053
G1 X84.824 Y23.247 E.0416
G1 X85.757 Y23.715 E.03461
G1 X86.502 Y24.33 E.03203
G1 X87.184 Y25.239 E.03771
G1 X87.584 Y26.164 E.03344
G1 X87.78 Y27.196 E.03483
G1 X87.79 Y37.515 E.3423
G1 X87.584 Y38.705 E.04006
G1 X87.055 Y39.845 E.04169
G1 X86.47 Y40.571 E.03092
G1 X85.677 Y41.204 E.03367
G1 X84.899 Y41.593 E.02885
G1 X83.88 Y41.856 E.03493
G1 X59.152 Y43.347 E.82175
G1 X56.736 Y43.195 E.08031
G1 X55.438 Y42.973 E.04368
G1 X54.092 Y42.636 E.04602
G1 X51.606 Y41.704 E.08808
G1 X49.308 Y40.421 E.08732
G1 X47.749 Y39.265 E.06437
G1 X46.368 Y37.988 E.06238
G1 X44.951 Y36.339 E.07213
G1 X43.742 Y34.518 E.07251
G1 X43.33 Y33.54 E.0352
G1 X43.178 Y32.474 E.03573
G1 X43.275 Y31.55 E.03082
G1 X43.709 Y30.411 E.04042
G1 X44.414 Y29.342 E.04249
G1 X44.753 Y29.565 F7200
G1 F3000
G1 X45.261 Y28.794 E.03062
G1 X46.775 Y27.048 E.07666
G1 X48.437 Y25.573 E.07371
G1 X50.41 Y24.246 E.0789
G1 X52.476 Y23.229 E.07638
G1 X54.586 Y22.517 E.07385
G1 X56.834 Y22.072 E.07602
G1 X59.199 Y21.929 E.07859
G1 X83.56 Y23.387 E.80956
G1 X84.68 Y23.628 E.03801
G1 X85.537 Y24.058 E.03181
G1 X86.214 Y24.617 E.02911
G1 X86.827 Y25.435 E.0339
G1 X87.193 Y26.279 E.03052
G1 X87.374 Y27.233 E.03223
G1 X87.383 Y37.5 E.34057
G1 X87.193 Y38.59 E.0367
G1 X86.71 Y39.628 E.03799
G1 X86.178 Y40.287 E.0281
G1 X85.456 Y40.862 E.0306
G1 X84.578 Y41.276 E.0322
G1 X83.691 Y41.469 E.03013
G1 X59.145 Y42.94 E.8157
G1 X56.795 Y42.792 E.0781
G1 X55.525 Y42.575 E.04275
G1 X54.212 Y42.247 E.04489
G1 X51.78 Y41.336 E.08614
G1 X49.527 Y40.078 E.0856
G1 X48.011 Y38.953 E.06261
G1 X46.665 Y37.709 E.06082
G1 X45.272 Y36.089 E.07086
G1 X44.093 Y34.312 E.07073
G1 X43.724 Y33.437 E.03151
G1 X43.585 Y32.463 E.03264
G1 X43.674 Y31.63 E.02778
G1 X44.06 Y30.616 E.03598
G1 X44.731 Y29.599 E.04044
; printing object 3DBenchy id:3689349892827921786 copy 0
G1 E-.9 F2700
G1 Z.6 F7200
G1 X82.127 Y31.268 Z.6
G1 Z.2
G1 E.9 F2100
;TYPE:Inner wall
;WIDTH:0.449999
G1 F1800
G1 X82.235 Y31.437 E.00666
G1 X82.374 Y31.981 E.01863
G1 X82.395 Y32.775 E.02636
G1 X82.294 Y33.357 E.01958
G1 X82.086 Y33.727 E.01409
G1 X81.91 Y33.846 E.00706
G1 X81.553 Y33.919 E.01206
G1 X81.42 Y33.876 E.00464
G1 X80.664 Y33.49 E.02818
G1 X80.187 Y33.405 E.01608
G1 X79.732 Y33.53 E.01564
G1 X79.343 Y33.888 E.01753
;WIDTH:0.451807
G1 X79.18 Y34.241 E.01296
G1 X78.901 Y33.961 E.01318
;WIDTH:0.449999
G1 X78.453 Y33.783 E.01598
G1 X77.427 Y33.812 E.03405
G1 X77.459 Y33.28 E.01768
G1 X77.444 Y30.856 E.08042
G1 X77.471 Y29.768 E.03609
G1 X77.338 Y29.378 E.01367
G1 X77.036 Y29.086 E.01392
G1 X76.729 Y28.952 E.01113
G1 X76.218 Y28.901 E.01703
G1 X75.9 Y28.994 E.011
G1 X75.664 Y29.142 E.00923
G1 X75.466 Y29.365 E.00988
G1 X75.34 Y29.595 E.0087
G1 X75.235 Y30.099 E.01707
G1 X75.251 Y30.915 E.02708
G1 X75.251 Y33.807 E.09594
G1 X74.525 Y33.807 E.02409
G1 X73.994 Y33.906 E.01792
G1 X73.66 Y34.113 E.01302
;WIDTH:0.459889
G1 X73.455 Y34.349 E.01065
G1 X73.285 Y34.062 E.01133
;WIDTH:0.449999
G1 X73.124 Y33.87 E.00832
G1 X72.784 Y33.651 E.01339
G1 X72.472 Y33.593 E.01056
G1 X72.559 Y33.512 E.00394
G1 X72.72 Y33.264 E.00984
G1 X72.854 Y32.806 E.01581
G1 X72.8 Y32.375 E.01441
G1 X72.711 Y32.142 E.00831
G1 X72.407 Y31.845 E.01409
;WIDTH:0.449253
G1 X72.173 Y31.756 E.0083
;WIDTH:0.459825
G1 X71.503 Y31.568 E.02363
;WIDTH:0.465994
G1 X71.224 Y31.349 E.01226
G1 X71.133 Y31.163 E.00713
G1 X71.184 Y30.996 E.00603
G1 X71.278 Y30.925 E.00404
G1 X71.701 Y31.204 E.01744
;WIDTH:0.459825
G1 X72.262 Y31.364 E.01982
;WIDTH:0.449253
G1 X72.502 Y31.372 E.00796
;WIDTH:0.449999
G1 X72.931 Y31.262 E.01469
G1 X73.224 Y31.04 E.01217
G1 X73.43 Y30.769 E.01132
G1 X73.52 Y30.497 E.00951
G1 X73.497 Y29.94 E.01847
G1 X73.264 Y29.473 E.01732
G1 X73.109 Y29.289 E.008
G1 X72.69 Y29.01 E.01669
G1 X72.035 Y28.801 E.02279
G1 X71.49 Y28.748 E.01816
G1 X70.876 Y28.782 E.02041
G1 X70.367 Y28.907 E.01739
G1 X69.872 Y29.178 E.0187
G1 X69.555 Y29.409 E.01303
G1 X69.173 Y29.872 E.01993
G1 X68.914 Y30.392 E.01925
;WIDTH:0.495189
G1 X68.861 Y30.511 E.00481
;WIDTH:0.540379
G1 X68.808 Y30.63 E.00529
;WIDTH:0.585569
G1 X68.755 Y30.75 E.00577
;WIDTH:0.630758
G1 X68.702 Y30.869 E.00625
G1 X68.681 Y30.772 E.00476
;WIDTH:0.586811
G1 X68.661 Y30.675 E.0044
;WIDTH:0.542864
G1 X68.641 Y30.577 E.00405
;WIDTH:0.498917
G1 X68.62 Y30.48 E.00369
;WIDTH:0.454969
G1 X68.616 Y29.977 E.01689
;WIDTH:0.449999
G1 X68.5 Y29.511 E.01593
G1 X68.322 Y29.214 E.0115
G1 X68.079 Y29.022 E.01027
G1 X67.804 Y28.916 E.00976
G1 X67.56 Y28.886 E.00817
G1 X66.969 Y28.925 E.01965
G1 X66.232 Y28.919 E.02445
G1 X65.64 Y28.956 E.01967
G1 X64.901 Y29.101 E.02499
G1 X64.372 Y29.334 E.01916
G1 X63.92 Y29.671 E.0187
G1 X63.913 Y29.633 E.00129
G1 X63.636 Y29.084 E.02039
G1 X63.234 Y28.712 E.01816
G1 X63.012 Y28.592 E.00839
G1 X62.582 Y28.465 E.01486
G1 X62.342 Y28.444 E.008
G1 X61.779 Y28.544 E.01897
G1 X61.385 Y28.747 E.01469
G1 X60.974 Y29.196 E.02021
G1 X60.71 Y28.947 E.01204
G1 X60.454 Y28.803 E.00975
G1 X59.944 Y28.726 E.01709
G1 X59.589 Y28.855 E.01254
G1 X59.367 Y29.028 E.00934
G1 X58.99 Y29.516 E.02045
G1 X58.693 Y29.062 E.01798
G1 X58.22 Y28.753 E.01874
G1 X57.966 Y28.717 E.00851
;WIDTH:0.487664
G1 X57.81 Y28.726 E.00567
;WIDTH:0.525329
G1 X57.654 Y28.735 E.00615
;WIDTH:0.562994
G1 X57.498 Y28.744 E.00663
;WIDTH:0.600658
G1 X57.342 Y28.753 E.00711
G1 X57.119 Y28.917 E.01256
;WIDTH:0.555987
G1 X57.03 Y29.074 E.00756
;WIDTH:0.520658
G1 X56.941 Y29.232 E.00704
;WIDTH:0.485329
G1 X56.852 Y29.389 E.00652
;WIDTH:0.449999
G1 X56.805 Y29.609 E.00747
G1 X56.815 Y30.087 E.01586
G1 X56.979 Y30.511 E.01506
G1 X57.686 Y31.693 E.0457
G1 X57.536 Y32.019 E.01191
G1 X57.274 Y32.448 E.01668
G1 X56.954 Y33.03 E.02204
G1 X56.902 Y32.818 E.00723
G1 X56.575 Y32.007 E.02904
G1 X55.972 Y30.379 E.05757
G1 X55.726 Y29.817 E.02035
G1 X55.742 Y29.588 E.00761
G1 X56.057 Y28.841 E.02689
G1 X56.244 Y28.529 E.01208
G1 X56.477 Y28.41 E.00869
;WIDTH:0.499223
G1 X56.644 Y28.381 E.00628
;WIDTH:0.548446
G1 X56.81 Y28.352 E.00696
;WIDTH:0.597669
G1 X56.977 Y28.323 E.00764
G1 X57.073 Y28.207 E.00684
;WIDTH:0.548446
G1 X57.169 Y28.09 E.00623
;WIDTH:0.499223
G1 X57.266 Y27.974 E.00562
;WIDTH:0.449999
G1 X57.416 Y27.682 E.01089
G1 X57.436 Y27.329 E.01172
G1 X57.384 Y27.002 E.01097
G1 X57.135 Y26.555 E.017
G1 X56.868 Y26.348 E.0112
G1 X56.626 Y26.231 E.00889
G1 X56.159 Y26.193 E.01556
G1 X55.943 Y26.217 E.0072
M73 P1 R67
G1 X55.389 Y26.384 E.01919
G1 X54.888 Y26.682 E.01936
G1 X54.73 Y26.832 E.00722
G1 X54.341 Y27.391 E.02257
G1 X54.071 Y27.988 E.02175
G1 X53.407 Y29.754 E.06258
;WIDTH:0.49264
G1 X53.35 Y29.852 E.00418
;WIDTH:0.53528
G1 X53.292 Y29.951 E.00458
;WIDTH:0.577921
G1 X53.234 Y30.049 E.00497
;WIDTH:0.620561
G1 X53.176 Y30.148 E.00537
G1 X53.026 Y30.623 E.02345
;WIDTH:0.628912
G1 X52.798 Y31.196 E.02946
G1 X52.782 Y31.307 E.00537
;WIDTH:0.584184
G1 X52.766 Y31.418 E.00496
;WIDTH:0.539456
G1 X52.75 Y31.53 E.00455
;WIDTH:0.494728
G1 X52.734 Y31.641 E.00414
;WIDTH:0.449999
G1 X52.536 Y32.232 E.02069
G1 X52.293 Y32.818 E.02105
G1 X52.032 Y32.548 E.01245
G1 X51.632 Y32.393 E.01422
G1 X51.155 Y32.344 E.01592
G1 X51.955 Y31.24 E.04523
;WIDTH:0.494949
G1 X52.032 Y31.171 E.00381
;WIDTH:0.539898
G1 X52.109 Y31.101 E.00419
;WIDTH:0.584848
G1 X52.186 Y31.032 E.00457
;WIDTH:0.629797
G1 X52.263 Y30.962 E.00495
G1 X52.473 Y30.543 E.02244
;WIDTH:0.620561
G1 X52.62 Y30.001 E.02641
G1 X52.571 Y29.842 E.00784
;WIDTH:0.577921
G1 X52.523 Y29.683 E.00726
;WIDTH:0.53528
G1 X52.474 Y29.523 E.00668
;WIDTH:0.49264
G1 X52.425 Y29.364 E.0061
;WIDTH:0.449999
G1 X52.255 Y29.081 E.01096
G1 X52.073 Y28.91 E.00826
G1 X51.779 Y28.757 E.011
G1 X51.405 Y28.706 E.01254
G1 X50.864 Y28.728 E.01794
G1 X49.419 Y28.729 E.04795
G1 X50.046 Y28.176 E.02773
G1 X50.728 Y27.654 E.02851
G1 X51.491 Y27.141 E.03048
G1 X52.326 Y26.657 E.03201
G1 X53.184 Y26.233 E.03176
G1 X54.045 Y25.877 E.03091
G1 X54.979 Y25.563 E.03267
G1 X55.693 Y25.37 E.02454
G1 X56.654 Y25.171 E.03256
G1 X57.705 Y25.031 E.03518
G1 X58.653 Y24.973 E.03151
G1 X59.62 Y24.979 E.03208
G1 X83.244 Y26.411 E.78506
G1 X83.791 Y26.561 E.01883
G1 X84.103 Y26.823 E.01351
G1 X84.272 Y27.161 E.01254
G1 X84.345 Y27.562 E.01352
G1 X84.347 Y30.606 E.10098
G1 X84.072 Y30.072 E.01993
G1 X83.713 Y29.629 E.0189
G1 X83.265 Y29.258 E.01932
G1 X82.645 Y28.94 E.02312
G1 X82.04 Y28.787 E.0207
G1 X81.335 Y28.752 E.02342
G1 X80.811 Y28.817 E.0175
G1 X80.073 Y29.088 E.0261
G1 X79.578 Y29.478 E.02088
G1 X79.272 Y29.897 E.01721
G1 X79.11 Y30.372 E.01664
G1 X79.151 Y30.702 E.01104
G1 X79.269 Y30.968 E.00965
G1 X79.558 Y31.279 E.0141
G1 X80.003 Y31.483 E.01623
G1 X80.278 Y31.516 E.00919
G1 X80.783 Y31.431 E.017
G1 X81.253 Y31.064 E.01976
G1 X81.582 Y31.014 E.01103
G1 X81.967 Y31.126 E.01331
G1 X82.097 Y31.241 E.00576
G1 E-.9 F2700
G1 Z.6 F7200
G1 X49.388 Y30.968 Z.6
G1 Z.2
G1 E.9 F2100
G1 F1800
G1 X48.464 Y32.277 E.05315
G1 X48.104 Y32.917 E.02436
G1 X48.02 Y33.475 E.0187
;WIDTH:0.480654
G1 X48.058 Y33.72 E.00886
;WIDTH:0.511308
G1 X48.097 Y33.965 E.00948
G1 X48.374 Y34.343 E.01788
;WIDTH:0.497516
G1 X48.783 Y34.526 E.0166
;WIDTH:0.449999
G1 X49.161 Y34.585 E.01269
G1 X51.328 Y34.578 E.07191
G1 X51.866 Y34.468 E.01819
G1 X52.178 Y34.267 E.01231
G1 X52.34 Y34.032 E.00947
G1 X52.516 Y34.267 E.00976
G1 X52.846 Y34.498 E.01335
G1 X53.099 Y34.57 E.00872
G1 X53.356 Y34.571 E.0085
G1 X53.628 Y34.491 E.00942
G1 X54.002 Y34.196 E.0158
G1 X54.252 Y33.809 E.01528
G1 X54.566 Y32.973 E.02963
G1 X54.619 Y33.066 E.00356
G1 X54.796 Y33.68 E.02121
G1 X55.007 Y34.105 E.01573
G1 X55.417 Y34.442 E.01761
G1 X55.841 Y34.566 E.01467
G1 X56.103 Y34.572 E.00869
G1 X56.527 Y34.458 E.01456
G1 X56.827 Y34.172 E.01374
G1 X56.945 Y33.933 E.00887
G1 X57.039 Y34.103 E.00643
G1 X57.399 Y34.452 E.01664
G1 X57.65 Y34.549 E.00894
G1 X57.899 Y34.583 E.00834
G1 X58.302 Y34.476 E.01382
G1 X58.56 Y34.318 E.01004
G1 X58.936 Y33.92 E.01818
G1 X59.247 Y34.293 E.01613
G1 X59.648 Y34.518 E.01524
G1 X59.898 Y34.583 E.00858
G1 X60.36 Y34.505 E.01553
G1 X60.575 Y34.414 E.00774
G1 X60.872 Y34.128 E.01369
G1 X61.001 Y33.932 E.00778
G1 X61.066 Y33.614 E.01077
G1 X61.023 Y33.2 E.01382
G1 X60.829 Y32.738 E.0166
G1 X60.209 Y31.664 E.04114
G1 X60.457 Y31.308 E.01439
G1 X60.829 Y30.656 E.02493
G1 X61.17 Y31.207 E.0215
G1 X61.518 Y31.473 E.01452
G1 X61.718 Y31.572 E.00742
G1 X62.107 Y31.668 E.01329
G1 X62.412 Y31.694 E.01015
G1 X62.933 Y31.588 E.01764
G1 X62.863 Y32.625 E.03449
G1 X62.902 Y33.126 E.01667
G1 X62.995 Y33.674 E.01844
G1 X63.142 Y34.16 E.01682
G1 X63.487 Y34.813 E.02452
G1 X63.873 Y35.266 E.01973
G1 X64.404 Y35.649 E.02172
G1 X65.008 Y35.878 E.02144
G1 X65.591 Y35.98 E.01964
G1 X66.149 Y36.016 E.01853
G1 X67.53 Y36.022 E.04581
G1 X67.745 Y35.985 E.00724
G1 X68.223 Y35.795 E.01707
G1 X68.478 Y35.53 E.01221
G1 X68.604 Y35.258 E.00993
;WIDTH:0.452733
G1 X68.648 Y34.879 E.01274
;WIDTH:0.457212
G1 X68.61 Y34.359 E.01762
;WIDTH:0.478561
G1 X68.622 Y33.569 E.02803
;WIDTH:0.525117
G1 X68.646 Y33.292 E.01092
;WIDTH:0.571672
G1 X68.669 Y33.015 E.01198
G1 X68.652 Y32.842 E.00747
;WIDTH:0.53706
G1 X68.635 Y32.67 E.00699
;WIDTH:0.502448
G1 X68.618 Y32.497 E.0065
;WIDTH:0.467835
G1 X68.595 Y32.192 E.01061
;WIDTH:0.421367
G1 X68.573 Y31.886 E.00945
;WIDTH:0.419534
G1 X68.595 Y31.82 E.00215
;WIDTH:0.464169
G1 X68.617 Y31.753 E.0024
;WIDTH:0.508804
G1 X68.64 Y31.687 E.00266
;WIDTH:0.553439
G1 X68.662 Y31.621 E.00291
;WIDTH:0.598074
G1 X68.685 Y31.554 E.00317
;WIDTH:0.642708
G1 X68.707 Y31.488 E.00342
G1 X68.739 Y31.547 E.00327
;WIDTH:0.598074
G1 X68.771 Y31.605 E.00302
;WIDTH:0.553439
G1 X68.803 Y31.664 E.00278
;WIDTH:0.508804
G1 X68.834 Y31.723 E.00254
;WIDTH:0.464169
G1 X68.866 Y31.782 E.00229
;WIDTH:0.419534
G1 X68.898 Y31.841 E.00205
;WIDTH:0.407763
G1 X68.946 Y32.069 E.00694
;WIDTH:0.440626
G1 X68.995 Y32.297 E.00757
;WIDTH:0.478307
G1 X69.045 Y32.449 E.00567
;WIDTH:0.515987
G1 X69.095 Y32.601 E.00617
;WIDTH:0.553667
G1 X69.145 Y32.753 E.00666
;WIDTH:0.582883
G1 X69.278 Y32.955 E.01065
G1 X69.159 Y33.155 E.01023
;WIDTH:0.571672
G1 X69.118 Y33.361 E.00907
;WIDTH:0.535843
G1 X69.077 Y33.568 E.00846
;WIDTH:0.500013
G1 X69.036 Y33.774 E.00784
;WIDTH:0.464183
G1 X69.042 Y34.665 E.03058
;WIDTH:0.454342
G1 X69.2 Y35.123 E.01623
;WIDTH:0.449999
G1 X69.493 Y35.53 E.01664
G1 X69.896 Y35.85 E.01707
G1 X70.466 Y36.088 E.0205
G1 X71.131 Y36.19 E.02231
G1 X71.643 Y36.181 E.01698
G1 X72.328 Y36.049 E.02316
G1 X72.525 Y35.976 E.00697
G1 X73.053 Y35.672 E.0202
G1 X73.384 Y35.306 E.01636
G1 X73.579 Y35.687 E.01422
G1 X73.962 Y35.946 E.01534
G1 X74.402 Y36.025 E.01483
G1 X77.609 Y36.011 E.10638
G1 X78.154 Y36.052 E.01813
G1 X78.499 Y36.02 E.01148
G1 X78.736 Y35.936 E.00834
G1 X79.015 Y35.722 E.01166
G1 X79.196 Y35.487 E.00984
G1 X79.308 Y35.172 E.01109
G1 X79.418 Y35.299 E.00558
G1 X79.79 Y35.663 E.01728
G1 X79.968 Y35.777 E.00698
G1 X80.618 Y36.077 E.02377
G1 X81.31 Y36.187 E.02324
G1 X82.036 Y36.152 E.02412
G1 X82.842 Y35.918 E.02785
G1 X83.433 Y35.561 E.0229
G1 X83.852 Y35.156 E.01932
G1 X84.183 Y34.682 E.01917
G1 X84.348 Y34.325 E.01307
G1 X84.349 Y37.182 E.09479
G1 X84.302 Y37.631 E.01497
G1 X84.182 Y37.928 E.01063
G1 X84.001 Y38.159 E.00973
G1 X83.73 Y38.335 E.01073
G1 X83.264 Y38.456 E.01596
G1 X59.915 Y39.875 E.77597
G1 X59.096 Y39.901 E.02717
G1 X58.556 Y39.893 E.01794
G1 X58.018 Y39.864 E.01787
G1 X57.227 Y39.784 E.02637
G1 X56.434 Y39.658 E.02664
G1 X55.472 Y39.442 E.0327
G1 X54.676 Y39.209 E.0275
G1 X54.195 Y39.039 E.01693
G1 X53.625 Y38.821 E.02024
G1 X52.82 Y38.463 E.02924
G1 X51.783 Y37.9 E.03914
G1 X50.923 Y37.352 E.03381
G1 X50.475 Y37.027 E.01838
G1 X49.945 Y36.608 E.02242
G1 X49.504 Y36.226 E.01934
G1 X48.77 Y35.506 E.03411
G1 X48.379 Y35.085 E.01904
;WIDTH:0.497516
G1 X48.045 Y34.655 E.02019
;WIDTH:0.511308
G1 X47.503 Y33.963 E.03354
;WIDTH:0.480654
G1 X47.309 Y33.72 E.01108
;WIDTH:0.449999
G1 X47.019 Y33.27 E.01778
G1 X46.687 Y32.712 E.02154
G1 X46.627 Y32.416 E.01001
G1 X46.707 Y32.115 E.01033
G1 X47.425 Y30.987 E.04434
G1 X48.01 Y30.217 E.03209
G1 X48.192 Y30.542 E.01237
G1 X48.428 Y30.759 E.01062
G1 X48.828 Y30.914 E.01423
G1 X49.349 Y30.965 E.01735
G1 X50.167 Y30.529 F7200
;TYPE:Outer wall
G1 F1800
G1 X49.64 Y30.571 E.01754
G1 X49.032 Y30.545 E.02017
G1 X48.615 Y30.398 E.01467
G1 X48.537 Y30.326 E.00354
G1 X48.361 Y30.001 E.01223
G1 X48.363 Y29.73 E.00901
;WIDTH:0.432932
G1 X48.433 Y29.59 E.00497
;WIDTH:0.397823
G1 X48.502 Y29.45 E.00452
;WIDTH:0.402588
G1 X48.729 Y29.237 E.00913
;WIDTH:0.449999
G1 X49.059 Y29.136 E.01144
G1 X50.877 Y29.135 E.0603
G1 X51.352 Y29.11 E.01579
