; HEADER_BLOCK_START
; generated by OrcaSlicer 2.0.0 on 2024-04-14 at 22:07:32
; total layer number: 100
; filament_density: 1.24
; filament_diameter: 1.75
; max_z_height: 20.00
; HEADER_BLOCK_END

; THUMBNAIL_BLOCK_START

;
; THUMBNAIL_BLOCK_END

; external perimeters extrusion width = 0.45mm
; perimeters extrusion width = 0.45mm
; infill extrusion width = 0.45mm
; solid infill extrusion width = 0.45mm
; top infill extrusion width = 0.40mm

; EXECUTABLE_BLOCK_START
M73 P0 R19
M201 X10000 Y10000 Z500 E5000
M203 X500 Y500 Z10 E60
M204 P10000 R1000 T10000
M205 X8.00 Y8.00 Z0.40 E5.00 ; sets the jerk limits, mm/sec
;TYPE:Custom
G90 ; use absolute coordinates
M83 ; extruder relative mode
M204 S10000 T1000
M104 S220 ; set extruder temp
M140 S60 ; set bed temp
G28 ; home all
G1 Y1.0 Z0.3 F1000 ; move print head up
M190 S60 ; wait for bed temp
M109 S220 ; wait for extruder temp
G92 E0.0
; initial load
G1 X205.0 E19 F1000
G1 Y1.6
M73 P1 R19
G1 X5.0 E19 F1000
G92 E0.0
; intro line
G1 Y2.0 Z0.2 F1000
M73 P2 R19
G1 X65.0 E9.0 F1000
G1 X105.0 E12.5 F1000
G92 E0.0
G90
G21
M83 ; use relative distances for extrusion
; filament start gcode
M106 S0
;LAYER_CHANGE
;Z:0.2
;HEIGHT:0.2
;BEFORE_LAYER_CHANGE
;0.2
G92 E0

G1 E-.9 F2700
;AFTER_LAYER_CHANGE
;0.2
;_SET_FAN_SPEED_CHANGING_LAYER
M204 S300
M73 P2 R18
G1 Z.4 F7200
G1 X29.15 Y28.079
G1 Z.4
G1 Z.2
G1 E.9 F2100
;TYPE:Skirt
;WIDTH:0.45
G1 F3000
G1 X30.219 Y27.045 E.04933
G1 X31.571 Y26.699 E.0463
G1 X51.571 Y26.699 E.66344
G1 X53.005 Y27.092 E.04933
G1 X54.039 Y28.161 E.04933
G1 X54.385 Y29.513 E.0463
G1 X54.385 Y49.513 E.66344
G1 X53.992 Y50.948 E.04933
G1 X52.923 Y51.981 E.04933
G1 X51.571 Y52.327 E.0463
G1 X31.571 Y52.327 E.66344
G1 X30.137 Y51.935 E.04933
G1 X29.103 Y50.866 E.04933
G1 X28.757 Y49.513 E.0463
G1 X28.757 Y29.513 E.66344
G1 X29.139 Y28.118 E.048
G1 X29.543 Y28.238 F7200
G1 F3000
G1 X29.556 Y28.197 E.00141
G1 X30.603 Y27.309 E.04555
G1 X31.571 Y27.106 E.0328
G1 X51.571 Y27.106 E.66344
G1 X52.887 Y27.498 E.04555
G1 X53.775 Y28.546 E.04555
G1 X53.978 Y29.513 E.0328
G1 X53.978 Y49.513 E.66344
G1 X53.586 Y50.829 E.04555
M73 P3 R18
G1 X52.539 Y51.717 E.04555
G1 X51.571 Y51.92 E.0328
G1 X31.571 Y51.92 E.66344
G1 X30.255 Y51.529 E.04555
G1 X29.367 Y50.481 E.04555
G1 X29.164 Y49.513 E.0328
G1 X29.164 Y29.513 E.66344
G1 X29.532 Y28.276 E.04281
; printing object 20mm_Cube.stl id:140704902206624 copy 0
G1 E-.9 F2700
G1 Z.6 F7200
G1 X50.532 Y48.474 Z.6
G1 Z.2
G1 E.9 F2100
;TYPE:Inner wall
;WIDTH:0.449999
G1 F1800
G1 X32.61 Y48.474 E.59449
G1 X32.61 Y30.552 E.59449
G1 X50.532 Y30.552 E.59449
G1 X50.532 Y48.434 E.59317
G1 X50.939 Y48.881 F7200
G1 F1800
G1 X32.203 Y48.881 E.6215
G1 X32.203 Y30.145 E.6215
G1 X50.939 Y30.145 E.6215
G1 X50.939 Y48.841 E.62017
G1 X51.346 Y49.288 F7200
;TYPE:Outer wall
G1 F1800
G1 X31.796 Y49.288 E.64851
G1 X31.796 Y29.738 E.64851
G1 X51.346 Y29.738 E.64851
G1 X51.346 Y49.248 E.64718
G1 E-.9 F2700
G1 Z.6 F7200
G1 X50.369 Y31.542 Z.6
G1 Z.2
G1 E.9 F2100
;TYPE:Bottom surface
;WIDTH:0.451806
G1 F3600
G1 X49.725 Y30.898 E.03032
G1 X49.147 Y30.898 E.01927
G1 X50.186 Y31.937 E.04894
G1 X50.186 Y32.515 E.01927
M73 P4 R18
G1 X48.569 Y30.898 E.07619
G1 X47.991 Y30.898 E.01927
G1 X50.186 Y33.094 E.10343
G1 X50.186 Y33.672 E.01927
G1 X47.412 Y30.898 E.13068
G1 X46.834 Y30.898 E.01927
G1 X50.186 Y34.25 E.15793
G1 X50.186 Y34.828 E.01927
G1 X46.256 Y30.898 E.18518
G1 X45.678 Y30.898 E.01927
G1 X50.186 Y35.407 E.21242
G1 X50.186 Y35.985 E.01927
G1 X45.099 Y30.898 E.23967
G1 X44.521 Y30.898 E.01927
G1 X50.186 Y36.563 E.26692
G1 X50.186 Y37.141 E.01927
G1 X43.943 Y30.898 E.29417
G1 X43.365 Y30.898 E.01927
G1 X50.186 Y37.72 E.32141
G1 X50.186 Y38.298 E.01927
G1 X42.786 Y30.898 E.34866
G1 X42.208 Y30.898 E.01927
G1 X50.186 Y38.876 E.37591
G1 X50.186 Y39.454 E.01927
G1 X41.63 Y30.898 E.40316
G1 X41.052 Y30.898 E.01927
G1 X50.186 Y40.033 E.4304
G1 X50.186 Y40.611 E.01927
G1 X40.473 Y30.898 E.45765
G1 X39.895 Y30.898 E.01927
G1 X50.186 Y41.189 E.4849
G1 X50.186 Y41.767 E.01927
G1 X39.317 Y30.898 E.51215
G1 X38.739 Y30.898 E.01927
G1 X50.186 Y42.346 E.53939
G1 X50.186 Y42.924 E.01927
G1 X38.16 Y30.898 E.56664
G1 X37.582 Y30.898 E.01927
G1 X50.186 Y43.502 E.59389
G1 X50.186 Y44.08 E.01927
G1 X37.004 Y30.898 E.62113
G1 X36.426 Y30.898 E.01927
G1 X50.186 Y44.659 E.64838
G1 X50.186 Y45.237 E.01927
G1 X35.847 Y30.898 E.67563
G1 X35.269 Y30.898 E.01927
G1 X50.186 Y45.815 E.70288
G1 X50.186 Y46.393 E.01927
G1 X34.691 Y30.898 E.73012
G1 X34.113 Y30.898 E.01927
G1 X50.186 Y46.972 E.75737
G1 X50.186 Y47.55 E.01927
G1 X33.534 Y30.898 E.78462
G1 X32.956 Y30.898 E.01927
G1 X50.186 Y48.128 E.81186
G1 X49.608 Y48.128 E.01927
G1 X32.956 Y31.477 E.78462
G1 X32.956 Y32.055 E.01927
M73 P5 R18
G1 X49.029 Y48.128 E.75737
G1 X48.451 Y48.128 E.01927
G1 X32.956 Y32.633 E.73012
G1 X32.956 Y33.212 E.01927
G1 X47.873 Y48.128 E.70287
G1 X47.295 Y48.128 E.01927
G1 X32.956 Y33.79 E.67563
G1 X32.956 Y34.368 E.01927
G1 X46.716 Y48.128 E.64838
G1 X46.138 Y48.128 E.01927
G1 X32.956 Y34.946 E.62113
G1 X32.956 Y35.525 E.01927
G1 X45.56 Y48.128 E.59388
G1 X44.982 Y48.128 E.01927
G1 X32.956 Y36.103 E.56664
G1 X32.956 Y36.681 E.01927
G1 X44.403 Y48.128 E.53939
G1 X43.825 Y48.128 E.01927
G1 X32.956 Y37.259 E.51214
G1 X32.956 Y37.838 E.01927
G1 X43.247 Y48.128 E.4849
G1 X42.669 Y48.128 E.01927
G1 X32.956 Y38.416 E.45765
G1 X32.956 Y38.994 E.01927
G1 X42.09 Y48.128 E.4304
G1 X41.512 Y48.128 E.01927
G1 X32.956 Y39.572 E.40315
G1 X32.956 Y40.151 E.01927
G1 X40.934 Y48.128 E.37591
G1 X40.356 Y48.128 E.01927
G1 X32.956 Y40.729 E.34866
G1 X32.956 Y41.307 E.01927
G1 X39.777 Y48.128 E.32141
G1 X39.199 Y48.128 E.01927
G1 X32.956 Y41.885 E.29416
G1 X32.956 Y42.464 E.01927
G1 X38.621 Y48.128 E.26692
G1 X38.043 Y48.128 E.01927
G1 X32.956 Y43.042 E.23967
G1 X32.956 Y43.62 E.01927
G1 X37.464 Y48.128 E.21242
G1 X36.886 Y48.128 E.01927
G1 X32.956 Y44.198 E.18517
G1 X32.956 Y44.777 E.01927
G1 X36.308 Y48.128 E.15793
G1 X35.73 Y48.128 E.01927
G1 X32.956 Y45.355 E.13068
G1 X32.956 Y45.933 E.01927
G1 X35.151 Y48.128 E.10343
G1 X34.573 Y48.128 E.01927
G1 X32.956 Y46.511 E.07618
G1 X32.956 Y47.09 E.01927
G1 X33.995 Y48.128 E.04894
G1 X33.417 Y48.128 E.01927
G1 X32.773 Y47.485 E.03032
; stop printing object 20mm_Cube.stl id:140704902206624 copy 0
M106 S255
;LAYER_CHANGE
;Z:0.4
;HEIGHT:0.2
;BEFORE_LAYER_CHANGE
;0.4
G92 E0

G1 E-.9 F2700
;AFTER_LAYER_CHANGE
;0.4
;_SET_FAN_SPEED_CHANGING_LAYER
M204 S500
; printing object 20mm_Cube.stl id:140704902206624 copy 0
M204 S10000
G1 Z.6 F7200
G1 X50.532 Y48.474 Z.6
G1 Z.4
G1 E.9 F2100
;TYPE:Inner wall
;WIDTH:0.449999
G1 F3600
G1 X32.61 Y48.474 E.59449
G1 X32.61 Y30.552 E.59449
G1 X50.532 Y30.552 E.59449
G1 X50.532 Y48.434 E.59317
M73 P6 R18
G1 X50.939 Y48.881 F7200
G1 F3600
G1 X32.203 Y48.881 E.6215
G1 X32.203 Y30.145 E.6215
G1 X50.939 Y30.145 E.6215
G1 X50.939 Y48.841 E.62017
G1 X51.346 Y49.288 F7200
M204 S500
;TYPE:Outer wall
G1 F3600
G1 X31.796 Y49.288 E.64851
G1 X31.796 Y29.738 E.64851
G1 X51.346 Y29.738 E.64851
G1 X51.346 Y49.248 E.64718
M204 S10000
G1 E-.9 F2700
G1 Z.8 F7200
G1 X49.533 Y48.311 Z.8
G1 Z.4
G1 E.9 F2100
M204 S500
;TYPE:Internal solid infill
;WIDTH:0.456008
G1 F6000
G1 X50.186 Y47.659 E.03106
G1 X50.186 Y47.075 E.01966
G1 X49.132 Y48.128 E.05015
G1 X48.548 Y48.128 E.01966
G1 X50.186 Y46.49 E.07796
G1 X50.186 Y45.906 E.01966
G1 X47.964 Y48.128 E.10577
G1 X47.38 Y48.128 E.01966
G1 X50.186 Y45.322 E.13358
G1 X50.186 Y44.738 E.01966
G1 X46.796 Y48.128 E.16139
G1 X46.211 Y48.128 E.01966
G1 X50.186 Y44.154 E.1892
G1 X50.186 Y43.569 E.01966
G1 X45.627 Y48.128 E.21701
G1 X45.043 Y48.128 E.01966
G1 X50.186 Y42.985 E.24482
G1 X50.186 Y42.401 E.01966
G1 X44.459 Y48.128 E.27263
G1 X43.875 Y48.128 E.01966
G1 X50.186 Y41.817 E.30044
G1 X50.186 Y41.233 E.01966
G1 X43.29 Y48.128 E.32825
G1 X42.706 Y48.128 E.01966
G1 X50.186 Y40.649 E.35606
G1 X50.186 Y40.064 E.01966
G1 X42.122 Y48.128 E.38387
G1 X41.538 Y48.128 E.01966
G1 X50.186 Y39.48 E.41168
G1 X50.186 Y38.896 E.01966
G1 X40.954 Y48.128 E.43949
G1 X40.369 Y48.128 E.01966
G1 X50.186 Y38.312 E.4673
G1 X50.186 Y37.728 E.01966
G1 X39.785 Y48.128 E.49511
G1 X39.201 Y48.128 E.01966
G1 X50.186 Y37.143 E.52292
G1 X50.186 Y36.559 E.01966
G1 X38.617 Y48.128 E.55074
G1 X38.033 Y48.128 E.01966
G1 X50.186 Y35.975 E.57855
G1 X50.186 Y35.391 E.01966
G1 X37.448 Y48.128 E.60636
G1 X36.864 Y48.128 E.01966
G1 X50.186 Y34.807 E.63417
G1 X50.186 Y34.222 E.01966
G1 X36.28 Y48.128 E.66198
G1 X35.696 Y48.128 E.01966
G1 X50.186 Y33.638 E.68979
G1 X50.186 Y33.054 E.01966
G1 X35.112 Y48.128 E.7176
G1 X34.528 Y48.128 E.01966
G1 X50.186 Y32.47 E.74541
G1 X50.186 Y31.886 E.01966
G1 X33.943 Y48.128 E.77322
G1 X33.359 Y48.128 E.01966
M73 P7 R18
G1 X50.186 Y31.301 E.80103
G1 X50.186 Y30.898 E.01356
G1 X50.005 Y30.898 E.0061
G1 X32.956 Y47.947 E.81158
G1 X32.956 Y47.363 E.01966
G1 X49.42 Y30.898 E.78377
G1 X48.836 Y30.898 E.01966
G1 X32.956 Y46.778 E.75596
G1 X32.956 Y46.194 E.01966
G1 X48.252 Y30.898 E.72815
G1 X47.668 Y30.898 E.01966
G1 X32.956 Y45.61 E.70034
G1 X32.956 Y45.026 E.01966
G1 X47.084 Y30.898 E.67253
G1 X46.499 Y30.898 E.01966
G1 X32.956 Y44.442 E.64472
G1 X32.956 Y43.857 E.01966
G1 X45.915 Y30.898 E.61691
G1 X45.331 Y30.898 E.01966
G1 X32.956 Y43.273 E.5891
G1 X32.956 Y42.689 E.01966
G1 X44.747 Y30.898 E.56129
G1 X44.163 Y30.898 E.01966
G1 X32.956 Y42.105 E.53348
G1 X32.956 Y41.521 E.01966
G1 X43.578 Y30.898 E.50567
G1 X42.994 Y30.898 E.01966
G1 X32.956 Y40.937 E.47786
G1 X32.956 Y40.352 E.01966
G1 X42.41 Y30.898 E.45005
G1 X41.826 Y30.898 E.01966
G1 X32.956 Y39.768 E.42224
G1 X32.956 Y39.184 E.01966
G1 X41.242 Y30.898 E.39442
G1 X40.657 Y30.898 E.01966
G1 X32.956 Y38.6 E.36661
G1 X32.956 Y38.016 E.01966
G1 X40.073 Y30.898 E.3388
G1 X39.489 Y30.898 E.01966
G1 X32.956 Y37.431 E.31099
G1 X32.956 Y36.847 E.01966
G1 X38.905 Y30.898 E.28318
G1 X38.321 Y30.898 E.01966
M73 P7 R17
G1 X32.956 Y36.263 E.25537
G1 X32.956 Y35.679 E.01966
G1 X37.737 Y30.898 E.22756
G1 X37.152 Y30.898 E.01966
G1 X32.956 Y35.095 E.19975
G1 X32.956 Y34.51 E.01966
G1 X36.568 Y30.898 E.17194
G1 X35.984 Y30.898 E.01966
G1 X32.956 Y33.926 E.14413
G1 X32.956 Y33.342 E.01966
G1 X35.4 Y30.898 E.11632
G1 X34.816 Y30.898 E.01966
G1 X32.956 Y32.758 E.08851
G1 X32.956 Y32.174 E.01966
G1 X34.231 Y30.898 E.0607
G1 X33.647 Y30.898 E.01966
G1 X32.773 Y31.773 E.04161
M204 S10000
G1 E-.9 F2700
G1 Z.8 F7200
G1 X33.169 Y48.21 Z.8
G1 Z.4
G1 E.9 F2100
M204 S500
;TYPE:Gap infill
;WIDTH:0.131533
G1 F1800
G1 X32.989 Y48.229 E.00131
G1 X32.814 Y48.194 E.00129
M204 S10000
G1 E-.9 F2700
G1 Z.8 F7200
G1 X33.058 Y30.926 Z.8
G1 Z.4
G1 E.9 F2100
M204 S500
;TYPE:Internal solid infill
;WIDTH:0.477236
G1 F6000
G1 X33.004 Y30.926 E.00192
G1 X32.977 Y30.973 E.00192
G1 X33.004 Y31.02 E.00192
G1 X33.058 Y31.02 E.00192
G1 X33.065 Y31.008 E.00051
; stop printing object 20mm_Cube.stl id:140704902206624 copy 0
;LAYER_CHANGE
;Z:0.6
;HEIGHT:0.2
;BEFORE_LAYER_CHANGE
;0.6
G92 E0

G1 E-.9 F2700
;AFTER_LAYER_CHANGE
;0.6
;_SET_FAN_SPEED_CHANGING_LAYER
; printing object 20mm_Cube.stl id:140704902206624 copy 0
M204 S10000
G1 Z.8 F7200
G1 X50.532 Y48.474 Z.8
G1 Z.6
G1 E.9 F2100
;TYPE:Inner wall
;WIDTH:0.449999
G1 F3600
G1 X32.61 Y48.474 E.59449
G1 X32.61 Y30.552 E.59449
G1 X50.532 Y30.552 E.59449
G1 X50.532 Y48.434 E.59317
G1 X50.939 Y48.881 F7200
M73 P8 R17
G1 F3600
G1 X32.203 Y48.881 E.6215
G1 X32.203 Y30.145 E.6215
G1 X50.939 Y30.145 E.6215
G1 X50.939 Y48.841 E.62017
G1 X51.346 Y49.288 F7200
M204 S500
;TYPE:Outer wall
G1 F3600
G1 X31.796 Y49.288 E.64851
G1 X31.796 Y29.738 E.64851
G1 X51.346 Y29.738 E.64851
G1 X51.346 Y49.248 E.64718
M204 S10000
G1 E-.9 F2700
G1 Z1 F7200
G1 X50.369 Y31.551 Z1
G1 Z.6
G1 E.9 F2100
M204 S500
;TYPE:Internal solid infill
;WIDTH:0.456008
G1 F6000
G1 X49.717 Y30.898 E.03106
G1 X49.132 Y30.898 E.01966
G1 X50.186 Y31.952 E.05015
G1 X50.186 Y32.536 E.01966
G1 X48.548 Y30.898 E.07796
G1 X47.964 Y30.898 E.01966
G1 X50.186 Y33.12 E.10577
G1 X50.186 Y33.705 E.01966
G1 X47.38 Y30.898 E.13358
G1 X46.796 Y30.898 E.01966
G1 X50.186 Y34.289 E.16139
G1 X50.186 Y34.873 E.01966
G1 X46.211 Y30.898 E.1892
G1 X45.627 Y30.898 E.01966
G1 X50.186 Y35.457 E.21701
G1 X50.186 Y36.041 E.01966
G1 X45.043 Y30.898 E.24482
G1 X44.459 Y30.898 E.01966
G1 X50.186 Y36.626 E.27263
G1 X50.186 Y37.21 E.01966
G1 X43.875 Y30.898 E.30044
G1 X43.29 Y30.898 E.01966
G1 X50.186 Y37.794 E.32825
G1 X50.186 Y38.378 E.01966
G1 X42.706 Y30.898 E.35606
G1 X42.122 Y30.898 E.01966
G1 X50.186 Y38.962 E.38387
G1 X50.186 Y39.546 E.01966
G1 X41.538 Y30.898 E.41168
G1 X40.954 Y30.898 E.01966
G1 X50.186 Y40.131 E.43949
G1 X50.186 Y40.715 E.01966
G1 X40.369 Y30.898 E.4673
G1 X39.785 Y30.898 E.01966
G1 X50.186 Y41.299 E.49511
G1 X50.186 Y41.883 E.01966
G1 X39.201 Y30.898 E.52292
G1 X38.617 Y30.898 E.01966
G1 X50.186 Y42.467 E.55074
G1 X50.186 Y43.052 E.01966
G1 X38.033 Y30.898 E.57855
G1 X37.448 Y30.898 E.01966
G1 X50.186 Y43.636 E.60636
G1 X50.186 Y44.22 E.01966
G1 X36.864 Y30.898 E.63417
G1 X36.28 Y30.898 E.01966
G1 X50.186 Y44.804 E.66198
G1 X50.186 Y45.388 E.01966
G1 X35.696 Y30.898 E.68979
G1 X35.112 Y30.898 E.01966
G1 X50.186 Y45.973 E.7176
G1 X50.186 Y46.557 E.01966
G1 X34.528 Y30.898 E.74541
G1 X33.943 Y30.898 E.01966
G1 X50.186 Y47.141 E.77322
G1 X50.186 Y47.725 E.01966
M73 P9 R17
G1 X33.359 Y30.898 E.80103
G1 X32.956 Y30.898 E.01356
G1 X32.956 Y31.08 E.0061
G1 X50.005 Y48.128 E.81158
G1 X49.42 Y48.128 E.01966
G1 X32.956 Y31.664 E.78377
G1 X32.956 Y32.248 E.01966
G1 X48.836 Y48.128 E.75596
G1 X48.252 Y48.128 E.01966
G1 X32.956 Y32.832 E.72815
G1 X32.956 Y33.417 E.01966
G1 X47.668 Y48.128 E.70034
G1 X47.084 Y48.128 E.01966
G1 X32.956 Y34.001 E.67253
G1 X32.956 Y34.585 E.01966
G1 X46.499 Y48.128 E.64472
G1 X45.915 Y48.128 E.01966
G1 X32.956 Y35.169 E.61691
G1 X32.956 Y35.753 E.01966
G1 X45.331 Y48.128 E.5891
G1 X44.747 Y48.128 E.01966
G1 X32.956 Y36.338 E.56129
G1 X32.956 Y36.922 E.01966
G1 X44.163 Y48.128 E.53348
G1 X43.578 Y48.128 E.01966
G1 X32.956 Y37.506 E.50567
G1 X32.956 Y38.09 E.01966
G1 X42.994 Y48.128 E.47786
G1 X42.41 Y48.128 E.01966
G1 X32.956 Y38.674 E.45005
G1 X32.956 Y39.258 E.01966
G1 X41.826 Y48.128 E.42224
G1 X41.242 Y48.128 E.01966
G1 X32.956 Y39.843 E.39442
G1 X32.956 Y40.427 E.01966
G1 X40.657 Y48.128 E.36661
G1 X40.073 Y48.128 E.01966
G1 X32.956 Y41.011 E.3388
G1 X32.956 Y41.595 E.01966
G1 X39.489 Y48.128 E.31099
G1 X38.905 Y48.128 E.01966
G1 X32.956 Y42.179 E.28318
G1 X32.956 Y42.764 E.01966
G1 X38.321 Y48.128 E.25537
G1 X37.737 Y48.128 E.01966
G1 X32.956 Y43.348 E.22756
G1 X32.956 Y43.932 E.01966
G1 X37.152 Y48.128 E.19975
G1 X36.568 Y48.128 E.01966
G1 X32.956 Y44.516 E.17194
G1 X32.956 Y45.1 E.01966
G1 X35.984 Y48.128 E.14413
G1 X35.4 Y48.128 E.01966
G1 X32.956 Y45.685 E.11632
G1 X32.956 Y46.269 E.01966
G1 X34.816 Y48.128 E.08851
G1 X34.231 Y48.128 E.01966
G1 X32.956 Y46.853 E.0607
G1 X32.956 Y47.437 E.01966
G1 X33.83 Y48.311 E.04161
M204 S10000
G1 E-.9 F2700
G1 Z1 F7200
G1 X50.252 Y48.271 Z1
G1 Z.6
G1 E.9 F2100
M204 S500
;TYPE:Gap infill
;WIDTH:0.14813
G1 F1800
G1 X50.287 Y48.096 E.00153
G1 X50.267 Y47.915 E.00156
M204 S10000
G1 E-.9 F2700
G1 Z1 F7200
G1 X33.058 Y48.006 Z1
G1 Z.6
G1 E.9 F2100
M204 S500
;TYPE:Internal solid infill
;WIDTH:0.477236
G1 F6000
G1 X33.004 Y48.006 E.00192
G1 X32.977 Y48.053 E.00192
G1 X33.004 Y48.1 E.00192
G1 X33.058 Y48.1 E.00192
G1 X33.065 Y48.088 E.00051
; stop printing object 20mm_Cube.stl id:140704902206624 copy 0
;LAYER_CHANGE
;Z:0.8
;HEIGHT:0.2
;BEFORE_LAYER_CHANGE
;0.8
G92 E0

G1 E-.9 F2700
;AFTER_LAYER_CHANGE
;0.8
;_SET_FAN_SPEED_CHANGING_LAYER
; printing object 20mm_Cube.stl id:140704902206624 copy 0
M204 S10000
G1 Z1 F7200
G1 X50.532 Y48.474 Z1
G1 Z.8
G1 E.9 F2100
;TYPE:Inner wall
;WIDTH:0.449999
G1 F3178
G1 X32.61 Y48.474 E.59449
G1 X32.61 Y30.552 E.59449
G1 X50.532 Y30.552 E.59449
G1 X50.532 Y48.434 E.59317
G1 X50.939 Y48.881 F7200
M73 P10 R17
G1 F3178
G1 X32.203 Y48.881 E.6215
G1 X32.203 Y30.145 E.6215
G1 X50.939 Y30.145 E.6215
G1 X50.939 Y48.841 E.62017
G1 X51.346 Y49.288 F7200
M204 S500
;TYPE:Outer wall
G1 F3178
G1 X31.796 Y49.288 E.64851
G1 X31.796 Y29.738 E.64851
