;FLAVOR:Marlin
;TIME:6167
;Filament used: 3.72967m
;Layer height: 0.2
;MINX:75.073
;MINY:137.353
;MINZ:0.2
;MAXX:220.038
;MAXY:183.881
;MAXZ:22
;Generated with Cura_SteamEngine 5.4.0
M82 ;absolute extrusion mode
; Ender 3 S1 Plus Start G-code
; M413 S0 ; Disable power loss recovery
G92 E0 ; Reset Extruder

; Prep surfaces before auto home for better accuracy
M140 S60
M104 S200

G28 O ; Home all untrusted axes
G1 Z10.0 F3000 ; Move Z Axis up little to prevent scratching of Heat Bed
G1 X0 Y0

M190 S60
M109 S200

G1 X0.1 Y20 Z0.3 F5000.0 ; Move to start position
G1 X0.1 Y200.0 Z0.3 F1500.0 E15 ; Draw the first line
G1 X0.4 Y200.0 Z0.3 F5000.0 ; Move to side a little
G1 X0.4 Y20 Z0.3 F1500.0 E30 ; Draw the second line
G92 E0 ; Reset Extruder
G1 Z2.0 F3000 ; Move Z Axis up little to prevent scratching of Heat Bed
G1 X5 Y20 Z0.3 F5000.0 ; Move over to prevent blob squish

G92 E0
G92 E0
G1 F2400 E-0.8
;LAYER_COUNT:110
;LAYER:0
M107
M204 S2000
G0 F7500 X79.449 Y140.051 Z0.2
M204 S500
;TYPE:SKIRT
G1 F2400 E0
G1 F1500 X81.633 Y138.793 E0.08383
G1 X83.047 Y138.186 E0.13501
G1 X86.136 Y137.836 E0.23841
G1 X111.336 Y138.323 E1.07672
G1 X112.595 Y138.48 E1.11892
G1 X114.923 Y139.256 E1.20054
G1 X117.226 Y140.865 E1.29398
G1 X118.403 Y142.103 E1.35079
G1 X119.868 Y144.437 E1.44245
G1 X120.114 Y145.009 E1.46316
G1 X120.642 Y147.848 E1.5592
G1 X120.645 Y164.655 E2.1182
G1 X120.24 Y174.774 E2.45503
G1 X120.047 Y176.077 E2.49884
G1 X119.175 Y178.44 E2.58262
G1 X117.356 Y180.829 E2.68249
G1 X116.698 Y181.481 E2.7133
G1 X113.746 Y183.28 E2.82828
G1 X111.795 Y183.624 E2.89417
G1 X110.883 Y183.881 E2.92568
G1 X84.602 Y183.396 E3.79994
G1 X83.227 Y183.249 E3.84593
G1 X80.75 Y182.418 E3.93283
G1 X78.063 Y180.478 E4.04306
G1 X77.775 Y180.187 E4.05668
G1 X76.03 Y177.469 E4.16411
G1 X75.706 Y176.752 E4.19028
G1 X75.462 Y175.502 E4.23264
G1 X75.073 Y174.537 E4.26724
G1 X75.074 Y163.553 E4.63257
G1 X75.66 Y147.42 E5.16951
G1 X76.014 Y145.387 E5.23815
G1 X76.699 Y143.318 E5.31063
G1 X78.498 Y141.015 E5.40783
G1 X79.449 Y140.051 E5.45287
M204 S2000
G0 F7500 X79.695 Y140.371
M204 S500
G1 F1500 X81.833 Y139.14 E5.53493
G1 X83.152 Y138.576 E5.58264
G1 X86.128 Y138.236 E5.68226
G1 X111.286 Y138.72 E6.51918
G1 X112.51 Y138.873 E6.56021
G1 X114.74 Y139.616 E6.63838
G1 X116.963 Y141.169 E6.72858
G1 X118.085 Y142.35 E6.78276
G1 X119.529 Y144.65 E6.87308
G1 X119.73 Y145.128 E6.89033
G1 X120.242 Y147.883 E6.98353
G1 X120.245 Y164.639 E7.54084
G1 X119.844 Y174.715 E7.87623
G1 X119.657 Y175.979 E7.91873
G1 X118.821 Y178.244 E7.99903
G1 X117.074 Y180.545 E8.09512
G1 X116.45 Y181.164 E8.12436
G1 X113.602 Y182.899 E8.23527
G1 X111.709 Y183.233 E8.29921
G1 X110.832 Y183.48 E8.32951
G1 X84.645 Y182.998 E9.20064
G1 X83.31 Y182.855 E9.2453
G1 X80.935 Y182.058 E9.32862
G1 X78.297 Y180.154 E9.43683
G1 X78.091 Y179.938 E9.44675
G1 X76.367 Y177.253 E9.55288
G1 X76.091 Y176.633 E9.57545
G1 X75.848 Y175.389 E9.61761
G1 X75.473 Y174.459 E9.65096
G1 X75.474 Y163.568 E10.0132
G1 X76.06 Y147.435 E10.55014
G1 X76.394 Y145.513 E10.61502
G1 X77.058 Y143.508 E10.68527
G1 X78.783 Y141.296 E10.77857
G1 X79.695 Y140.371 E10.82177
M204 S2000
G0 F7500 X79.941 Y140.691
M204 S500
G1 F1500 X82.033 Y139.487 E10.90206
G1 X83.257 Y138.966 E10.9463
G1 X86.12 Y138.636 E11.04215
G1 X111.237 Y139.117 E11.8777
G1 X112.424 Y139.265 E11.91749
G1 X114.557 Y139.976 E11.99227
G1 X116.702 Y141.475 E12.07931
G1 X117.765 Y142.594 E12.13064
G1 X119.19 Y144.863 E12.21976
G1 X119.345 Y145.243 E12.23341
G1 X119.842 Y147.918 E12.3239
G1 X119.845 Y164.623 E12.87951
G1 X119.448 Y174.657 E13.2135
G1 X119.267 Y175.882 E13.25469
G1 X118.468 Y178.047 E13.33145
G1 X116.755 Y180.303 E13.42566
G1 X116.202 Y180.847 E13.45146
G1 X113.458 Y182.518 E13.55832
G1 X111.623 Y182.842 E13.62029
G1 X110.781 Y183.079 E13.64939
G1 X84.688 Y182.6 E14.51739
G1 X83.393 Y182.461 E14.56071
G1 X81.12 Y181.698 E14.64046
G1 X78.531 Y179.83 E14.74664
G1 X78.428 Y179.722 E14.7516
G1 X76.704 Y177.037 E14.85773
G1 X76.476 Y176.516 E14.87665
G1 X76.234 Y175.278 E14.9186
G1 X75.873 Y174.382 E14.95073
G1 X75.874 Y163.583 E15.30991
G1 X76.46 Y147.45 E15.84685
G1 X76.774 Y145.639 E15.90798
G1 X77.416 Y143.7 E15.97591
G1 X79.068 Y141.577 E16.06538
G1 X79.941 Y140.691 E16.10675
M204 S2000
G0 F7500 X80.185 Y141.013
M204 S500
G1 F1500 X82.233 Y139.834 E16.18535
G1 X83.36 Y139.356 E16.22607
G1 X86.112 Y139.036 E16.31822
G1 X111.187 Y139.514 E17.15237
G1 X112.339 Y139.658 E17.19098
G1 X114.374 Y140.336 E17.26232
G1 X116.438 Y141.779 E17.34608
G1 X117.447 Y142.841 E17.39481
G1 X118.851 Y145.076 E17.48259
G1 X118.959 Y145.356 E17.49258
G1 X119.442 Y147.953 E17.58043
G1 X119.445 Y164.607 E18.13435
G1 X119.052 Y174.599 E18.46694
G1 X118.877 Y175.784 E18.50678
G1 X118.114 Y177.851 E18.58006
G1 X116.436 Y180.061 E18.67236
G1 X115.957 Y180.528 E18.69461
G1 X113.314 Y182.137 E18.79752
G1 X111.537 Y182.451 E18.85754
G1 X110.73 Y182.678 E18.88542
G1 X84.731 Y182.202 E19.7503
G1 X83.476 Y182.067 E19.79228
G1 X81.305 Y181.338 E19.86845
G1 X78.765 Y179.506 E19.97261
G1 X77.041 Y176.821 E20.07874
G1 X76.861 Y176.398 E20.09403
G1 X76.62 Y175.165 E20.13581
G1 X76.273 Y174.304 E20.16669
G1 X76.274 Y163.598 E20.52277
G1 X76.86 Y147.465 E21.05971
G1 X77.154 Y145.765 E21.11709
G1 X77.774 Y143.892 E21.18271
G1 X79.384 Y141.823 E21.26991
G1 X80.185 Y141.013 E21.3078
M204 S2000
G0 F7500 X80.431 Y141.334
M204 S500
G1 F1500 X82.433 Y140.181 E21.38464
G1 X83.463 Y139.746 E21.42183
G1 X86.104 Y139.436 E21.51027
G1 X111.138 Y139.911 E22.34305
G1 X112.253 Y140.05 E22.38043
G1 X114.191 Y140.696 E22.44837
G1 X116.177 Y142.085 E22.52898
G1 X117.127 Y143.085 E22.57485
G1 X118.512 Y145.289 E22.66143
G1 X118.566 Y145.429 E22.66642
G1 X119.042 Y147.988 E22.753
G1 X119.045 Y164.591 E23.30521
G1 X118.656 Y174.541 E23.6364
G1 X118.487 Y175.686 E23.6749
G1 X117.76 Y177.655 E23.74471
G1 X116.117 Y179.819 E23.83508
G1 X115.713 Y180.208 E23.85373
G1 X113.17 Y181.756 E23.95275
G1 X111.448 Y182.06 E24.01091
G1 X110.678 Y182.277 E24.03752
G1 X84.774 Y181.804 E24.89923
G1 X83.559 Y181.673 E24.93988
G1 X81.49 Y180.978 E25.01247
G1 X79.061 Y179.227 E25.11207
G1 X77.409 Y176.664 E25.21348
G1 X77.246 Y176.282 E25.2273
G1 X77.006 Y175.052 E25.26898
G1 X76.673 Y174.226 E25.2986
G1 X76.674 Y163.613 E25.65159
G1 X77.26 Y147.48 E26.18853
G1 X77.534 Y145.891 E26.24216
G1 X78.132 Y144.084 E26.30547
G1 X79.7 Y142.069 E26.39039
G1 X80.431 Y141.334 E26.42487
M204 S2000
G0 F7500 X80.676 Y141.655
M204 S500
G1 F1500 X82.633 Y140.528 E26.49998
G1 X83.568 Y140.136 E26.5337
G1 X86.096 Y139.836 E26.61837
G1 X111.088 Y140.308 E27.44976
G1 X112.168 Y140.443 E27.48596
G1 X114.008 Y141.056 E27.55046
G1 X115.916 Y142.391 E27.62791
G1 X116.807 Y143.329 E27.67094
G1 X118.173 Y145.502 E27.75631
G1 X118.642 Y148.023 E27.8416
G1 X118.645 Y164.575 E28.39212
G1 X118.26 Y174.482 E28.72188
G1 X118.096 Y175.59 E28.75913
G1 X117.407 Y177.458 E28.82535
G1 X115.798 Y179.577 E28.91385
G1 X115.47 Y179.888 E28.92888
G1 X113.026 Y181.375 E29.02403
G1 X111.362 Y181.669 E29.08023
G1 X110.627 Y181.876 E29.10563
G1 X84.817 Y181.406 E29.96422
G1 X83.642 Y181.279 E30.00352
G1 X81.675 Y180.618 E30.07254
G1 X79.357 Y178.947 E30.16758
G1 X77.745 Y176.447 E30.26652
G1 X77.631 Y176.167 E30.27658
G1 X77.392 Y174.939 E30.31819
G1 X77.073 Y174.148 E30.34655
G1 X77.074 Y163.628 E30.69645
G1 X77.66 Y147.495 E31.23339
G1 X77.914 Y146.017 E31.28327
G1 X78.49 Y144.276 E31.34426
G1 X80.016 Y142.315 E31.42691
G1 X80.676 Y141.655 E31.45795
M204 S2000
G0 F7500 X80.923 Y141.974
M204 S500
G1 F1500 X82.788 Y140.897 E31.52958
G1 X83.672 Y140.526 E31.56147
G1 X86.088 Y140.236 E31.6424
G1 X111.039 Y140.705 E32.47242
G1 X112.082 Y140.835 E32.50738
G1 X113.825 Y141.416 E32.56849
G1 X115.652 Y142.695 E32.64266
G1 X116.489 Y143.576 E32.68308
G1 X117.794 Y145.652 E32.76464
G1 X118.242 Y148.058 E32.84604
G1 X118.245 Y164.56 E33.3949
G1 X117.864 Y174.424 E33.72322
G1 X117.706 Y175.493 E33.75916
G1 X117.053 Y177.263 E33.82191
G1 X115.523 Y179.286 E33.90627
G1 X115.225 Y179.568 E33.91992
G1 X112.882 Y180.994 E34.01114
G1 X111.276 Y181.278 E34.06539
G1 X110.576 Y181.475 E34.08958
G1 X84.86 Y181.008 E34.94503
G1 X83.726 Y180.885 E34.98297
G1 X81.862 Y180.259 E35.04837
G1 X79.651 Y178.666 E35.13901
G1 X78.081 Y176.23 E35.2354
G1 X78.024 Y176.09 E35.24043
G1 X77.778 Y174.828 E35.28319
G1 X77.473 Y174.071 E35.31034
G1 X77.474 Y163.643 E35.65717
G1 X78.06 Y147.51 E36.19411
G1 X78.294 Y146.143 E36.24024
G1 X78.849 Y144.466 E36.29899
G1 X80.299 Y142.598 E36.37765
G1 X80.923 Y141.974 E36.407
M204 S2000
G1 F2400 E35.607
G0 F7500 X82.943 Y141.266
M204 S500
G1 F2400 E36.407
G1 F1500 X83.776 Y140.916 E36.43705
G1 X86.081 Y140.636 E36.51428
G1 X110.989 Y141.102 E37.34286
G1 X111.997 Y141.228 E37.37665
G1 X113.641 Y141.776 E37.43429
G1 X115.388 Y142.999 E37.50522
G1 X116.171 Y143.823 E37.54302
G1 X117.415 Y145.802 E37.62077
G1 X117.842 Y148.093 E37.69828
G1 X117.845 Y164.545 E38.24548
G1 X117.468 Y174.366 E38.57237
G1 X117.316 Y175.395 E38.60696
G1 X116.698 Y177.069 E38.66631
G1 X115.204 Y179.045 E38.74871
G1 X114.982 Y179.247 E38.75869
G1 X112.738 Y180.613 E38.84606
G1 X111.19 Y180.887 E38.89835
G1 X110.525 Y181.074 E38.92133
G1 X84.903 Y180.61 E39.77366
G1 X83.81 Y180.491 E39.81023
G1 X82.046 Y179.899 E39.87211
G1 X79.947 Y178.386 E39.95817
G1 X78.417 Y176.013 E40.05208
G1 X78.164 Y174.717 E40.096
G1 X77.873 Y173.994 E40.12192
G1 X77.874 Y163.658 E40.4657
G1 X78.46 Y147.525 E41.00264
G1 X78.674 Y146.269 E41.04502
G1 X79.208 Y144.656 E41.10153
G1 X80.582 Y142.881 E41.17619
G1 X81.17 Y142.293 E41.20384
G1 X82.943 Y141.266 E41.27199
M204 S2000
G0 F7500 X83.098 Y141.635
M204 S500
G1 F1500 X83.88 Y141.306 E41.30021
G1 X86.074 Y141.036 E41.37373
G1 X110.94 Y141.499 E42.20092
G1 X111.911 Y141.62 E42.23347
G1 X113.456 Y142.135 E42.28763
G1 X115.129 Y143.307 E42.35557
G1 X115.851 Y144.067 E42.39044
G1 X117.036 Y145.952 E42.4645
G1 X117.442 Y148.129 E42.53815
G1 X117.445 Y164.53 E43.08365
G1 X117.072 Y174.307 E43.40907
G1 X116.925 Y175.299 E43.44243
G1 X116.344 Y176.874 E43.49826
G1 X114.885 Y178.804 E43.57873
G1 X114.774 Y178.905 E43.58372
G1 X112.594 Y180.232 E43.66861
G1 X111.101 Y180.496 E43.71903
G1 X110.473 Y180.673 E43.74074
G1 X84.946 Y180.212 E44.58991
G1 X83.894 Y180.097 E44.6251
G1 X82.233 Y179.54 E44.68337
G1 X80.241 Y178.105 E44.76503
G1 X78.795 Y175.862 E44.85379
G1 X78.55 Y174.603 E44.89645
G1 X78.273 Y173.916 E44.92109
G1 X78.274 Y163.673 E45.26177
G1 X78.86 Y147.54 E45.79871
G1 X79.054 Y146.395 E45.83733
G1 X79.567 Y144.846 E45.89161
G1 X80.865 Y143.164 E45.96227
G1 X81.416 Y142.613 E45.98819
G1 X83.098 Y141.635 E46.0529
M204 S2000
G0 F7500 X83.253 Y142.004
M204 S500
G1 F1500 X83.984 Y141.696 E46.07928
G1 X86.067 Y141.436 E46.1491
G1 X110.89 Y141.896 E46.97486
G1 X111.826 Y142.013 E47.00623
G1 X113.27 Y142.494 E47.05686
G1 X114.867 Y143.613 E47.12171
G1 X115.533 Y144.314 E47.15387
G1 X116.657 Y146.102 E47.22412
G1 X117.042 Y148.165 E47.29392
G1 X117.045 Y164.515 E47.83772
G1 X116.676 Y174.248 E48.16168
G1 X116.535 Y175.201 E48.19372
G1 X115.989 Y176.68 E48.24615
G1 X114.566 Y178.563 E48.32466
G1 X112.45 Y179.851 E48.40705
G1 X111.015 Y180.105 E48.45552
G1 X110.422 Y180.272 E48.47601
G1 X84.99 Y179.814 E49.32202
G1 X83.977 Y179.703 E49.35591
G1 X82.417 Y179.18 E49.41063
G1 X80.537 Y177.825 E49.48771
G1 X79.174 Y175.711 E49.57137
G1 X78.936 Y174.49 E49.61275
G1 X78.673 Y173.838 E49.63613
G1 X78.674 Y163.688 E49.97372
G1 X79.26 Y147.555 E50.51066
G1 X79.434 Y146.521 E50.54553
G1 X79.926 Y145.036 E50.59757
G1 X81.148 Y143.447 E50.66424
G1 X81.663 Y142.932 E50.68846
G1 X83.253 Y142.004 E50.74969
M204 S2000
G0 F7500 X83.408 Y142.373
M204 S500
G1 F1500 X84.089 Y142.086 E50.77427
G1 X86.06 Y141.836 E50.84035
G1 X110.84 Y142.293 E51.66468
G1 X111.736 Y142.405 E51.69471
G1 X113.087 Y142.855 E51.74207
G1 X114.605 Y143.919 E51.80373
G1 X115.215 Y144.561 E51.83319
G1 X116.278 Y146.252 E51.89962
G1 X116.642 Y148.201 E51.96556
G1 X116.645 Y164.5 E52.50767
G1 X116.28 Y174.19 E52.83019
G1 X116.145 Y175.104 E52.86092
G1 X115.635 Y176.486 E52.90991
G1 X114.294 Y178.26 E52.98388
G1 X112.306 Y179.47 E53.06128
G1 X110.929 Y179.714 E53.1078
G1 X110.371 Y179.871 E53.12708
G1 X85.034 Y179.416 E53.96992
G1 X84.06 Y179.309 E54.00251
G1 X82.601 Y178.82 E54.05369
G1 X80.833 Y177.545 E54.12619
G1 X79.552 Y175.56 E54.20477
G1 X79.322 Y174.379 E54.24479
G1 X79.073 Y173.761 E54.26695
G1 X79.074 Y163.702 E54.60151
G1 X79.655 Y147.62 E55.13675
G1 X79.814 Y146.647 E55.16954
G1 X80.286 Y145.224 E55.21941
G1 X81.431 Y143.73 E55.28201
G1 X81.911 Y143.25 E55.30459
G1 X83.408 Y142.373 E55.3623
M204 S2000
G0 F7500 X83.563 Y142.742
M204 S500
G1 F1500 X84.194 Y142.476 E55.38507
G1 X86.053 Y142.236 E55.44742
G1 X110.79 Y142.69 E56.27031
G1 X111.646 Y142.797 E56.299
G1 X112.904 Y143.216 E56.3431
G1 X114.346 Y144.227 E56.40168
G1 X114.895 Y144.805 E56.42819
G1 X115.899 Y146.402 E56.49093
G1 X116.242 Y148.237 E56.55302
G1 X116.245 Y164.485 E57.09343
G1 X115.884 Y174.132 E57.41452
G1 X115.755 Y175.006 E57.4439
G1 X115.28 Y176.292 E57.4895
G1 X114.022 Y177.957 E57.55891
G1 X112.162 Y179.089 E57.63133
G1 X110.843 Y179.323 E57.67588
G1 X110.32 Y179.47 E57.69395
G1 X85.078 Y179.018 E58.53364
G1 X84.143 Y178.915 E58.56492
G1 X82.788 Y178.461 E58.61245
G1 X81.127 Y177.264 E58.68055
G1 X79.93 Y175.409 E58.75398
G1 X79.708 Y174.266 E58.7927
G1 X79.473 Y173.683 E58.81361
G1 X79.474 Y163.716 E59.14512
G1 X80.055 Y147.634 E59.68035
G1 X80.194 Y146.773 E59.70936
G1 X80.645 Y145.414 E59.75699
G1 X81.749 Y143.973 E59.81736
G1 X82.155 Y143.571 E59.83637
G1 X83.563 Y142.742 E59.89071
M204 S2000
G0 F7500 X83.766 Y143.087
M204 S500
G1 F1500 X84.296 Y142.867 E59.9098
G1 X86.046 Y142.636 E59.96851
G1 X110.74 Y143.087 E60.78997
G1 X111.556 Y143.189 E60.81732
G1 X112.724 Y143.578 E60.85827
G1 X114.084 Y144.532 E60.91352
G1 X114.575 Y145.049 E60.93723
G1 X115.52 Y146.552 E60.99628
G1 X115.842 Y148.274 E61.05455
G1 X115.845 Y164.47 E61.59323
G1 X115.488 Y174.073 E61.91285
G1 X115.364 Y174.91 E61.94099
G1 X114.926 Y176.098 E61.98311
G1 X113.75 Y177.654 E62.04798
G1 X112.018 Y178.708 E62.11541
G1 X110.754 Y178.932 E62.15811
G1 X110.268 Y179.069 E62.1749
G1 X85.122 Y178.62 E63.01139
G1 X84.226 Y178.521 E63.04138
G1 X82.972 Y178.101 E63.08536
G1 X81.423 Y176.984 E63.14888
G1 X80.309 Y175.258 E63.21721
G1 X80.094 Y174.155 E63.25458
G1 X79.873 Y173.606 E63.27427
G1 X79.874 Y163.73 E63.60274
G1 X80.455 Y147.648 E64.13798
G1 X80.574 Y146.899 E64.16321
G1 X81.004 Y145.604 E64.20859
G1 X82.067 Y144.216 E64.26674
G1 X82.401 Y143.891 E64.28224
G1 X83.766 Y143.087 E64.33493
M204 S2000
G0 F7500 X83.969 Y143.432
M204 S500
G1 F1500 X84.401 Y143.256 E64.35044
G1 X86.039 Y143.036 E64.40541
G1 X110.69 Y143.484 E65.22544
G1 X111.466 Y143.581 E65.25145
G1 X112.544 Y143.94 E65.28925
G1 X113.822 Y144.837 E65.34118
G1 X114.255 Y145.293 E65.36209
G1 X115.141 Y146.702 E65.41745
G1 X115.442 Y148.311 E65.47189
G1 X115.445 Y164.455 E66.00885
G1 X115.092 Y174.015 E66.32703
G1 X114.974 Y174.814 E66.35389
G1 X114.572 Y175.904 E66.39253
G1 X113.478 Y177.351 E66.45287
G1 X111.874 Y178.327 E66.51532
G1 X110.668 Y178.541 E66.55605
G1 X110.217 Y178.668 E66.57164
G1 X85.166 Y178.222 E67.40497
G1 X84.309 Y178.127 E67.43365
G1 X83.159 Y177.742 E67.47398
G1 X81.717 Y176.703 E67.5331
G1 X80.687 Y175.107 E67.59628
G1 X80.48 Y174.043 E67.63233
G1 X80.273 Y173.529 E67.65076
G1 X80.274 Y163.744 E67.97621
G1 X80.851 Y147.708 E68.50991
G1 X80.954 Y147.025 E68.53289
G1 X81.363 Y145.794 E68.57603
G1 X82.385 Y144.459 E68.63195
G1 X82.643 Y144.213 E68.64381
G1 X83.969 Y143.432 E68.69499
M204 S2000
G0 F7500 X84.172 Y143.777
M204 S500
G1 F1500 X84.506 Y143.645 E68.70694
G1 X86.032 Y143.436 E68.75817
G1 X110.64 Y143.881 E69.57676
G1 X111.376 Y143.973 E69.60143
G1 X112.364 Y144.302 E69.63607
G1 X113.56 Y145.142 E69.68468
G1 X113.935 Y145.537 E69.7028
G1 X114.762 Y146.852 E69.75446
G1 X115.042 Y148.348 E69.80508
G1 X115.045 Y164.44 E70.34031
G1 X114.696 Y173.957 E70.65706
G1 X114.584 Y174.716 E70.68257
G1 X114.217 Y175.71 E70.71782
G1 X113.206 Y177.048 E70.77359
