;FLAVOR:Marlin
;TIME:4510
;Filament used: 2.54798m
;Layer height: 0.2
;MINX:122.444
;MINY:102.839
;MINZ:0.2
;MAXX:207.016
;MAXY:187.001
;MAXZ:13.4
;Generated with Cura_SteamEngine 5.4.0
M82 ;absolute extrusion mode
; Ender 3 S1 Plus Start G-code
; M413 S0 ; Disable power loss recovery
G92 E0 ; Reset Extruder

; Prep surfaces before auto home for better accuracy
M140 S60
M104 S200

G28 O ; Home all untrusted axes
G1 Z10.0 F3000 ; Move Z Axis up little to prevent scratching of Heat Bed
G1 X0 Y0

M190 S60
M109 S200

G1 X0.1 Y20 Z0.3 F5000.0 ; Move to start position
G1 X0.1 Y200.0 Z0.3 F1500.0 E15 ; Draw the first line
G1 X0.4 Y200.0 Z0.3 F5000.0 ; Move to side a little
G1 X0.4 Y20 Z0.3 F1500.0 E30 ; Draw the second line
G92 E0 ; Reset Extruder
G1 Z2.0 F3000 ; Move Z Axis up little to prevent scratching of Heat Bed
G1 X5 Y20 Z0.3 F5000.0 ; Move over to prevent blob squish

G92 E0
G92 E0
G1 F2400 E-0.8
;LAYER_COUNT:67
;LAYER:0
M107
M204 S2000
G0 F7500 X134.381 Y106.824 Z0.2
M204 S500
;TYPE:SKIRT
G1 F2400 E0
G1 F1500 X135.942 Y105.365 E0.07107
G1 X137.965 Y104.158 E0.14942
G1 X139.683 Y103.876 E0.20732
G1 X153.507 Y103.801 E0.66712
G1 X155.413 Y104.269 E0.73239
G1 X157.439 Y105.32 E0.80831
G1 X158.913 Y106.896 E0.88008
G1 X159.935 Y108.62 E0.94674
G1 X160.138 Y109.102 E0.96413
G1 X160.414 Y110.944 E1.02608
G1 X160.432 Y112.668 E1.08343
G1 X163.235 Y113.457 E1.18028
G1 X163.908 Y113.807 E1.20551
G1 X164.692 Y112.981 E1.24338
G1 X166.482 Y111.72 E1.31621
G1 X169.755 Y110.807 E1.42923
G1 X169.755 Y109.786 E1.46318
G1 X170.221 Y107.89 E1.52812
G1 X171.274 Y105.862 E1.60412
G1 X172.835 Y104.403 E1.67519
G1 X174.858 Y103.196 E1.75354
G1 X176.576 Y102.914 E1.81145
G1 X190.4 Y102.839 E2.27124
G1 X192.306 Y103.307 E2.33652
G1 X194.332 Y104.358 E2.41243
G1 X195.806 Y105.934 E2.4842
G1 X196.828 Y107.658 E2.55086
G1 X197.031 Y108.14 E2.56826
G1 X197.307 Y109.982 E2.63021
G1 X197.323 Y111.116 E2.66793
G1 X200.128 Y111.906 E2.76485
G1 X202.043 Y112.904 E2.83667
G1 X204.751 Y115.745 E2.96722
G1 X205.797 Y117.394 E3.03217
G1 X206.832 Y120.928 E3.15464
G1 X207.007 Y123.087 E3.22669
G1 X206.927 Y123.455 E3.23921
G1 X206.954 Y123.714 E3.24788
G1 X206.908 Y125.502 E3.30736
G1 X206.861 Y125.817 E3.31796
G1 X207.016 Y127.664 E3.3796
G1 X205.901 Y131.625 E3.51647
G1 X204.938 Y133.449 E3.58507
G1 X202.26 Y136.127 E3.71104
G1 X200.459 Y137.286 E3.78227
G1 X197.355 Y138.148 E3.88941
G1 X197.355 Y139.492 E3.93412
G1 X196.889 Y141.388 E3.99905
G1 X195.836 Y143.416 E4.07506
G1 X194.56 Y144.608 E4.13313
G1 X195.626 Y145.749 E4.18507
G1 X196.648 Y147.473 E4.25173
G1 X196.851 Y147.955 E4.26912
G1 X197.127 Y149.797 E4.33107
G1 X197.143 Y150.931 E4.36879
G1 X199.948 Y151.721 E4.46572
G1 X201.861 Y152.718 E4.53747
G1 X204.573 Y155.564 E4.66822
G1 X205.617 Y157.21 E4.73305
G1 X206.652 Y160.744 E4.85553
G1 X206.835 Y163.006 E4.93101
G1 X206.712 Y163.433 E4.94579
G1 X206.856 Y165.134 E5.00257
G1 X206.687 Y165.723 E5.02295
G1 X206.836 Y167.47 E5.08126
G1 X205.721 Y171.432 E5.21816
G1 X204.758 Y173.256 E5.28676
G1 X202.08 Y175.934 E5.41273
G1 X200.279 Y177.093 E5.48396
G1 X197.175 Y177.955 E5.59111
G1 X197.175 Y179.307 E5.63607
G1 X196.709 Y181.203 E5.70101
G1 X195.656 Y183.231 E5.77701
G1 X194.095 Y184.69 E5.84808
G1 X192.072 Y185.897 E5.92643
G1 X190.354 Y186.179 E5.98434
G1 X176.53 Y186.254 E6.44413
G1 X174.624 Y185.786 E6.50941
G1 X172.598 Y184.735 E6.58532
G1 X171.127 Y183.162 E6.65695
G1 X170.088 Y181.418 E6.72447
G1 X169.905 Y180.983 E6.74017
G1 X169.624 Y179.116 E6.80296
G1 X169.601 Y175.935 E6.90877
G1 X166.852 Y175.133 E7.00401
G1 X166.367 Y174.873 E7.02231
G1 X164.551 Y176.689 E7.10773
G1 X162.75 Y177.848 E7.17896
G1 X159.646 Y178.71 E7.28611
G1 X159.646 Y180.054 E7.33081
G1 X159.18 Y181.95 E7.39575
G1 X158.127 Y183.978 E7.47175
G1 X156.566 Y185.437 E7.54282
G1 X154.543 Y186.644 E7.62117
G1 X152.825 Y186.926 E7.67908
G1 X139.001 Y187.001 E8.13887
G1 X137.095 Y186.533 E8.20415
G1 X135.069 Y185.482 E8.28006
G1 X133.598 Y183.909 E8.35169
G1 X132.559 Y182.165 E8.41921
G1 X132.376 Y181.73 E8.43491
G1 X132.095 Y179.864 E8.49767
G1 X132.072 Y176.72 E8.60224
G1 X129.323 Y175.918 E8.69749
G1 X127.442 Y174.907 E8.76851
G1 X124.723 Y172.188 E8.89641
G1 X123.617 Y170.481 E8.96406
G1 X122.444 Y166.459 E9.1034
G1 X122.493 Y165.407 E9.13843
G1 X122.463 Y163.663 E9.19644
G1 X123.506 Y160.07 E9.32088
G1 X124.392 Y158.375 E9.38449
G1 X126.997 Y155.624 E9.51051
G1 X128.775 Y154.386 E9.58256
G1 X132.046 Y153.473 E9.69552
G1 X132.046 Y150.348 E9.79946
G1 X132.512 Y148.452 E9.86439
G1 X133.565 Y146.424 E9.9404
G1 X135.073 Y145.014 E10.00906
G1 X134.411 Y144.306 E10.0413
G1 X133.389 Y142.582 E10.10796
G1 X133.186 Y142.1 E10.12535
G1 X132.91 Y140.258 E10.1873
G1 X132.891 Y138.446 E10.24757
G1 X130.09 Y137.627 E10.34464
G1 X128.274 Y136.648 E10.41325
G1 X125.557 Y133.931 E10.54105
G1 X124.419 Y132.159 E10.6111
G1 X123.382 Y128.621 E10.73372
G1 X123.254 Y126.756 E10.7959
G1 X123.299 Y126.436 E10.80665
G1 X123.289 Y124.57 E10.86871
G1 X124.324 Y121.037 E10.99116
G1 X125.214 Y119.322 E11.05542
G1 X127.796 Y116.599 E11.18023
G1 X129.59 Y115.335 E11.25322
G1 X132.862 Y114.422 E11.36621
G1 X132.862 Y110.748 E11.4884
G1 X133.328 Y108.852 E11.55334
G1 X134.381 Y106.824 E11.62935
M204 S2000
G0 F7500 X134.704 Y107.069
M204 S500
G1 F1500 X136.181 Y105.689 E11.69658
G1 X138.105 Y104.541 E11.77109
G1 X139.748 Y104.271 E11.82647
G1 X153.462 Y104.201 E12.28261
G1 X155.27 Y104.645 E12.34453
G1 X157.194 Y105.643 E12.41662
G1 X158.589 Y107.135 E12.48456
G1 X159.566 Y108.775 E12.54805
G1 X159.749 Y109.21 E12.56374
G1 X160.018 Y111.003 E12.62405
G1 X160.035 Y112.972 E12.68954
G1 X163.085 Y113.83 E12.79492
G1 X163.99 Y114.301 E12.82885
G1 X164.954 Y113.285 E12.87543
G1 X166.656 Y112.086 E12.94468
G1 X170.155 Y111.11 E13.0655
G1 X170.155 Y109.832 E13.10801
G1 X170.597 Y108.033 E13.16962
G1 X171.597 Y106.107 E13.2418
G1 X173.074 Y104.727 E13.30903
G1 X174.998 Y103.579 E13.38355
G1 X176.641 Y103.309 E13.43893
G1 X190.355 Y103.239 E13.89506
G1 X192.163 Y103.683 E13.95698
G1 X194.087 Y104.681 E14.02907
G1 X195.482 Y106.173 E14.09701
G1 X196.459 Y107.813 E14.1605
G1 X196.642 Y108.248 E14.1762
G1 X196.911 Y110.041 E14.2365
G1 X196.926 Y111.42 E14.28237
G1 X199.978 Y112.279 E14.38782
G1 X201.799 Y113.228 E14.45612
G1 X204.435 Y115.994 E14.58321
G1 X205.429 Y117.561 E14.64493
G1 X206.436 Y121 E14.76411
G1 X206.603 Y123.061 E14.83288
G1 X206.522 Y123.434 E14.84558
G1 X206.554 Y123.704 E14.85462
G1 X206.508 Y125.492 E14.91411
G1 X206.458 Y125.803 E14.92459
G1 X206.611 Y127.627 E14.98547
G1 X205.528 Y131.474 E15.11839
G1 X204.612 Y133.209 E15.18365
G1 X202.005 Y135.816 E15.30627
G1 X200.294 Y136.917 E15.37394
G1 X196.955 Y137.844 E15.4892
G1 X196.955 Y139.446 E15.54248
G1 X196.513 Y141.245 E15.6041
G1 X195.513 Y143.171 E15.67628
G1 X193.995 Y144.589 E15.74537
G1 X195.302 Y145.988 E15.80904
G1 X196.279 Y147.628 E15.87254
G1 X196.462 Y148.063 E15.88823
G1 X196.731 Y149.856 E15.94854
G1 X196.746 Y151.235 E15.9944
G1 X199.798 Y152.094 E16.09986
G1 X201.617 Y153.042 E16.16808
G1 X204.257 Y155.813 E16.29538
G1 X205.249 Y157.377 E16.35698
G1 X206.256 Y160.816 E16.47616
G1 X206.43 Y162.968 E16.54797
G1 X206.307 Y163.396 E16.56278
G1 X206.451 Y165.097 E16.61956
G1 X206.282 Y165.686 E16.63994
G1 X206.431 Y167.433 E16.69826
G1 X205.348 Y171.281 E16.83122
G1 X204.432 Y173.016 E16.89647
G1 X201.825 Y175.623 E17.0191
G1 X200.114 Y176.724 E17.08677
G1 X196.775 Y177.651 E17.20202
G1 X196.775 Y179.261 E17.25557
G1 X196.333 Y181.06 E17.31719
G1 X195.333 Y182.986 E17.38937
G1 X193.856 Y184.366 E17.4566
G1 X191.932 Y185.514 E17.53112
G1 X190.289 Y185.784 E17.58649
G1 X176.575 Y185.854 E18.04263
G1 X174.767 Y185.41 E18.10455
G1 X172.843 Y184.412 E18.17664
G1 X171.451 Y182.923 E18.24444
G1 X170.432 Y181.213 E18.31064
G1 X170.294 Y180.876 E18.32275
G1 X170.02 Y179.056 E18.38397
G1 X169.999 Y175.634 E18.49779
G1 X167.002 Y174.76 E18.60162
G1 X166.294 Y174.38 E18.62835
G1 X164.296 Y176.378 E18.72233
G1 X162.585 Y177.479 E18.79
G1 X159.246 Y178.406 E18.90526
G1 X159.246 Y180.008 E18.95854
G1 X158.804 Y181.807 E19.02015
G1 X157.804 Y183.733 E19.09233
G1 X156.327 Y185.113 E19.15956
G1 X154.403 Y186.261 E19.23408
G1 X152.76 Y186.531 E19.28946
G1 X139.046 Y186.601 E19.7456
G1 X137.238 Y186.157 E19.80752
G1 X135.314 Y185.159 E19.87961
G1 X133.922 Y183.67 E19.9474
G1 X132.903 Y181.96 E20.01361
G1 X132.765 Y181.623 E20.02572
G1 X132.491 Y179.804 E20.0869
G1 X132.47 Y176.419 E20.19949
G1 X129.473 Y175.545 E20.30332
G1 X127.685 Y174.584 E20.37084
G1 X125.037 Y171.936 E20.49539
G1 X123.984 Y170.311 E20.55979
G1 X122.847 Y166.412 E20.69488
G1 X122.894 Y165.399 E20.72861
G1 X122.885 Y165.295 E20.73208
G1 X122.864 Y163.716 E20.7846
G1 X123.88 Y160.217 E20.90578
G1 X124.72 Y158.61 E20.9661
G1 X127.258 Y155.93 E21.08886
G1 X128.948 Y154.753 E21.15736
G1 X132.446 Y153.777 E21.27815
G1 X132.446 Y150.394 E21.39067
G1 X132.888 Y148.595 E21.45228
G1 X133.888 Y146.669 E21.52446
G1 X135.371 Y145.283 E21.59197
G1 X135.693 Y145.092 E21.60442
G1 X134.735 Y144.067 E21.65109
G1 X133.758 Y142.427 E21.71458
G1 X133.575 Y141.992 E21.73028
G1 X133.306 Y140.199 E21.79058
G1 X133.289 Y138.146 E21.85886
G1 X130.243 Y137.255 E21.96442
G1 X128.516 Y136.324 E22.02967
G1 X125.871 Y133.679 E22.15409
G1 X124.787 Y131.991 E22.22081
G1 X123.778 Y128.549 E22.34011
G1 X123.656 Y126.77 E22.39942
G1 X123.702 Y126.445 E22.41034
G1 X123.694 Y126.35 E22.41351
G1 X123.689 Y124.626 E22.47085
G1 X124.697 Y121.186 E22.59007
G1 X125.543 Y119.556 E22.65115
G1 X128.058 Y116.903 E22.77274
G1 X129.764 Y115.702 E22.84213
G1 X133.262 Y114.726 E22.96292
G1 X133.262 Y110.794 E23.0937
G1 X133.704 Y108.995 E23.15531
G1 X134.704 Y107.069 E23.22749
M204 S2000
G0 F7500 X135.027 Y107.314
M204 S500
G1 F1500 X136.423 Y106.01 E23.29103
G1 X138.243 Y104.924 E23.36152
G1 X139.813 Y104.666 E23.41444
G1 X153.417 Y104.601 E23.86692
G1 X155.127 Y105.021 E23.92548
G1 X156.949 Y105.966 E23.99375
G1 X158.265 Y107.374 E24.05785
G1 X159.222 Y108.98 E24.12003
G1 X159.36 Y109.317 E24.13214
G1 X159.622 Y111.062 E24.19083
G1 X159.637 Y113.275 E24.26444
G1 X162.935 Y114.203 E24.37839
G1 X164.072 Y114.795 E24.42102
G1 X165.216 Y113.589 E24.47631
G1 X166.83 Y112.452 E24.54198
G1 X170.555 Y111.413 E24.6706
G1 X170.555 Y109.879 E24.72162
G1 X170.974 Y108.175 E24.77998
G1 X171.92 Y106.352 E24.84829
G1 X173.316 Y105.048 E24.91183
G1 X175.136 Y103.962 E24.98232
G1 X176.706 Y103.704 E25.03524
G1 X190.31 Y103.639 E25.48772
G1 X192.02 Y104.059 E25.54628
G1 X193.842 Y105.004 E25.61455
G1 X195.158 Y106.412 E25.67865
G1 X196.115 Y108.018 E25.74083
G1 X196.253 Y108.355 E25.75294
G1 X196.515 Y110.1 E25.81163
G1 X196.528 Y111.723 E25.86561
G1 X199.828 Y112.652 E25.97964
G1 X201.555 Y113.552 E26.04441
G1 X204.119 Y116.243 E26.16804
G1 X205.061 Y117.728 E26.22653
G1 X206.04 Y121.072 E26.34242
G1 X206.199 Y123.035 E26.40792
G1 X206.116 Y123.417 E26.42092
G1 X206.154 Y123.694 E26.43022
G1 X206.108 Y125.482 E26.48971
G1 X206.055 Y125.787 E26.50001
G1 X206.206 Y127.59 E26.56018
G1 X205.155 Y131.323 E26.68917
G1 X204.286 Y132.969 E26.75108
G1 X201.752 Y135.503 E26.87027
G1 X200.127 Y136.549 E26.93455
G1 X196.555 Y137.54 E27.05784
G1 X196.555 Y139.399 E27.11967
G1 X196.136 Y141.103 E27.17803
G1 X195.19 Y142.926 E27.24635
G1 X193.794 Y144.23 E27.30988
G1 X193.205 Y144.581 E27.33269
G1 X193.662 Y144.819 E27.34982
G1 X194.978 Y146.227 E27.41393
G1 X195.935 Y147.833 E27.47611
G1 X196.073 Y148.17 E27.48822
G1 X196.335 Y149.915 E27.54691
G1 X196.348 Y151.538 E27.60089
G1 X199.648 Y152.467 E27.71491
G1 X201.373 Y153.366 E27.77961
G1 X203.941 Y156.062 E27.90345
G1 X204.881 Y157.544 E27.96182
G1 X205.86 Y160.888 E28.07771
G1 X206.025 Y162.927 E28.14575
G1 X205.902 Y163.356 E28.16059
G1 X206.046 Y165.06 E28.21747
G1 X205.877 Y165.649 E28.23785
G1 X206.026 Y167.396 E28.29617
G1 X204.975 Y171.13 E28.42519
G1 X204.106 Y172.776 E28.4871
G1 X201.572 Y175.31 E28.60629
G1 X199.947 Y176.356 E28.67056
G1 X196.375 Y177.347 E28.79386
G1 X196.375 Y179.214 E28.85595
G1 X195.956 Y180.918 E28.91432
G1 X195.01 Y182.741 E28.98263
G1 X193.614 Y184.045 E29.04616
G1 X191.794 Y185.131 E29.11665
G1 X190.224 Y185.389 E29.16957
G1 X176.62 Y185.454 E29.62205
G1 X174.91 Y185.034 E29.68062
G1 X173.088 Y184.089 E29.74888
G1 X171.775 Y182.684 E29.81284
G1 X170.776 Y181.008 E29.87774
G1 X170.681 Y180.765 E29.88641
G1 X170.42 Y179.054 E29.94398
G1 X170.397 Y175.334 E30.06771
G1 X167.152 Y174.387 E30.18014
G1 X166.221 Y173.887 E30.21529
G1 X164.043 Y176.065 E30.31774
G1 X162.418 Y177.111 E30.38201
G1 X158.846 Y178.102 E30.50531
G1 X158.846 Y179.961 E30.56714
G1 X158.427 Y181.665 E30.6255
G1 X157.481 Y183.488 E30.69381
G1 X156.085 Y184.792 E30.75735
G1 X154.265 Y185.878 E30.82784
G1 X152.695 Y186.136 E30.88076
G1 X139.091 Y186.201 E31.33323
G1 X137.381 Y185.781 E31.3918
G1 X135.559 Y184.836 E31.46006
G1 X134.246 Y183.431 E31.52402
G1 X133.247 Y181.755 E31.58892
G1 X133.152 Y181.512 E31.5976
G1 X132.891 Y179.802 E31.65513
G1 X132.868 Y176.119 E31.77763
G1 X129.623 Y175.172 E31.89006
G1 X127.928 Y174.261 E31.95406
G1 X125.349 Y171.682 E32.07537
G1 X124.352 Y170.143 E32.13636
G1 X123.25 Y166.365 E32.26726
G1 X123.295 Y165.391 E32.29969
G1 X123.284 Y165.261 E32.30403
G1 X123.265 Y163.77 E32.35362
G1 X124.254 Y160.364 E32.47158
G1 X125.048 Y158.845 E32.52859
G1 X127.519 Y156.236 E32.64811
G1 X129.122 Y155.119 E32.71309
G1 X132.846 Y154.08 E32.84168
G1 X132.846 Y150.441 E32.96272
G1 X133.265 Y148.737 E33.02108
G1 X134.211 Y146.914 E33.08939
G1 X135.61 Y145.607 E33.15307
G1 X136.324 Y145.182 E33.18071
G1 X135.059 Y143.828 E33.24234
G1 X134.102 Y142.222 E33.30452
G1 X133.964 Y141.885 E33.31663
G1 X133.702 Y140.14 E33.37532
G1 X133.687 Y137.846 E33.45162
G1 X130.396 Y136.883 E33.56567
G1 X128.758 Y136 E33.62756
G1 X126.185 Y133.427 E33.74859
G1 X125.154 Y131.822 E33.81203
G1 X124.174 Y128.478 E33.92793
G1 X124.058 Y126.784 E33.98441
G1 X124.104 Y126.454 E33.99549
G1 X124.093 Y126.318 E34.00003
G1 X124.089 Y124.683 E34.05441
G1 X125.07 Y121.335 E34.17044
G1 X125.872 Y119.79 E34.22834
G1 X128.32 Y117.207 E34.34671
G1 X129.938 Y116.068 E34.41252
G1 X133.662 Y115.029 E34.54111
G1 X133.662 Y110.841 E34.6804
G1 X134.081 Y109.137 E34.73877
G1 X135.027 Y107.314 E34.80708
M204 S2000
G0 F7500 X135.35 Y107.559
M204 S500
G1 F1500 X136.665 Y106.331 E34.86692
G1 X138.381 Y105.307 E34.93338
G1 X139.878 Y105.061 E34.98384
G1 X153.372 Y105.001 E35.43266
G1 X154.984 Y105.397 E35.48787
G1 X156.704 Y106.289 E35.55231
G1 X157.941 Y107.613 E35.61258
G1 X158.878 Y109.185 E35.67344
G1 X158.973 Y109.428 E35.68212
G1 X159.222 Y111.065 E35.7372
G1 X159.239 Y113.578 E35.82078
G1 X162.785 Y114.576 E35.9433
G1 X164.154 Y115.289 E35.99464
G1 X165.478 Y113.893 E36.05863
G1 X167.004 Y112.818 E36.12072
G1 X170.514 Y111.839 E36.24192
G1 X170.955 Y111.806 E36.25663
G1 X170.955 Y109.925 E36.31919
G1 X171.35 Y108.318 E36.37423
G1 X172.243 Y106.597 E36.43872
G1 X173.558 Y105.369 E36.49856
G1 X175.274 Y104.345 E36.56502
G1 X176.771 Y104.099 E36.61548
G1 X190.265 Y104.039 E37.0643
G1 X191.877 Y104.435 E37.11951
G1 X193.597 Y105.327 E37.18395
G1 X194.834 Y106.651 E37.24421
G1 X195.771 Y108.223 E37.30508
G1 X195.866 Y108.466 E37.31376
G1 X196.115 Y110.103 E37.36883
G1 X196.13 Y112.026 E37.4328
G1 X199.678 Y113.025 E37.55539
G1 X201.311 Y113.876 E37.61664
G1 X203.803 Y116.492 E37.73681
G1 X204.693 Y117.895 E37.79207
G1 X205.644 Y121.144 E37.90466
G1 X205.8 Y123.067 E37.96883
G1 X205.707 Y123.392 E37.98008
G1 X205.754 Y123.684 E37.98991
G1 X205.708 Y125.472 E38.0494
G1 X205.649 Y125.782 E38.0599
G1 X205.663 Y125.868 E38.06279
G1 X205.801 Y127.553 E38.11903
G1 X204.782 Y131.172 E38.24407
G1 X203.96 Y132.729 E38.30263
G1 X201.497 Y135.192 E38.41849
G1 X199.962 Y136.18 E38.4792
G1 X196.582 Y137.118 E38.59587
G1 X196.155 Y137.149 E38.61011
G1 X196.155 Y139.353 E38.68341
G1 X195.76 Y140.96 E38.73845
G1 X194.867 Y142.681 E38.80294
G1 X193.552 Y143.909 E38.86278
G1 X192.384 Y144.606 E38.90802
G1 X193.417 Y145.142 E38.94673
G1 X194.654 Y146.466 E39.007
G1 X195.591 Y148.038 E39.06787
G1 X195.686 Y148.281 E39.07654
