;FLAVOR:Marlin
;TIME:2729
;Filament used: 1.52826m
;Layer height: 0.2
;MINX:124.09
;MINY:129.182
;MINZ:0.2
;MAXX:167.689
;MAXY:187.979
;MAXZ:20.2
;Generated with Cura_SteamEngine 5.4.0
M82 ;absolute extrusion mode
; Ender 3 S1 Plus Start G-code
; M413 S0 ; Disable power loss recovery
G92 E0 ; Reset Extruder

; Prep surfaces before auto home for better accuracy
M140 S60
M104 S200

G28 O ; Home all untrusted axes
G1 Z10.0 F3000 ; Move Z Axis up little to prevent scratching of Heat Bed
G1 X0 Y0

M190 S60
M109 S200

G1 X0.1 Y20 Z0.3 F5000.0 ; Move to start position
G1 X0.1 Y200.0 Z0.3 F1500.0 E15 ; Draw the first line
G1 X0.4 Y200.0 Z0.3 F5000.0 ; Move to side a little
G1 X0.4 Y20 Z0.3 F1500.0 E30 ; Draw the second line
G92 E0 ; Reset Extruder
G1 Z2.0 F3000 ; Move Z Axis up little to prevent scratching of Heat Bed
G1 X5 Y20 Z0.3 F5000.0 ; Move over to prevent blob squish

G92 E0
G92 E0
G1 F2400 E-0.8
;LAYER_COUNT:101
;LAYER:0
M107
M204 S2000
G0 F7500 X127.17 Y140.358 Z0.2
M204 S500
;TYPE:SKIRT
G1 F2400 E0
G1 F1500 X129.193 Y139.151 E0.07835
G1 X130.973 Y138.864 E0.13832
G1 X138.615 Y138.812 E0.3925
G1 X139.337 Y136.245 E0.48119
G1 X140.158 Y134.603 E0.54225
G1 X142.875 Y131.614 E0.6766
G1 X144.843 Y130.38 E0.75386
G1 X148.363 Y129.345 E0.87589
G1 X150.72 Y129.182 E0.95447
G1 X154.848 Y130.39 E1.09753
G1 X156.799 Y131.618 E1.1742
G1 X159.266 Y134.428 E1.29857
G1 X160.2 Y135.826 E1.35449
G1 X161.268 Y139.653 E1.48664
G1 X161.43 Y141.864 E1.56038
G1 X160.323 Y145.792 E1.69611
G1 X159.339 Y147.668 E1.76657
G1 X156.676 Y150.331 E1.89183
G1 X154.864 Y151.496 E1.96348
G1 X151.787 Y152.345 E2.06964
G1 X151.655 Y152.574 E2.07843
G1 X144.055 Y164.678 E2.55379
G1 X143.474 Y165.63 E2.59089
G1 X142.97 Y166.343 E2.61993
G1 X142.488 Y167.19 E2.65234
G1 X141.784 Y168.329 E2.69688
G1 X141.431 Y168.849 E2.71778
G1 X143.072 Y167.116 E2.79716
G1 X144.849 Y165.879 E2.86918
G1 X148.68 Y164.81 E3.00146
G1 X150.88 Y164.648 E3.07483
G1 X154.77 Y165.743 E3.20924
G1 X156.663 Y166.73 E3.28025
G1 X159.415 Y169.627 E3.41315
G1 X160.439 Y171.245 E3.47684
G1 X161.529 Y174.981 E3.60628
G1 X161.568 Y177.343 E3.68485
G1 X160.556 Y181.003 E3.81115
G1 X159.576 Y182.888 E3.88181
G1 X156.961 Y185.576 E4.00654
G1 X155.182 Y186.752 E4.07747
G1 X151.47 Y187.816 E4.2059
G1 X149.173 Y187.979 E4.28249
G1 X145.29 Y186.82 E4.41727
G1 X143.484 Y185.834 E4.48571
G1 X140.785 Y183.055 E4.61456
G1 X139.724 Y181.385 E4.68036
G1 X138.481 Y177.071 E4.82969
G1 X138.644 Y174.778 E4.90614
G1 X139.499 Y171.833 E5.00814
G1 X137.981 Y174.178 E5.10105
G1 X136.387 Y175.703 E5.17442
G1 X133.976 Y176.827 E5.2629
G1 X131.814 Y177.04 E5.33516
G1 X130.789 Y177.014 E5.36926
G1 X128.894 Y176.475 E5.43479
G1 X127.258 Y175.552 E5.49726
G1 X126.251 Y174.683 E5.5415
G1 X125.157 Y173.158 E5.60393
G1 X124.597 Y172.146 E5.64239
G1 X124.09 Y170.113 E5.71208
G1 X124.09 Y145.741 E6.5227
G1 X124.556 Y143.845 E6.58764
G1 X125.609 Y141.817 E6.66364
G1 X127.17 Y140.358 E6.73471
M204 S2000
G0 F7500 X127.409 Y140.682
M204 S500
G1 F1500 X129.333 Y139.534 E6.80922
G1 X130.976 Y139.264 E6.8646
G1 X138.918 Y139.21 E7.12876
G1 X139.711 Y136.392 E7.22613
G1 X140.492 Y134.83 E7.28421
G1 X143.134 Y131.923 E7.41487
G1 X145.007 Y130.749 E7.48839
G1 X148.435 Y129.741 E7.60723
G1 X150.676 Y129.586 E7.68194
G1 X154.681 Y130.758 E7.82074
G1 X156.539 Y131.927 E7.89375
G1 X158.933 Y134.65 E8.01434
G1 X159.832 Y135.996 E8.06818
G1 X160.872 Y139.721 E8.19681
G1 X161.026 Y141.823 E8.26691
G1 X159.949 Y145.644 E8.39895
G1 X159.014 Y147.427 E8.46591
G1 X156.421 Y150.02 E8.58788
G1 X154.702 Y151.126 E8.65586
G1 X151.522 Y152.003 E8.76558
G1 X151.316 Y152.361 E8.77932
G1 X143.717 Y164.465 E9.25466
G1 X143.147 Y165.399 E9.29105
G1 X142.634 Y166.124 E9.32059
G1 X142.148 Y166.98 E9.35333
G1 X141.453 Y168.104 E9.39728
G1 X141.127 Y168.583 E9.41656
G1 X137.67 Y173.923 E9.62813
G1 X136.16 Y175.367 E9.69763
G1 X133.868 Y176.436 E9.78174
G1 X131.824 Y176.64 E9.85006
G1 X130.85 Y176.615 E9.88247
G1 X129.046 Y176.102 E9.94485
G1 X127.491 Y175.225 E10.00423
G1 X126.55 Y174.413 E10.04557
G1 X125.507 Y172.964 E10.10495
G1 X124.972 Y171.997 E10.1417
G1 X124.49 Y170.064 E10.20796
G1 X124.49 Y145.787 E11.01542
G1 X124.932 Y143.988 E11.07704
G1 X125.932 Y142.062 E11.14921
G1 X127.409 Y140.682 E11.21645
M204 S2000
G0 F7500 X127.651 Y141.003
M204 S500
G1 F1500 X129.471 Y139.917 E11.28694
G1 X131.041 Y139.659 E11.33986
G1 X139.221 Y139.608 E11.61193
G1 X140.085 Y136.539 E11.71797
G1 X140.826 Y135.057 E11.77308
G1 X143.392 Y132.234 E11.89997
G1 X145.173 Y131.117 E11.96989
G1 X148.507 Y130.137 E12.08547
G1 X150.632 Y129.99 E12.15632
G1 X154.514 Y131.126 E12.29085
G1 X156.279 Y132.236 E12.36019
G1 X158.6 Y134.872 E12.47701
G1 X159.464 Y136.166 E12.52876
G1 X160.476 Y139.789 E12.65388
G1 X160.622 Y141.783 E12.72037
G1 X159.576 Y145.495 E12.84864
G1 X158.689 Y147.186 E12.91215
G1 X156.166 Y149.709 E13.03083
G1 X154.539 Y150.756 E13.09518
G1 X151.258 Y151.661 E13.20838
G1 X150.977 Y152.148 E13.22708
G1 X143.379 Y164.252 E13.70241
G1 X142.82 Y165.168 E13.7381
G1 X142.296 Y165.909 E13.76828
G1 X141.8 Y166.782 E13.80168
G1 X141.122 Y167.879 E13.84457
G1 X140.796 Y168.358 E13.86384
G1 X137.36 Y173.665 E14.07412
G1 X135.931 Y175.032 E14.13989
G1 X133.759 Y176.045 E14.21961
G1 X131.834 Y176.24 E14.28396
G1 X130.911 Y176.216 E14.31467
G1 X129.198 Y175.729 E14.3739
G1 X127.724 Y174.898 E14.43018
G1 X126.849 Y174.143 E14.46862
G1 X125.832 Y172.73 E14.52652
G1 X125.348 Y171.85 E14.55993
G1 X124.89 Y170.015 E14.62283
G1 X124.89 Y145.834 E15.4271
G1 X125.309 Y144.13 E15.48546
G1 X126.255 Y142.307 E15.55377
G1 X127.651 Y141.003 E15.61731
M204 S2000
G0 F7500 X127.893 Y141.324
M204 S500
G1 F1500 X129.609 Y140.3 E15.68377
G1 X131.106 Y140.054 E15.73423
G1 X139.524 Y140.006 E16.01422
G1 X140.459 Y136.686 E16.12894
G1 X141.16 Y135.284 E16.18107
G1 X143.651 Y132.543 E16.30426
G1 X145.337 Y131.486 E16.37045
G1 X148.579 Y130.533 E16.48284
G1 X150.588 Y130.394 E16.54982
G1 X154.347 Y131.494 E16.68008
G1 X156.017 Y132.544 E16.7457
G1 X158.267 Y135.094 E16.8588
G1 X159.096 Y136.336 E16.90847
G1 X160.08 Y139.857 E17.03007
G1 X160.218 Y141.742 E17.09293
G1 X159.202 Y145.347 E17.2175
G1 X158.364 Y146.945 E17.27752
G1 X155.911 Y149.398 E17.3929
G1 X154.376 Y150.386 E17.45361
G1 X151.001 Y151.317 E17.57006
G1 X150.805 Y151.633 E17.58243
G1 X150.638 Y151.935 E17.59391
G1 X143.041 Y164.039 E18.06921
G1 X142.493 Y164.937 E18.1042
G1 X141.958 Y165.694 E18.13503
G1 X141.452 Y166.584 E18.16909
G1 X140.791 Y167.654 E18.21092
G1 X140.465 Y168.133 E18.23019
G1 X137.05 Y173.407 E18.43916
G1 X135.702 Y174.697 E18.50122
G1 X133.65 Y175.654 E18.57653
G1 X131.845 Y175.84 E18.63688
G1 X130.972 Y175.817 E18.66593
G1 X129.352 Y175.357 E18.72194
G1 X127.955 Y174.569 E18.77529
G1 X127.145 Y173.87 E18.81087
G1 X126.183 Y172.537 E18.86555
G1 X125.723 Y171.7 E18.89731
G1 X125.29 Y169.966 E18.95676
G1 X125.29 Y145.88 E19.75786
G1 X125.685 Y144.273 E19.8129
G1 X126.578 Y142.552 E19.87739
G1 X127.893 Y141.324 E19.93723
M204 S2000
G0 F7500 X128.135 Y141.645
M204 S500
G1 F1500 X129.747 Y140.683 E19.99967
G1 X131.171 Y140.449 E20.04766
G1 X139.827 Y140.404 E20.33557
G1 X140.833 Y136.833 E20.45896
G1 X141.494 Y135.511 E20.50812
G1 X143.91 Y132.852 E20.62762
G1 X145.501 Y131.855 E20.69006
G1 X148.651 Y130.929 E20.79927
G1 X150.544 Y130.798 E20.86238
G1 X154.18 Y131.862 E20.98838
G1 X155.755 Y132.852 E21.05026
G1 X157.934 Y135.316 E21.15966
G1 X158.728 Y136.506 E21.20724
G1 X159.684 Y139.925 E21.32532
G1 X159.814 Y141.701 E21.38455
G1 X158.828 Y145.199 E21.50542
G1 X158.039 Y146.704 E21.56194
G1 X155.656 Y149.087 E21.67403
G1 X154.211 Y150.017 E21.73119
G1 X150.962 Y150.919 E21.84334
G1 X150.763 Y150.942 E21.85
G1 X150.454 Y151.44 E21.86949
G1 X150.299 Y151.722 E21.88019
G1 X142.703 Y163.826 E22.35548
G1 X142.166 Y164.706 E22.38977
G1 X141.62 Y165.479 E22.42125
G1 X141.104 Y166.386 E22.45596
G1 X140.46 Y167.429 E22.49673
G1 X140.134 Y167.908 E22.516
G1 X136.739 Y173.152 E22.72378
G1 X135.473 Y174.363 E22.78204
G1 X133.544 Y175.263 E22.85284
G1 X131.856 Y175.44 E22.90929
G1 X131.033 Y175.418 E22.93668
G1 X129.504 Y174.984 E22.98954
G1 X128.188 Y174.242 E23.03979
G1 X127.443 Y173.599 E23.07252
G1 X126.534 Y172.344 E23.12406
G1 X126.098 Y171.55 E23.15419
G1 X125.69 Y169.917 E23.21017
G1 X125.69 Y145.926 E24.00812
G1 X126.061 Y144.416 E24.05983
G1 X126.901 Y142.797 E24.1205
G1 X128.135 Y141.645 E24.17665
M204 S2000
G0 F7500 X128.377 Y141.966
M204 S500
G1 F1500 X129.885 Y141.066 E24.23506
G1 X131.236 Y140.844 E24.28059
G1 X140.258 Y140.802 E24.58067
G1 X140.229 Y140.453 E24.59232
G1 X141.207 Y136.98 E24.71232
G1 X141.828 Y135.738 E24.75851
G1 X144.168 Y133.163 E24.87423
G1 X145.667 Y132.223 E24.93308
G1 X148.723 Y131.325 E25.03902
G1 X150.5 Y131.202 E25.09827
G1 X154.013 Y132.23 E25.22001
G1 X155.496 Y133.162 E25.27827
G1 X157.601 Y135.538 E25.38384
G1 X158.36 Y136.676 E25.42934
G1 X159.288 Y139.993 E25.5439
G1 X159.41 Y141.661 E25.59953
G1 X158.455 Y145.05 E25.71663
G1 X157.714 Y146.463 E25.7697
G1 X155.401 Y148.776 E25.8785
G1 X154.046 Y149.648 E25.93209
G1 X150.855 Y150.534 E26.04224
G1 X150.531 Y150.558 E26.05305
G1 X150.114 Y151.229 E26.07932
G1 X149.96 Y151.509 E26.08995
G1 X142.365 Y163.613 E26.56522
G1 X141.839 Y164.475 E26.59881
G1 X141.284 Y165.26 E26.63078
G1 X140.764 Y166.176 E26.66582
G1 X140.129 Y167.204 E26.70601
G1 X139.803 Y167.683 E26.72528
G1 X136.429 Y172.894 E26.93175
G1 X135.242 Y174.03 E26.9864
G1 X133.438 Y174.872 E27.05262
G1 X131.867 Y175.04 E27.10516
G1 X131.094 Y175.019 E27.13088
G1 X129.658 Y174.612 E27.18053
G1 X128.419 Y173.913 E27.22784
G1 X127.741 Y173.328 E27.25763
G1 X126.858 Y172.109 E27.30769
G1 X126.474 Y171.404 E27.33439
G1 X126.09 Y169.868 E27.38705
G1 X126.09 Y145.973 E28.1818
G1 X126.438 Y144.558 E28.23027
G1 X127.224 Y143.042 E28.28706
G1 X128.377 Y141.966 E28.33952
M204 S2000
G0 F7500 X128.619 Y142.287
M204 S500
G1 F1500 X130.023 Y141.449 E28.3939
G1 X131.301 Y141.239 E28.43698
G1 X140.692 Y141.2 E28.74933
G1 X140.634 Y140.491 E28.77299
G1 X141.581 Y137.127 E28.88922
G1 X142.162 Y135.965 E28.93243
G1 X144.427 Y133.472 E29.04446
G1 X145.831 Y132.592 E29.09957
G1 X148.795 Y131.721 E29.20232
G1 X150.456 Y131.606 E29.2577
G1 X153.846 Y132.598 E29.37518
G1 X155.235 Y133.471 E29.42975
G1 X157.268 Y135.76 E29.53157
G1 X157.992 Y136.846 E29.57498
G1 X158.892 Y140.061 E29.68603
G1 X159.006 Y141.62 E29.73802
G1 X158.081 Y144.902 E29.85143
G1 X157.389 Y146.222 E29.901
G1 X155.146 Y148.465 E30.0065
G1 X153.881 Y149.279 E30.05654
G1 X150.789 Y150.138 E30.16327
G1 X150.299 Y150.174 E30.17961
G1 X149.774 Y151.018 E30.21267
G1 X149.621 Y151.296 E30.22323
G1 X142.027 Y163.4 E30.69848
G1 X141.512 Y164.244 E30.73136
G1 X140.946 Y165.045 E30.76399
G1 X140.416 Y165.978 E30.79968
G1 X139.798 Y166.979 E30.8388
G1 X139.472 Y167.458 E30.85807
G1 X136.118 Y172.639 E31.06335
G1 X135.013 Y173.696 E31.11421
G1 X133.332 Y174.481 E31.17592
G1 X131.878 Y174.64 E31.22457
G1 X131.155 Y174.62 E31.24862
G1 X129.81 Y174.239 E31.29512
G1 X128.652 Y173.586 E31.33933
G1 X128.036 Y173.054 E31.36641
G1 X127.209 Y171.918 E31.41314
G1 X126.85 Y171.259 E31.4381
G1 X126.49 Y169.819 E31.48747
G1 X126.49 Y146.019 E32.27906
G1 X126.814 Y144.701 E32.3242
G1 X127.547 Y143.287 E32.37718
G1 X128.619 Y142.287 E32.42593
M204 S2000
G0 F7500 X128.864 Y142.606
M204 S500
G1 F1500 X130.161 Y141.832 E32.47617
G1 X131.366 Y141.634 E32.51679
G1 X141.126 Y141.598 E32.84141
G1 X141.039 Y140.529 E32.87708
G1 X141.955 Y137.274 E32.98955
G1 X142.496 Y136.192 E33.02978
G1 X144.685 Y133.783 E33.13804
G1 X145.997 Y132.96 E33.18956
G1 X148.867 Y132.117 E33.28905
G1 X150.412 Y132.01 E33.34056
G1 X153.679 Y132.966 E33.45377
G1 X154.974 Y133.78 E33.50465
G1 X156.935 Y135.982 E33.60272
G1 X157.624 Y137.016 E33.64405
G1 X158.496 Y140.129 E33.75157
G1 X158.602 Y141.58 E33.79996
G1 X157.708 Y144.753 E33.9096
G1 X157.064 Y145.981 E33.95572
G1 X154.891 Y148.154 E34.05793
G1 X153.716 Y148.91 E34.1044
G1 X150.723 Y149.742 E34.20773
G1 X150.067 Y149.79 E34.2296
G1 X149.434 Y150.807 E34.26944
G1 X149.282 Y151.083 E34.27992
G1 X141.689 Y163.187 E34.75516
G1 X141.185 Y164.013 E34.78734
G1 X140.608 Y164.83 E34.82061
G1 X140.068 Y165.78 E34.85696
G1 X139.467 Y166.754 E34.89502
G1 X139.141 Y167.233 E34.91429
G1 X135.808 Y172.381 E35.11827
G1 X134.782 Y173.363 E35.16551
G1 X133.225 Y174.09 E35.22266
G1 X131.835 Y174.242 E35.26917
G1 X131.216 Y174.221 E35.28977
G1 X129.964 Y173.867 E35.33304
G1 X128.886 Y173.259 E35.37421
G1 X128.331 Y172.779 E35.39861
G1 X127.56 Y171.726 E35.44202
G1 X127.225 Y171.112 E35.46528
G1 X126.89 Y169.77 E35.51129
G1 X126.89 Y146.065 E36.29972
G1 X127.19 Y144.844 E36.34154
G1 X127.869 Y143.534 E36.39061
G1 X128.864 Y142.606 E36.43587
M204 S2000
G0 F7500 X129.106 Y142.928
M204 S500
G1 F1500 X130.301 Y142.215 E36.48215
G1 X131.431 Y142.029 E36.52024
G1 X141.56 Y141.997 E36.85713
G1 X141.444 Y140.567 E36.90485
G1 X142.329 Y137.421 E37.01355
G1 X142.83 Y136.419 E37.05081
G1 X144.944 Y134.092 E37.15537
G1 X146.161 Y133.329 E37.20315
G1 X148.939 Y132.513 E37.29945
G1 X150.368 Y132.414 E37.34709
G1 X153.512 Y133.334 E37.45605
G1 X154.713 Y134.089 E37.50323
G1 X156.636 Y136.248 E37.59939
G1 X157.256 Y137.184 E37.63673
G1 X158.1 Y140.197 E37.7408
G1 X158.198 Y141.54 E37.78559
G1 X157.335 Y144.604 E37.89147
G1 X156.739 Y145.74 E37.93413
G1 X154.638 Y147.841 E38.03296
G1 X153.549 Y148.542 E38.07603
G1 X150.657 Y149.346 E38.17587
G1 X149.837 Y149.405 E38.20321
G1 X149.437 Y150.04 E38.22817
G1 X149.166 Y150.49 E38.24565
G1 X149.092 Y150.598 E38.25
G1 X148.943 Y150.87 E38.26032
G1 X141.351 Y162.974 E38.73553
G1 X140.858 Y163.782 E38.76702
G1 X140.27 Y164.615 E38.80093
G1 X139.727 Y165.57 E38.83747
G1 X139.136 Y166.529 E38.87494
G1 X138.81 Y167.008 E38.89421
G1 X135.497 Y172.126 E39.09698
G1 X134.553 Y173.029 E39.14043
G1 X133.118 Y173.699 E39.19311
G1 X131.792 Y173.844 E39.23747
G1 X131.277 Y173.823 E39.25462
G1 X130.116 Y173.494 E39.29475
G1 X129.119 Y172.932 E39.33282
G1 X128.627 Y172.506 E39.35446
G1 X127.911 Y171.534 E39.39462
G1 X127.6 Y170.965 E39.41618
G1 X127.29 Y169.721 E39.45883
G1 X127.29 Y146.111 E40.2441
G1 X127.566 Y144.987 E40.28259
G1 X128.191 Y143.781 E40.32777
G1 X129.106 Y142.928 E40.36938
M204 S2000
G0 F7500 X129.348 Y143.25
M204 S500
G1 F1500 X130.441 Y142.598 E40.41171
G1 X131.496 Y142.424 E40.44727
G1 X142.108 Y142.396 E40.80023
G1 X141.951 Y141.863 E40.81871
G1 X141.849 Y140.605 E40.86069
G1 X142.703 Y137.568 E40.96562
G1 X143.164 Y136.646 E40.9999
G1 X145.203 Y134.401 E41.10077
G1 X146.325 Y133.698 E41.14481
G1 X149.011 Y132.909 E41.23792
G1 X150.324 Y132.818 E41.28169
G1 X153.345 Y133.702 E41.38639
G1 X154.452 Y134.398 E41.42988
G1 X156.337 Y136.514 E41.52413
G1 X156.888 Y137.353 E41.55752
G1 X157.704 Y140.265 E41.6581
G1 X157.794 Y141.5 E41.69929
G1 X156.962 Y144.455 E41.80139
G1 X156.414 Y145.499 E41.84061
G1 X154.383 Y147.53 E41.93614
G1 X153.384 Y148.173 E41.97566
G1 X150.59 Y148.95 E42.07211
G1 X149.606 Y149.02 E42.10492
G1 X149.098 Y149.827 E42.13664
G1 X148.823 Y150.283 E42.15435
G1 X148.749 Y150.39 E42.15868
G1 X148.604 Y150.657 E42.16878
G1 X141.012 Y162.761 E42.644
G1 X140.531 Y163.551 E42.67476
G1 X139.934 Y164.396 E42.70917
G1 X139.387 Y165.36 E42.74604
G1 X138.805 Y166.304 E42.78292
G1 X138.479 Y166.783 E42.8022
G1 X135.187 Y171.868 E43.00367
G1 X134.322 Y172.696 E43.0435
G1 X133.009 Y173.309 E43.09169
G1 X131.808 Y173.444 E43.13189
G1 X131.34 Y173.425 E43.14747
G1 X130.27 Y173.122 E43.18446
G1 X129.35 Y172.603 E43.21959
G1 X128.922 Y172.232 E43.23843
G1 X128.262 Y171.342 E43.27528
G1 X127.975 Y170.818 E43.29515
G1 X127.69 Y169.672 E43.33443
G1 X127.69 Y146.158 E44.11651
G1 X127.943 Y145.129 E44.15175
G1 X128.513 Y144.028 E44.19299
G1 X129.348 Y143.25 E44.23095
M204 S2000
G0 F7500 X129.59 Y143.572
M204 S500
G1 F1500 X130.581 Y142.981 E44.26932
G1 X131.561 Y142.819 E44.30236
G1 X142.643 Y142.795 E44.67095
G1 X142.347 Y141.79 E44.7058
G1 X142.254 Y140.643 E44.74407
G1 X143.077 Y137.715 E44.84523
G1 X143.498 Y136.873 E44.87654
G1 X145.461 Y134.712 E44.97364
G1 X146.491 Y134.066 E45.01408
