;FLAVOR:Marlin
;TIME:13294
;Filament used: 7.77259m
;Layer height: 0.2
;MINX:103.75
;MINY:67.738
;MINZ:0.2
;MAXX:181.746
;MAXY:222.657
;MAXZ:49.2
;Generated with Cura_SteamEngine 5.4.0
M82 ;absolute extrusion mode
; Ender 3 S1 Plus Start G-code
; M413 S0 ; Disable power loss recovery
G92 E0 ; Reset Extruder

; Prep surfaces before auto home for better accuracy
M140 S60
M104 S200

G28 O ; Home all untrusted axes
G1 Z10.0 F3000 ; Move Z Axis up little to prevent scratching of Heat Bed
G1 X0 Y0

M190 S60
M109 S200

G1 X0.1 Y20 Z0.3 F5000.0 ; Move to start position
G1 X0.1 Y200.0 Z0.3 F1500.0 E15 ; Draw the first line
G1 X0.4 Y200.0 Z0.3 F5000.0 ; Move to side a little
G1 X0.4 Y20 Z0.3 F1500.0 E30 ; Draw the second line
G92 E0 ; Reset Extruder
G1 Z2.0 F3000 ; Move Z Axis up little to prevent scratching of Heat Bed
G1 X5 Y20 Z0.3 F5000.0 ; Move over to prevent blob squish

G92 E0
G92 E0
G1 F2400 E-0.8
;LAYER_COUNT:246
;LAYER:0
M107
M204 S2000
G0 F7500 X107.623 Y74.459 Z0.2
M204 S500
;TYPE:SKIRT
G1 F2400 E0
G1 F1500 X111.189 Y70.62 E0.17427
G1 X112.999 Y69.342 E0.24797
G1 X118.094 Y67.9 E0.42408
G1 X120.347 Y67.738 E0.49921
G1 X125.523 Y69.224 E0.67832
G1 X127.511 Y70.264 E0.75294
G1 X131.003 Y74.08 E0.92499
G1 X132.081 Y75.647 E0.98825
G1 X132.976 Y78.731 E1.09505
G1 X168.802 Y78.792 E2.28663
G1 X170.381 Y79.021 E2.3397
G1 X172.74 Y80.29 E2.42879
G1 X180.197 Y87.746 E2.77952
G1 X181.485 Y90.131 E2.86968
G1 X181.707 Y91.858 E2.92759
G1 X181.746 Y101.669 E3.25391
G1 X181.304 Y103.482 E3.31597
G1 X180.216 Y105.589 E3.39484
G1 X178.696 Y106.993 E3.46367
G1 X176.792 Y108.129 E3.53741
G1 X174.673 Y108.584 E3.60949
G1 X172.326 Y108.596 E3.68756
G1 X168.828 Y108.547 E3.80391
G1 X134.633 Y108.551 E4.94124
G1 X134.685 Y108.787 E4.94928
G1 X134.687 Y111.077 E5.02545
G1 X134.198 Y112.828 E5.08591
G1 X137.477 Y112.828 E5.19497
G1 X140.081 Y113.562 E5.28496
G1 X142.03 Y114.632 E5.35891
G1 X144.273 Y117.002 E5.46744
G1 X145.317 Y118.643 E5.53213
G1 X146.206 Y121.64 E5.6361
G1 X146.389 Y123.909 E5.71181
G1 X145.412 Y127.382 E5.83181
G1 X144.466 Y129.054 E5.89571
G1 X143.591 Y130.063 E5.94013
G1 X142.41 Y130.941 E5.98907
G1 X142.101 Y131.123 E6.001
G1 X143.617 Y131.913 E6.05786
G1 X147.353 Y135.836 E6.23804
G1 X148.395 Y137.479 E6.30275
G1 X149.899 Y142.64 E6.48154
G1 X149.901 Y144.97 E6.55904
G1 X149.775 Y145.422 E6.57465
G1 X167.857 Y145.471 E7.17606
G1 X169.436 Y145.7 E7.22913
G1 X171.795 Y146.969 E7.31822
G1 X179.252 Y154.425 E7.66895
G1 X180.54 Y156.81 E7.7591
G1 X180.762 Y158.537 E7.81702
G1 X180.801 Y168.348 E8.14333
G1 X180.359 Y170.161 E8.2054
G1 X179.271 Y172.268 E8.28427
G1 X177.751 Y173.672 E8.35309
G1 X175.847 Y174.808 E8.42684
G1 X173.728 Y175.263 E8.49892
G1 X171.381 Y175.275 E8.57698
G1 X167.883 Y175.226 E8.69334
G1 X133.097 Y175.224 E9.85033
G1 X129.516 Y175.266 E9.96944
G1 X126.098 Y175.252 E10.08312
G1 X124.21 Y174.779 E10.14786
G1 X122.151 Y173.687 E10.22538
G1 X121.28 Y172.729 E10.26844
G1 X120.246 Y172.801 E10.30291
G1 X116.43 Y171.685 E10.43515
G1 X114.614 Y170.706 E10.50377
G1 X111.882 Y167.974 E10.63228
G1 X110.774 Y166.264 E10.70005
G1 X109.723 Y162.699 E10.82366
G1 X109.56 Y160.316 E10.90311
G1 X110.661 Y156.561 E11.03326
G1 X111.546 Y154.868 E11.0968
G1 X114.155 Y152.113 E11.223
G1 X115.915 Y150.88 E11.29447
G1 X119.713 Y149.82 E11.42562
G1 X120.015 Y149.789 E11.43572
G1 X120.72 Y148.433 E11.48655
G1 X121.914 Y147.318 E11.54088
G1 X121.319 Y145.293 E11.61108
G1 X121.156 Y142.965 E11.6887
G1 X122.647 Y137.831 E11.86652
G1 X123.036 Y137.088 E11.89441
G1 X121.336 Y137.209 E11.95109
G1 X117.518 Y136.093 E12.0834
G1 X115.702 Y135.114 E12.15201
G1 X112.97 Y132.382 E12.28052
G1 X111.862 Y130.672 E12.34829
G1 X110.81 Y127.114 E12.47169
G1 X110.647 Y124.72 E12.5515
G1 X111.395 Y122.176 E12.6397
G1 X107.494 Y118.346 E12.82153
G1 X106.349 Y116.606 E12.89081
G1 X104.744 Y111.182 E13.07894
G1 X104.743 Y108.704 E13.16136
G1 X106.26 Y103.735 E13.33416
G1 X107.053 Y102.035 E13.39655
G1 X111.175 Y97.741 E13.59452
G1 X110.668 Y96.02 E13.6542
G1 X110.505 Y93.643 E13.73344
G1 X110.761 Y92.767 E13.7638
G1 X108.076 Y90.082 E13.89009
G1 X106.972 Y88.361 E13.9581
G1 X105.547 Y83.499 E14.12661
G1 X105.384 Y81.175 E14.2041
G1 X106.811 Y76.283 E14.37359
G1 X107.623 Y74.459 E14.43999
M204 S2000
G0 F7500 X107.961 Y74.682
M204 S500
G1 F1500 X111.452 Y70.925 E14.61057
G1 X113.175 Y69.708 E14.68073
G1 X118.164 Y68.296 E14.85318
G1 X120.307 Y68.142 E14.92464
G1 X125.372 Y69.596 E15.09991
G1 X127.263 Y70.586 E15.1709
G1 X130.673 Y74.307 E15.33877
G1 X131.715 Y75.822 E15.39993
G1 X132.676 Y79.131 E15.51453
G1 X168.745 Y79.188 E16.71419
G1 X170.255 Y79.407 E16.76494
G1 X172.497 Y80.613 E16.84962
G1 X179.873 Y87.988 E17.19654
G1 X181.097 Y90.255 E17.28223
G1 X181.31 Y91.909 E17.33769
G1 X181.346 Y101.62 E17.66068
G1 X180.925 Y103.345 E17.71974
G1 X179.894 Y105.342 E17.79449
G1 X178.454 Y106.672 E17.85969
G1 X176.645 Y107.752 E17.92976
G1 X174.63 Y108.184 E17.99831
G1 X172.332 Y108.196 E18.07474
G1 X168.834 Y108.147 E18.19109
G1 X134.098 Y108.151 E19.34642
G1 X134.285 Y108.787 E19.36847
G1 X134.287 Y111.023 E19.44284
G1 X133.619 Y113.414 E19.52541
G1 X134.279 Y113.228 E19.54821
G1 X137.421 Y113.228 E19.65272
G1 X139.929 Y113.935 E19.73938
G1 X141.782 Y114.952 E19.80969
G1 X143.958 Y117.252 E19.915
G1 X144.95 Y118.811 E19.97646
G1 X145.81 Y121.711 E20.07706
G1 X145.984 Y123.871 E20.14914
G1 X145.04 Y127.227 E20.26509
G1 X144.137 Y128.823 E20.32608
G1 X143.319 Y129.767 E20.36763
G1 X142.207 Y130.596 E20.41376
G1 X141.2 Y131.189 E20.45263
G1 X141.554 Y131.289 E20.46486
G1 X143.373 Y132.237 E20.53309
G1 X147.037 Y136.085 E20.70981
G1 X148.027 Y137.646 E20.77129
G1 X149.499 Y142.697 E20.94627
G1 X149.501 Y144.916 E21.02008
G1 X149.248 Y145.821 E21.05133
G1 X167.8 Y145.867 E21.66838
G1 X169.31 Y146.086 E21.71913
G1 X171.552 Y147.292 E21.8038
G1 X178.928 Y154.667 E22.15072
G1 X180.152 Y156.934 E22.23641
G1 X180.365 Y158.588 E22.29188
G1 X180.401 Y168.299 E22.61487
G1 X179.98 Y170.024 E22.67392
G1 X178.949 Y172.021 E22.74867
G1 X177.509 Y173.351 E22.81387
G1 X175.7 Y174.431 E22.88395
G1 X173.685 Y174.863 E22.95249
G1 X171.387 Y174.875 E23.02892
G1 X167.889 Y174.826 E23.14528
G1 X133.092 Y174.824 E24.30263
G1 X129.518 Y174.866 E24.42151
G1 X126.148 Y174.852 E24.5336
G1 X124.354 Y174.403 E24.59511
G1 X122.4 Y173.366 E24.66868
G1 X121.445 Y172.316 E24.71589
G1 X120.29 Y172.397 E24.7544
G1 X116.583 Y171.313 E24.88286
G1 X114.856 Y170.382 E24.94811
G1 X112.196 Y167.722 E25.07323
G1 X111.141 Y166.094 E25.13775
G1 X110.119 Y162.626 E25.258
G1 X109.964 Y160.361 E25.33352
G1 X111.034 Y156.712 E25.45999
G1 X111.876 Y155.101 E25.52045
G1 X114.414 Y152.421 E25.64322
G1 X116.091 Y151.246 E25.71132
G1 X119.821 Y150.205 E25.84012
G1 X120.267 Y150.172 E25.855
G1 X121.043 Y148.678 E25.91099
G1 X122.367 Y147.441 E25.97126
G1 X121.715 Y145.22 E26.04824
G1 X121.56 Y143.008 E26.122
G1 X123.021 Y137.978 E26.29621
G1 X123.747 Y136.589 E26.34834
G1 X123.48 Y136.655 E26.35749
G1 X121.379 Y136.805 E26.42754
G1 X117.671 Y135.721 E26.55603
G1 X115.944 Y134.79 E26.62129
G1 X113.284 Y132.13 E26.74641
G1 X112.229 Y130.502 E26.81093
G1 X111.206 Y127.041 E26.93097
G1 X111.051 Y124.765 E27.00684
G1 X111.847 Y122.059 E27.10066
G1 X107.806 Y118.092 E27.289
G1 X106.717 Y116.437 E27.35489
G1 X105.144 Y111.122 E27.53925
G1 X105.143 Y108.765 E27.61765
G1 X106.623 Y103.904 E27.78665
G1 X107.388 Y102.264 E27.84684
G1 X111.625 Y97.851 E28.05032
G1 X111.064 Y95.947 E28.11634
G1 X110.909 Y93.687 E28.19168
G1 X111.212 Y92.652 E28.22755
G1 X108.39 Y89.83 E28.36029
G1 X107.34 Y88.193 E28.42497
G1 X105.943 Y83.427 E28.59016
G1 X105.788 Y81.218 E28.66381
G1 X107.176 Y76.446 E28.82911
G1 X107.961 Y74.682 E28.89332
M204 S2000
G0 F7500 X108.299 Y74.905
M204 S500
G1 F1500 X111.715 Y71.23 E29.0602
G1 X113.351 Y70.074 E29.12683
G1 X118.234 Y68.692 E29.29562
G1 X120.267 Y68.546 E29.36341
G1 X125.223 Y69.969 E29.53491
G1 X127.015 Y70.907 E29.60218
G1 X130.343 Y74.534 E29.76591
G1 X131.349 Y75.997 E29.82496
G1 X132.375 Y79.531 E29.94735
G1 X168.688 Y79.584 E31.15513
G1 X170.129 Y79.793 E31.20356
G1 X172.254 Y80.936 E31.28381
G1 X179.549 Y88.23 E31.62692
G1 X180.709 Y90.379 E31.70815
G1 X180.913 Y91.96 E31.76117
G1 X180.946 Y101.571 E32.08083
G1 X180.546 Y103.208 E32.13688
G1 X179.573 Y105.093 E32.20744
G1 X178.213 Y106.35 E32.26903
G1 X176.495 Y107.375 E32.33557
G1 X174.587 Y107.784 E32.40047
G1 X172.338 Y107.796 E32.47528
G1 X168.84 Y107.747 E32.59163
G1 X133.564 Y107.751 E33.76492
G1 X133.885 Y108.846 E33.80287
G1 X133.887 Y110.969 E33.87348
G1 X133.043 Y113.991 E33.97784
G1 X134.334 Y113.628 E34.02244
G1 X137.365 Y113.628 E34.12325
G1 X139.777 Y114.308 E34.2066
G1 X141.534 Y115.272 E34.27326
G1 X143.643 Y117.502 E34.37535
G1 X144.581 Y118.976 E34.43346
G1 X145.414 Y121.786 E34.53094
G1 X145.579 Y123.833 E34.59924
G1 X144.668 Y127.072 E34.71115
G1 X143.808 Y128.592 E34.76924
G1 X143.046 Y129.471 E34.80793
G1 X141.968 Y130.275 E34.85266
G1 X140.797 Y130.962 E34.89781
G1 X139.798 Y131.211 E34.93206
G1 X141.404 Y131.662 E34.98754
G1 X143.129 Y132.561 E35.05224
G1 X146.721 Y136.334 E35.2255
G1 X147.659 Y137.813 E35.28375
G1 X149.099 Y142.754 E35.45493
G1 X149.101 Y144.862 E35.52504
G1 X148.722 Y146.22 E35.57193
G1 X167.743 Y146.263 E36.20458
G1 X169.184 Y146.472 E36.25301
G1 X171.309 Y147.615 E36.33326
G1 X178.604 Y154.909 E36.67637
G1 X179.764 Y157.058 E36.75759
G1 X179.968 Y158.639 E36.81061
G1 X180.001 Y168.25 E37.13028
G1 X179.601 Y169.887 E37.18633
G1 X178.628 Y171.772 E37.25688
G1 X177.268 Y173.029 E37.31848
G1 X175.55 Y174.054 E37.38502
G1 X173.642 Y174.463 E37.44992
G1 X171.393 Y174.475 E37.52472
G1 X167.895 Y174.426 E37.64108
G1 X133.087 Y174.424 E38.7988
G1 X129.52 Y174.466 E38.91744
G1 X126.198 Y174.452 E39.02793
G1 X124.497 Y174.026 E39.08626
G1 X122.65 Y173.046 E39.1558
G1 X121.61 Y171.903 E39.2072
G1 X120.334 Y171.993 E39.24974
G1 X116.736 Y170.941 E39.37442
G1 X115.098 Y170.058 E39.43632
G1 X112.508 Y167.468 E39.55814
G1 X111.509 Y165.926 E39.61925
G1 X110.515 Y162.553 E39.73621
G1 X110.368 Y160.406 E39.80778
G1 X111.407 Y156.863 E39.93059
G1 X112.206 Y155.334 E39.98797
G1 X114.673 Y152.729 E40.1073
G1 X116.267 Y151.612 E40.17203
G1 X119.889 Y150.601 E40.29711
G1 X120.519 Y150.555 E40.31812
G1 X121.366 Y148.923 E40.37927
G1 X122.82 Y147.564 E40.44547
G1 X122.111 Y145.147 E40.52925
G1 X121.964 Y143.051 E40.59913
G1 X123.395 Y138.125 E40.76974
G1 X124.199 Y136.587 E40.82746
G1 X124.891 Y135.857 E40.86092
G1 X123.452 Y136.256 E40.91059
G1 X121.422 Y136.401 E40.97828
G1 X117.824 Y135.349 E41.10296
G1 X116.186 Y134.466 E41.16485
G1 X113.596 Y131.876 E41.28667
G1 X112.597 Y130.334 E41.34778
G1 X111.602 Y126.968 E41.46453
G1 X111.455 Y124.81 E41.53647
G1 X112.326 Y121.847 E41.63919
G1 X112.05 Y121.699 E41.6496
G1 X108.118 Y117.838 E41.83289
G1 X107.084 Y116.268 E41.89542
G1 X105.544 Y111.063 E42.07595
G1 X105.543 Y108.825 E42.15039
G1 X106.986 Y104.073 E42.31557
G1 X107.723 Y102.493 E42.37356
G1 X111.813 Y98.233 E42.56998
G1 X112.104 Y98.06 E42.58124
G1 X111.46 Y95.874 E42.65703
G1 X111.313 Y93.731 E42.72848
G1 X111.662 Y92.536 E42.76988
G1 X108.704 Y89.578 E42.90902
G1 X107.707 Y88.024 E42.97043
G1 X106.339 Y83.356 E43.13222
G1 X106.192 Y81.26 E43.2021
G1 X107.541 Y76.609 E43.36317
G1 X108.299 Y74.905 E43.4252
M204 S2000
G0 F7500 X108.637 Y75.128
M204 S500
G1 F1500 X111.978 Y71.535 E43.58838
G1 X113.527 Y70.44 E43.65148
G1 X118.304 Y69.088 E43.8166
G1 X120.227 Y68.95 E43.88072
G1 X125.074 Y70.342 E44.04845
G1 X126.765 Y71.227 E44.11193
G1 X130.013 Y74.761 E44.27158
G1 X130.983 Y76.172 E44.32853
G1 X132.075 Y79.931 E44.45872
G1 X168.631 Y79.98 E45.67458
G1 X170.003 Y80.179 E45.72069
G1 X172.011 Y81.259 E45.79652
G1 X179.225 Y88.472 E46.13582
G1 X180.321 Y90.503 E46.21258
G1 X180.516 Y92.011 E46.26316
G1 X180.546 Y101.522 E46.57949
G1 X180.168 Y103.069 E46.63246
G1 X179.25 Y104.847 E46.69902
G1 X177.971 Y106.029 E46.75694
G1 X176.348 Y106.998 E46.81981
G1 X174.544 Y107.384 E46.88117
G1 X172.344 Y107.396 E46.95434
G1 X168.846 Y107.347 E47.0707
G1 X134.022 Y107.346 E48.22895
G1 X133.031 Y107.356 E48.26191
G1 X133.485 Y108.905 E48.3156
G1 X133.487 Y110.915 E48.38245
G1 X132.467 Y114.568 E48.5086
G1 X134.389 Y114.028 E48.575
G1 X137.309 Y114.028 E48.67212
G1 X139.625 Y114.681 E48.75215
G1 X141.286 Y115.592 E48.81516
G1 X143.325 Y117.748 E48.91386
G1 X144.213 Y119.144 E48.96889
G1 X145.018 Y121.861 E49.06314
G1 X145.174 Y123.795 E49.12767
G1 X144.296 Y126.917 E49.23554
G1 X143.479 Y128.361 E49.29072
G1 X142.773 Y129.176 E49.32659
G1 X141.766 Y129.93 E49.36843
G1 X140.645 Y130.588 E49.41166
G1 X138.863 Y131.031 E49.47273
G1 X137.681 Y131.031 E49.51205
G1 X141.254 Y132.035 E49.63549
G1 X142.885 Y132.885 E49.69666
G1 X146.405 Y136.583 E49.86647
G1 X147.291 Y137.98 E49.92149
G1 X148.699 Y142.811 E50.08885
G1 X148.701 Y144.809 E50.15531
G1 X148.196 Y146.619 E50.21781
G1 X167.686 Y146.659 E50.86605
G1 X169.058 Y146.858 E50.91216
G1 X171.066 Y147.938 E50.98799
G1 X178.28 Y155.151 E51.32729
G1 X179.376 Y157.182 E51.40405
G1 X179.571 Y158.69 E51.45463
G1 X179.601 Y168.201 E51.77097
G1 X179.223 Y169.748 E51.82393
G1 X178.305 Y171.526 E51.89049
G1 X177.026 Y172.708 E51.94841
G1 X175.403 Y173.677 E52.01128
G1 X173.599 Y174.063 E52.07264
G1 X171.399 Y174.075 E52.14581
G1 X167.901 Y174.026 E52.26217
G1 X133.082 Y174.024 E53.42025
G1 X129.522 Y174.066 E53.53867
G1 X126.248 Y174.052 E53.64756
G1 X124.64 Y173.649 E53.7027
G1 X122.9 Y172.726 E53.76821
G1 X121.775 Y171.49 E53.8238
G1 X120.377 Y171.589 E53.87041
G1 X116.889 Y170.569 E53.99128
G1 X115.34 Y169.734 E54.04981
G1 X112.822 Y167.216 E54.16825
G1 X111.876 Y165.756 E54.22611
G1 X110.911 Y162.48 E54.3397
G1 X110.772 Y160.451 E54.40734
G1 X111.78 Y157.014 E54.52647
G1 X112.536 Y155.567 E54.58077
G1 X114.932 Y153.037 E54.69667
G1 X116.443 Y151.978 E54.75804
G1 X119.957 Y150.997 E54.87938
G1 X120.771 Y150.938 E54.90653
G1 X121.689 Y149.168 E54.97285
G1 X123.016 Y147.928 E55.03325
G1 X123.295 Y147.762 E55.04405
G1 X122.507 Y145.074 E55.13722
G1 X122.368 Y143.094 E55.20323
G1 X123.769 Y138.272 E55.37025
G1 X124.527 Y136.822 E55.42467
G1 X126.173 Y135.087 E55.50421
G1 X123.386 Y135.86 E55.6004
G1 X121.465 Y135.997 E55.66446
G1 X117.977 Y134.977 E55.78533
G1 X116.428 Y134.142 E55.84386
G1 X113.91 Y131.624 E55.9623
G1 X112.964 Y130.164 E56.02016
G1 X111.998 Y126.895 E56.13353
G1 X111.859 Y124.855 E56.20154
G1 X112.801 Y121.649 E56.31268
G1 X112.289 Y121.374 E56.33201
G1 X108.43 Y117.584 E56.51191
G1 X107.452 Y116.099 E56.57105
G1 X105.944 Y111.003 E56.74781
G1 X105.943 Y108.885 E56.81826
G1 X107.349 Y104.242 E56.97961
G1 X108.058 Y102.722 E57.03539
G1 X112.102 Y98.51 E57.2296
G1 X112.582 Y98.267 E57.2475
G1 X111.856 Y95.801 E57.333
G1 X111.717 Y93.775 E57.40054
G1 X112.113 Y92.421 E57.44746
G1 X109.018 Y89.326 E57.59304
G1 X108.075 Y87.856 E57.65113
G1 X106.735 Y83.284 E57.80959
G1 X106.596 Y81.302 E57.87567
G1 X107.906 Y76.772 E58.03252
G1 X108.637 Y75.128 E58.09236
M204 S2000
G0 F7500 X108.976 Y75.35
M204 S500
G1 F1500 X112.241 Y71.84 E58.2518
G1 X113.703 Y70.806 E58.31136
G1 X118.374 Y69.484 E58.47282
G1 X120.187 Y69.354 E58.53327
G1 X124.925 Y70.715 E58.69723
G1 X126.515 Y71.547 E58.75692
G1 X129.718 Y75.032 E58.91435
G1 X130.617 Y76.345 E58.96728
G1 X131.775 Y80.331 E59.10533
G1 X168.574 Y80.376 E60.32927
G1 X169.877 Y80.565 E60.37306
G1 X171.768 Y81.582 E60.44448
G1 X178.901 Y88.714 E60.77997
G1 X179.933 Y90.627 E60.85226
G1 X180.119 Y92.062 E60.90039
G1 X180.146 Y101.473 E61.2134
G1 X179.789 Y102.932 E61.26336
G1 X178.929 Y104.598 E61.32572
G1 X177.726 Y105.71 E61.38021
G1 X176.201 Y106.621 E61.43929
G1 X174.501 Y106.984 E61.49711
G1 X172.35 Y106.996 E61.56865
G1 X168.852 Y106.947 E61.68501
G1 X134.018 Y106.946 E62.84359
G1 X132.498 Y106.962 E62.89415
G1 X133.085 Y108.964 E62.96354
G1 X133.087 Y110.861 E63.02663
G1 X131.86 Y115.254 E63.17834
G1 X132.206 Y115.057 E63.19158
G1 X134.444 Y114.428 E63.2689
G1 X137.253 Y114.428 E63.36233
G1 X139.473 Y115.054 E63.43904
G1 X141.038 Y115.912 E63.49841
G1 X143.007 Y117.994 E63.59372
