;FLAVOR:Marlin
;TIME:4217
;Filament used: 3.06341m
;Layer height: 0.2
;MINX:104.956
;MINY:129.758
;MINZ:0.2
;MAXX:210.82
;MAXY:197.303
;MAXZ:10
;Generated with Cura_SteamEngine 5.4.0
M82 ;absolute extrusion mode
; Ender 3 S1 Plus Start G-code
; M413 S0 ; Disable power loss recovery
G92 E0 ; Reset Extruder

; Prep surfaces before auto home for better accuracy
M140 S60
M104 S200

G28 O ; Home all untrusted axes
G1 Z10.0 F3000 ; Move Z Axis up little to prevent scratching of Heat Bed
G1 X0 Y0

M190 S60
M109 S200

G1 X0.1 Y20 Z0.3 F5000.0 ; Move to start position
G1 X0.1 Y200.0 Z0.3 F1500.0 E15 ; Draw the first line
G1 X0.4 Y200.0 Z0.3 F5000.0 ; Move to side a little
G1 X0.4 Y20 Z0.3 F1500.0 E30 ; Draw the second line
G92 E0 ; Reset Extruder
G1 Z2.0 F3000 ; Move Z Axis up little to prevent scratching of Heat Bed
G1 X5 Y20 Z0.3 F5000.0 ; Move over to prevent blob squish

G92 E0
G92 E0
G1 F2400 E-0.8
;LAYER_COUNT:50
;LAYER:0
M107
M204 S2000
G0 F7500 X131.796 Y136.046 Z0.2
M204 S500
;TYPE:SKIRT
G1 F2400 E0
G1 F1500 X132.443 Y135.48 E0.02859
G1 X134.26 Y133.934 E0.10794
G1 X134.923 Y133.387 E0.13653
G1 X135.702 Y132.803 E0.16891
G1 X136.529 Y132.29 E0.20128
G1 X137.335 Y131.882 E0.23133
G1 X138.416 Y131.457 E0.26996
G1 X139.28 Y131.168 E0.30026
G1 X141.41 Y130.487 E0.37464
G1 X142.274 Y130.224 E0.40468
G1 X143.236 Y129.98 E0.43769
G1 X144.199 Y129.826 E0.47012
G1 X145.175 Y129.758 E0.50266
G1 X146.274 Y129.783 E0.53922
G1 X147.134 Y129.849 E0.56791
G1 X149.475 Y130.053 E0.64607
G1 X150.318 Y130.138 E0.67425
G1 X151.219 Y130.269 E0.70453
G1 X152.425 Y130.496 E0.74535
G1 X155.013 Y130.946 E0.83272
G1 X157.491 Y131.306 E0.916
G1 X160.015 Y131.6 E1.00052
G1 X162.485 Y131.815 E1.08298
G1 X165.001 Y131.963 E1.16681
G1 X167.535 Y132.041 E1.25113
G1 X170.026 Y132.048 E1.33398
G1 X172.591 Y131.981 E1.41932
G1 X175.076 Y131.848 E1.50209
G1 X177.561 Y131.642 E1.58503
G1 X180.163 Y131.352 E1.6721
G1 X191.743 Y129.902 E2.06026
G1 X192.453 Y129.825 E2.08402
G1 X193.413 Y129.763 E2.11601
G1 X194.046 Y129.768 E2.13707
G1 X195.131 Y129.81 E2.17318
G1 X196.477 Y129.899 E2.21805
G1 X197.445 Y130.01 E2.25046
G1 X198.364 Y130.199 E2.28166
G1 X199.325 Y130.485 E2.31501
G1 X200.04 Y130.763 E2.34052
G1 X200.838 Y131.111 E2.36948
G1 X202.149 Y131.715 E2.41749
G1 X203.014 Y132.165 E2.44992
G1 X203.835 Y132.689 E2.48231
G1 X204.605 Y133.282 E2.51464
G1 X205.253 Y133.874 E2.54383
G1 X206.336 Y134.949 E2.59459
G1 X206.848 Y135.48 E2.61912
G1 X207.502 Y136.226 E2.65212
G1 X208.077 Y137.012 E2.68451
G1 X208.578 Y137.841 E2.71672
G1 X208.949 Y138.585 E2.74437
G1 X209.472 Y139.745 E2.7867
G1 X209.864 Y140.664 E2.81993
G1 X210.202 Y141.576 E2.85228
G1 X210.459 Y142.516 E2.88469
G1 X210.621 Y143.404 E2.91471
G1 X210.708 Y144.297 E2.94455
G1 X210.797 Y145.869 E2.99692
G1 X210.82 Y146.623 E3.02201
G1 X210.805 Y147.596 E3.05438
G1 X210.704 Y148.564 E3.08675
G1 X210.527 Y149.482 E3.11784
G1 X210.303 Y150.289 E3.1457
G1 X209.909 Y151.523 E3.18878
G1 X209.608 Y152.405 E3.21978
G1 X209.243 Y153.327 E3.25276
G1 X208.823 Y154.165 E3.28394
G1 X208.295 Y155.021 E3.31739
G1 X207.801 Y155.69 E3.34505
G1 X206.804 Y156.935 E3.3981
G1 X206.372 Y157.452 E3.42051
G1 X205.716 Y158.167 E3.45278
G1 X205.09 Y158.744 E3.4811
G1 X202.779 Y160.762 E3.58314
G1 X200.926 Y162.482 E3.66723
G1 X199.141 Y164.235 E3.75044
G1 X197.419 Y166.027 E3.8331
G1 X195.696 Y167.922 E3.91829
G1 X194.08 Y169.806 E4.00085
G1 X192.467 Y171.797 E4.08607
G1 X190.953 Y173.777 E4.16897
G1 X189.492 Y175.803 E4.25205
G1 X188.063 Y177.908 E4.33667
G1 X186.718 Y180.016 E4.41984
G1 X185.416 Y182.189 E4.50409
G1 X184.2 Y184.358 E4.5868
G1 X182.533 Y187.574 E4.70728
G1 X182.246 Y188.151 E4.72871
G1 X181.775 Y189.002 E4.76106
G1 X181.275 Y189.745 E4.79085
G1 X180.355 Y190.997 E4.84253
G1 X179.912 Y191.571 E4.86664
G1 X179.283 Y192.314 E4.89902
G1 X178.642 Y192.95 E4.92905
G1 X177.843 Y193.616 E4.96365
G1 X177.193 Y194.07 E4.99002
G1 X175.874 Y194.92 E5.04221
G1 X175.244 Y195.305 E5.06677
G1 X174.39 Y195.775 E5.09919
G1 X173.499 Y196.166 E5.13155
G1 X172.644 Y196.457 E5.16159
G1 X171.897 Y196.651 E5.18726
G1 X171.215 Y196.801 E5.21049
G1 X169.618 Y197.111 E5.26459
G1 X168.725 Y197.243 E5.29462
G1 X167.683 Y197.303 E5.32933
G1 X166.78 Y197.275 E5.35938
G1 X165.832 Y197.166 E5.39112
G1 X164.573 Y196.965 E5.43352
G1 X163.578 Y196.784 E5.46716
G1 X162.668 Y196.574 E5.49822
G1 X161.991 Y196.364 E5.5218
G1 X159.739 Y195.583 E5.60108
G1 X157.344 Y194.823 E5.68465
G1 X154.913 Y194.125 E5.76877
G1 X152.488 Y193.504 E5.85203
G1 X150.008 Y192.943 E5.9366
G1 X147.549 Y192.459 E6.01996
G1 X144.864 Y192.004 E6.11053
G1 X143.914 Y191.796 E6.14288
G1 X142.98 Y191.503 E6.17544
G1 X142.002 Y191.095 E6.21068
G1 X141.256 Y190.737 E6.2382
G1 X138.985 Y189.598 E6.3227
G1 X138.336 Y189.262 E6.34701
G1 X137.496 Y188.773 E6.37934
G1 X136.7 Y188.212 E6.41173
G1 X135.982 Y187.607 E6.44296
G1 X135.257 Y186.876 E6.4772
G1 X134.679 Y186.233 E6.50596
G1 X133.01 Y184.303 E6.59082
G1 X132.542 Y183.743 E6.6151
G1 X131.973 Y182.997 E6.6463
G1 X131.434 Y182.143 E6.67989
G1 X130.99 Y181.274 E6.71235
G1 X130.613 Y180.341 E6.74582
G1 X130.358 Y179.609 E6.7716
G1 X129.606 Y177.341 E6.85107
G1 X129.33 Y176.467 E6.88155
G1 X129.08 Y175.529 E6.91384
G1 X128.938 Y174.734 E6.9407
G1 X128.822 Y173.91 E6.96838
G1 X126.255 Y153.434 E7.65474
G1 X126.158 Y152.55 E7.68432
G1 X126.096 Y151.58 E7.71665
G1 X126.113 Y150.715 E7.74543
G1 X126.164 Y149.855 E7.77408
G1 X126.337 Y147.512 E7.85222
G1 X126.415 Y146.632 E7.8816
G1 X126.547 Y145.667 E7.914
G1 X126.763 Y144.717 E7.9464
G1 X127.065 Y143.786 E7.97896
G1 X127.467 Y142.848 E8.0129
G1 X127.88 Y142.003 E8.04418
G1 X129.01 Y139.779 E8.12715
G1 X129.343 Y139.149 E8.15085
G1 X129.837 Y138.312 E8.18318
G1 X130.404 Y137.518 E8.21563
G1 X131.015 Y136.804 E8.24689
G1 X131.796 Y136.046 E8.28308
M204 S2000
G0 F7500 X132.075 Y136.333
M204 S500
G1 F1500 X132.702 Y135.785 E8.31078
G1 X134.515 Y134.242 E8.38996
G1 X135.163 Y133.707 E8.41791
G1 X135.913 Y133.143 E8.44912
G1 X136.71 Y132.647 E8.48035
G1 X137.516 Y132.239 E8.51039
G1 X138.543 Y131.836 E8.54709
G1 X139.402 Y131.549 E8.57721
G1 X141.527 Y130.87 E8.65141
G1 X142.373 Y130.612 E8.68083
G1 X143.3 Y130.375 E8.71265
G1 X144.227 Y130.225 E8.74388
G1 X145.166 Y130.158 E8.77519
G1 X146.244 Y130.182 E8.81106
G1 X147.099 Y130.247 E8.83958
G1 X149.435 Y130.451 E8.91757
G1 X150.261 Y130.534 E8.94518
G1 X151.145 Y130.662 E8.97489
G1 X152.356 Y130.89 E9.01587
G1 X154.953 Y131.342 E9.10355
G1 X157.434 Y131.702 E9.18693
G1 X159.97 Y131.997 E9.27185
G1 X162.461 Y132.214 E9.35501
G1 X164.989 Y132.363 E9.43924
G1 X167.523 Y132.441 E9.52356
G1 X170.035 Y132.448 E9.60711
G1 X172.601 Y132.381 E9.69248
G1 X175.109 Y132.246 E9.77602
G1 X177.602 Y132.04 E9.85922
G1 X180.207 Y131.75 E9.9464
G1 X191.787 Y130.3 E10.33456
G1 X192.479 Y130.224 E10.35771
G1 X193.41 Y130.163 E10.38875
G1 X194.031 Y130.168 E10.4094
G1 X195.105 Y130.209 E10.44515
G1 X196.432 Y130.296 E10.48938
G1 X197.364 Y130.402 E10.52058
G1 X198.283 Y130.591 E10.55178
G1 X199.18 Y130.858 E10.58291
G1 X199.88 Y131.13 E10.60789
G1 X200.671 Y131.474 E10.63658
G1 X201.965 Y132.07 E10.68396
G1 X202.799 Y132.502 E10.7152
G1 X203.591 Y133.006 E10.74643
G1 X204.335 Y133.577 E10.77762
G1 X204.971 Y134.158 E10.80627
G1 X206.048 Y135.227 E10.85674
G1 X206.56 Y135.758 E10.88128
G1 X207.18 Y136.463 E10.9125
G1 X207.735 Y137.219 E10.94369
G1 X208.22 Y138.02 E10.97484
G1 X208.584 Y138.749 E11.00194
G1 X209.104 Y139.902 E11.04401
G1 X209.489 Y140.803 E11.0766
G1 X209.816 Y141.682 E11.10779
G1 X210.065 Y142.588 E11.13904
G1 X210.227 Y143.476 E11.16906
G1 X210.309 Y144.319 E11.19723
G1 X210.397 Y145.882 E11.2493
G1 X210.42 Y146.617 E11.27376
G1 X210.407 Y147.555 E11.30496
G1 X210.311 Y148.489 E11.33619
G1 X210.141 Y149.375 E11.3662
G1 X209.922 Y150.167 E11.39353
G1 X209.53 Y151.394 E11.43637
G1 X209.236 Y152.258 E11.46672
G1 X208.885 Y153.148 E11.49854
G1 X208.465 Y153.986 E11.52972
G1 X207.973 Y154.784 E11.5609
G1 X207.489 Y155.44 E11.58802
G1 X206.497 Y156.679 E11.64081
G1 X206.077 Y157.182 E11.6626
G1 X205.445 Y157.873 E11.69375
G1 X204.827 Y158.443 E11.72171
G1 X202.516 Y160.461 E11.82375
G1 X200.654 Y162.189 E11.90824
G1 X198.861 Y163.95 E11.99183
G1 X197.123 Y165.758 E12.07525
G1 X195.4 Y167.653 E12.16043
G1 X193.769 Y169.554 E12.24374
G1 X192.156 Y171.545 E12.32897
G1 X190.635 Y173.534 E12.41225
G1 X189.161 Y175.578 E12.49606
G1 X187.732 Y177.683 E12.58068
G1 X186.375 Y179.81 E12.6646
G1 X185.073 Y181.983 E12.74886
G1 X183.851 Y184.162 E12.83195
G1 X182.178 Y187.39 E12.95287
G1 X181.896 Y187.958 E12.97397
G1 X181.443 Y188.779 E13.00515
G1 X180.953 Y189.508 E13.03437
G1 X180.038 Y190.753 E13.08576
G1 X179.607 Y191.313 E13.10926
G1 X179.001 Y192.03 E13.14049
G1 X178.36 Y192.666 E13.17052
G1 X177.614 Y193.288 E13.20282
G1 X176.976 Y193.734 E13.22872
G1 X175.665 Y194.579 E13.28059
G1 X175.051 Y194.955 E13.30454
G1 X174.229 Y195.409 E13.33577
G1 X173.37 Y195.787 E13.36699
G1 X172.515 Y196.078 E13.39702
G1 X171.811 Y196.26 E13.42121
G1 X171.139 Y196.408 E13.4441
G1 X169.56 Y196.715 E13.4976
G1 X168.667 Y196.847 E13.52762
G1 X167.695 Y196.903 E13.56
G1 X166.792 Y196.875 E13.59005
G1 X165.895 Y196.771 E13.62009
G1 X164.644 Y196.571 E13.66222
G1 X163.668 Y196.394 E13.69521
G1 X162.758 Y196.184 E13.72628
G1 X162.122 Y195.986 E13.74843
G1 X159.87 Y195.205 E13.82771
G1 X157.465 Y194.442 E13.91163
G1 X155.017 Y193.739 E13.99634
G1 X152.576 Y193.114 E14.08015
G1 X150.096 Y192.553 E14.16472
G1 X147.616 Y192.065 E14.24878
G1 X144.949 Y191.613 E14.33875
G1 X144.033 Y191.414 E14.36993
G1 X143.134 Y191.134 E14.40125
G1 X142.175 Y190.734 E14.43581
G1 X141.435 Y190.379 E14.46311
G1 X139.169 Y189.243 E14.54741
G1 X138.537 Y188.916 E14.57108
G1 X137.726 Y188.446 E14.60226
G1 X136.958 Y187.906 E14.63348
G1 X136.24 Y187.301 E14.66471
G1 X135.555 Y186.609 E14.6971
G1 X134.982 Y185.971 E14.72562
G1 X133.317 Y184.046 E14.81027
G1 X132.86 Y183.5 E14.83395
G1 X132.291 Y182.754 E14.86516
G1 X131.79 Y181.96 E14.89639
G1 X131.361 Y181.124 E14.92764
G1 X130.991 Y180.21 E14.96043
G1 X130.738 Y179.483 E14.98604
G1 X129.987 Y177.22 E15.06534
G1 X129.716 Y176.364 E15.0952
G1 X129.474 Y175.458 E15.12639
G1 X129.334 Y174.678 E15.15275
G1 X129.219 Y173.86 E15.18023
G1 X126.653 Y153.39 E15.86639
G1 X126.557 Y152.524 E15.89537
G1 X126.496 Y151.588 E15.92657
G1 X126.512 Y150.739 E15.95481
G1 X126.563 Y149.884 E15.9833
G1 X126.735 Y147.547 E16.06124
G1 X126.811 Y146.686 E16.08999
G1 X126.937 Y145.755 E16.12123
G1 X127.144 Y144.84 E16.15244
G1 X127.433 Y143.944 E16.18375
G1 X127.835 Y143.006 E16.21769
G1 X128.237 Y142.184 E16.24812
G1 X129.364 Y139.966 E16.33087
G1 X129.688 Y139.352 E16.35396
G1 X130.163 Y138.544 E16.38514
G1 X130.708 Y137.778 E16.4164
G1 X131.294 Y137.091 E16.44644
G1 X132.075 Y136.333 E16.48264
M204 S2000
G0 F7500 X132.338 Y136.634
M204 S500
G1 F1500 X132.961 Y136.09 E16.51015
G1 X134.77 Y134.55 E16.58916
G1 X135.404 Y134.026 E16.61652
G1 X136.125 Y133.482 E16.64656
G1 X136.891 Y133.004 E16.67659
G1 X137.697 Y132.596 E16.70664
G1 X138.669 Y132.215 E16.74136
G1 X139.524 Y131.93 E16.77134
G1 X141.644 Y131.253 E16.84536
G1 X142.49 Y130.995 E16.87477
G1 X143.365 Y130.77 E16.90482
G1 X144.256 Y130.624 E16.93485
G1 X145.157 Y130.558 E16.9649
G1 X146.214 Y130.581 E17.00007
G1 X147.064 Y130.645 E17.02842
G1 X149.395 Y130.849 E17.10624
G1 X150.204 Y130.93 E17.13328
G1 X151.071 Y131.055 E17.16242
G1 X152.287 Y131.284 E17.20357
G1 X154.893 Y131.738 E17.29156
G1 X157.377 Y132.098 E17.37504
G1 X159.925 Y132.394 E17.46035
G1 X162.437 Y132.613 E17.54422
G1 X164.977 Y132.763 E17.62885
G1 X167.511 Y132.841 E17.71317
G1 X170.044 Y132.848 E17.79742
G1 X172.611 Y132.781 E17.88283
G1 X175.142 Y132.644 E17.96713
G1 X177.643 Y132.438 E18.0506
G1 X180.251 Y132.148 E18.13787
G1 X191.831 Y130.698 E18.52603
G1 X192.506 Y130.623 E18.54862
G1 X193.407 Y130.563 E18.57865
G1 X194.016 Y130.568 E18.59891
G1 X195.079 Y130.608 E18.63429
G1 X196.387 Y130.693 E18.67789
G1 X197.284 Y130.794 E18.70791
G1 X198.169 Y130.974 E18.73795
G1 X199.035 Y131.231 E18.76799
G1 X199.721 Y131.497 E18.79246
G1 X200.504 Y131.837 E18.82086
G1 X201.782 Y132.426 E18.86766
G1 X202.585 Y132.84 E18.89771
G1 X203.348 Y133.324 E18.92776
G1 X204.065 Y133.873 E18.9578
G1 X204.689 Y134.442 E18.98588
G1 X205.76 Y135.505 E19.03607
G1 X206.26 Y136.023 E19.06002
G1 X206.858 Y136.7 E19.09006
G1 X207.393 Y137.427 E19.12008
G1 X207.862 Y138.199 E19.15013
G1 X208.219 Y138.913 E19.17668
G1 X208.736 Y140.059 E19.21849
G1 X209.114 Y140.943 E19.25047
G1 X209.43 Y141.789 E19.28051
G1 X209.671 Y142.66 E19.31057
G1 X209.833 Y143.548 E19.34059
G1 X209.91 Y144.341 E19.36709
G1 X209.997 Y145.895 E19.41885
G1 X210.02 Y146.612 E19.44271
G1 X210.009 Y147.515 E19.47275
G1 X209.918 Y148.414 E19.5028
G1 X209.748 Y149.3 E19.53281
G1 X209.541 Y150.045 E19.55853
G1 X209.151 Y151.265 E19.60113
G1 X208.857 Y152.129 E19.63148
G1 X208.527 Y152.969 E19.6615
G1 X208.124 Y153.777 E19.69153
G1 X207.651 Y154.547 E19.72159
G1 X207.177 Y155.19 E19.74816
G1 X206.19 Y156.423 E19.80069
G1 X205.782 Y156.912 E19.82187
G1 X205.173 Y157.579 E19.85191
G1 X204.564 Y158.142 E19.8795
G1 X202.253 Y160.16 E19.98154
G1 X200.382 Y161.896 E20.06643
G1 X198.581 Y163.665 E20.15039
G1 X196.827 Y165.489 E20.23456
G1 X195.104 Y167.384 E20.31975
G1 X193.458 Y169.302 E20.40381
G1 X191.845 Y171.293 E20.48903
G1 X190.317 Y173.291 E20.57269
G1 X188.83 Y175.353 E20.65725
G1 X187.401 Y177.458 E20.74187
G1 X186.032 Y179.604 E20.82653
G1 X184.73 Y181.777 E20.91079
G1 X183.502 Y183.966 E20.99427
G1 X181.819 Y187.213 E21.11591
G1 X181.546 Y187.765 E21.13639
G1 X181.111 Y188.556 E21.16642
G1 X180.631 Y189.271 E21.19506
G1 X179.721 Y190.509 E21.24616
G1 X179.301 Y191.055 E21.26907
G1 X178.719 Y191.746 E21.29912
G1 X178.078 Y192.382 E21.32916
G1 X177.384 Y192.96 E21.3592
G1 X176.759 Y193.398 E21.38458
G1 X175.456 Y194.238 E21.43614
G1 X174.857 Y194.605 E21.45951
G1 X174.067 Y195.043 E21.48955
G1 X173.241 Y195.408 E21.51959
G1 X172.386 Y195.699 E21.54963
G1 X171.725 Y195.869 E21.57233
G1 X171.063 Y196.015 E21.59487
G1 X169.502 Y196.319 E21.64777
G1 X168.609 Y196.451 E21.67779
G1 X167.707 Y196.503 E21.70784
G1 X166.804 Y196.475 E21.73789
G1 X165.958 Y196.376 E21.76622
G1 X164.715 Y196.177 E21.80809
G1 X163.757 Y196.004 E21.84047
G1 X162.877 Y195.802 E21.8705
G1 X162.253 Y195.608 E21.89223
G1 X160.001 Y194.827 E21.97151
G1 X157.575 Y194.057 E22.05617
G1 X155.127 Y193.355 E22.14087
G1 X152.664 Y192.724 E22.22543
G1 X150.184 Y192.163 E22.31
G1 X147.683 Y191.671 E22.39478
G1 X145.033 Y191.222 E22.48418
G1 X144.151 Y191.032 E22.51419
G1 X143.288 Y190.765 E22.54423
G1 X142.348 Y190.373 E22.57811
G1 X141.614 Y190.021 E22.60518
G1 X139.353 Y188.888 E22.6893
G1 X138.737 Y188.569 E22.71237
G1 X137.955 Y188.118 E22.74239
G1 X137.215 Y187.6 E22.77244
G1 X136.524 Y187.019 E22.80246
G1 X135.853 Y186.342 E22.83417
G1 X135.285 Y185.709 E22.86245
G1 X133.624 Y183.789 E22.94689
G1 X133.178 Y183.257 E22.96998
G1 X132.629 Y182.54 E23.00002
G1 X132.146 Y181.777 E23.03005
G1 X131.732 Y180.974 E23.0601
G1 X131.369 Y180.078 E23.09226
G1 X131.118 Y179.357 E23.11765
G1 X130.368 Y177.099 E23.19678
G1 X130.102 Y176.26 E23.22606
G1 X129.868 Y175.387 E23.25612
G1 X129.73 Y174.622 E23.28197
G1 X129.616 Y173.81 E23.30925
G1 X127.051 Y153.345 E23.99524
G1 X126.956 Y152.497 E24.02362
G1 X126.896 Y151.595 E24.05369
G1 X126.911 Y150.763 E24.08136
G1 X126.962 Y149.913 E24.10969
G1 X127.133 Y147.582 E24.18742
G1 X127.207 Y146.739 E24.21557
G1 X127.327 Y145.843 E24.24564
G1 X127.525 Y144.962 E24.27567
G1 X127.801 Y144.102 E24.30571
G1 X128.203 Y143.164 E24.33965
G1 X128.594 Y142.365 E24.36924
G1 X129.718 Y140.152 E24.45179
G1 X130.033 Y139.554 E24.47427
G1 X130.489 Y138.775 E24.5043
G1 X131.012 Y138.038 E24.53435
G1 X131.598 Y137.351 E24.56439
G1 X132.338 Y136.634 E24.59866
M204 S2000
G1 F2400 E23.79866
;MESH:E - Y Motor_V2.stl
G0 F7500 X141.537 Y146.322
G0 X147.27 Y156.25
M204 S500
;TYPE:WALL-INNER
G1 F2400 E24.59866
G1 F1500 X144.995 Y156.086 E24.67452
G1 X144.784 Y156.025 E24.68183
G1 X142.758 Y155.01 E24.7572
