;FLAVOR:Marlin
;TIME:11486
;Filament used: 7.21191m
;Layer height: 0.2
;MINX:102.328
;MINY:113.451
;MINZ:0.2
;MAXX:218.22
;MAXY:222.059
;MAXZ:20
;Generated with Cura_SteamEngine 5.4.0
M82 ;absolute extrusion mode
; Ender 3 S1 Plus Start G-code
; M413 S0 ; Disable power loss recovery
G92 E0 ; Reset Extruder

; Prep surfaces before auto home for better accuracy
M140 S60
M104 S200

G28 O ; Home all untrusted axes
G1 Z10.0 F3000 ; Move Z Axis up little to prevent scratching of Heat Bed
G1 X0 Y0

M190 S60
M109 S200

G1 X0.1 Y20 Z0.3 F5000.0 ; Move to start position
G1 X0.1 Y200.0 Z0.3 F1500.0 E15 ; Draw the first line
G1 X0.4 Y200.0 Z0.3 F5000.0 ; Move to side a little
G1 X0.4 Y20 Z0.3 F1500.0 E30 ; Draw the second line
G92 E0 ; Reset Extruder
G1 Z2.0 F3000 ; Move Z Axis up little to prevent scratching of Heat Bed
G1 X5 Y20 Z0.3 F5000.0 ; Move over to prevent blob squish

G92 E0
G92 E0
G1 F2400 E-0.8
;LAYER_COUNT:100
;LAYER:0
M107
M204 S2000
G0 F7500 X105.913 Y124.933 Z0.2
M204 S500
;TYPE:SKIRT
G1 F2400 E0
G1 F1500 X107.936 Y123.726 E0.07835
G1 X109.716 Y123.439 E0.13832
G1 X117.066 Y123.389 E0.38279
G1 X117.892 Y120.573 E0.48039
G1 X118.782 Y118.865 E0.54445
G1 X121.407 Y116.092 E0.67145
G1 X123.206 Y114.821 E0.74471
G1 X127.355 Y113.665 E0.88797
G1 X129.234 Y113.639 E0.95047
G1 X129.587 Y113.674 E0.96227
G1 X129.836 Y113.67 E0.97055
G1 X130.913 Y113.719 E1.00641
G1 X134.412 Y114.705 E1.12732
G1 X136.335 Y115.709 E1.19947
G1 X139.085 Y118.593 E1.33201
G1 X140.133 Y120.245 E1.39708
G1 X141.043 Y123.367 E1.50524
G1 X147.486 Y123.369 E1.71953
G1 X149.382 Y123.835 E1.78447
G1 X151.41 Y124.888 E1.86047
G1 X152.869 Y126.449 E1.93154
G1 X154.076 Y128.472 E2.00989
G1 X154.358 Y130.19 E2.0678
G1 X154.433 Y156.022 E2.92698
G1 X153.967 Y157.918 E2.99191
G1 X152.914 Y159.946 E3.06792
G1 X151.353 Y161.405 E3.13898
G1 X149.394 Y162.573 E3.21484
G1 X149.253 Y162.624 E3.21983
G1 X147.488 Y162.904 E3.27927
G1 X140.431 Y162.948 E3.51399
G1 X139.617 Y165.846 E3.61411
G1 X138.654 Y167.67 E3.68271
G1 X138.05 Y168.274 E3.71112
G1 X138.852 Y169.538 E3.76091
G1 X139.762 Y172.662 E3.86913
G1 X146.981 Y172.662 E4.10924
G1 X148.877 Y173.128 E4.17417
G1 X150.905 Y174.181 E4.25018
G1 X152.364 Y175.742 E4.32124
G1 X153.571 Y177.765 E4.39959
G1 X153.853 Y179.483 E4.4575
G1 X153.928 Y205.315 E5.31668
G1 X153.462 Y207.211 E5.38162
G1 X152.409 Y209.239 E5.45762
G1 X150.848 Y210.698 E5.52868
G1 X148.825 Y211.905 E5.60704
G1 X147.045 Y212.192 E5.667
G1 X139.497 Y212.242 E5.91806
G1 X138.687 Y215.126 E6.01769
G1 X137.724 Y216.95 E6.08629
G1 X134.997 Y219.677 E6.21456
G1 X133.198 Y220.835 E6.28572
G1 X129.357 Y221.898 E6.41828
G1 X127.106 Y222.059 E6.49334
G1 X123.214 Y220.92 E6.62821
G1 X121.398 Y219.941 E6.69683
G1 X118.622 Y217.165 E6.82741
G1 X117.484 Y215.393 E6.89745
G1 X116.566 Y212.262 E7.00597
G1 X109.275 Y212.262 E7.24847
G1 X107.379 Y211.796 E7.31341
G1 X105.351 Y210.743 E7.38941
G1 X103.892 Y209.182 E7.46048
G1 X102.685 Y207.159 E7.53883
G1 X102.403 Y205.441 E7.59673
G1 X102.328 Y179.609 E8.45591
G1 X102.794 Y177.713 E8.52085
G1 X103.847 Y175.685 E8.59685
G1 X105.408 Y174.226 E8.66792
G1 X107.431 Y173.019 E8.74627
G1 X109.211 Y172.732 E8.80624
G1 X116.557 Y172.682 E9.05057
G1 X117.38 Y169.876 E9.14783
G1 X118.271 Y168.163 E9.21205
G1 X118.575 Y167.843 E9.22673
G1 X117.453 Y166.104 E9.29557
G1 X116.534 Y162.969 E9.40423
G1 X109.78 Y162.969 E9.62887
G1 X107.884 Y162.503 E9.6938
G1 X105.856 Y161.45 E9.76981
G1 X104.397 Y159.889 E9.84087
G1 X103.19 Y157.866 E9.91922
G1 X102.908 Y156.148 E9.97713
G1 X102.833 Y130.316 E10.83631
G1 X103.299 Y128.42 E10.90125
G1 X104.352 Y126.392 E10.97725
G1 X105.913 Y124.933 E11.04831
M204 S2000
G0 F7500 X106.152 Y125.257
M204 S500
G1 F1500 X108.076 Y124.109 E11.12283
G1 X109.719 Y123.839 E11.17821
G1 X117.366 Y123.787 E11.43256
G1 X118.265 Y120.723 E11.53876
G1 X119.112 Y119.097 E11.59974
G1 X121.667 Y116.398 E11.72335
G1 X123.382 Y115.187 E11.79318
G1 X127.411 Y114.064 E11.9323
G1 X129.239 Y114.039 E11.9931
G1 X129.566 Y114.075 E12.00404
G1 X129.818 Y114.07 E12.01243
G1 X130.85 Y114.117 E12.04679
G1 X134.263 Y115.079 E12.16473
G1 X136.091 Y116.033 E12.23331
G1 X138.769 Y118.842 E12.36239
G1 X139.765 Y120.412 E12.42423
G1 X140.743 Y123.767 E12.54046
G1 X147.44 Y123.769 E12.7632
G1 X149.239 Y124.211 E12.82482
G1 X151.165 Y125.211 E12.897
G1 X152.545 Y126.688 E12.96423
G1 X153.693 Y128.612 E13.03875
G1 X153.963 Y130.255 E13.09413
G1 X154.033 Y155.976 E13.94961
G1 X153.591 Y157.775 E14.01123
G1 X152.591 Y159.701 E14.08341
G1 X151.114 Y161.081 E14.15064
G1 X149.189 Y162.229 E14.22518
G1 X147.485 Y162.504 E14.28259
G1 X140.128 Y162.55 E14.52729
G1 X139.244 Y165.695 E14.63595
G1 X138.328 Y167.43 E14.7012
G1 X137.54 Y168.218 E14.73827
G1 X138.484 Y169.705 E14.79685
G1 X139.462 Y173.062 E14.91315
G1 X146.935 Y173.062 E15.1617
G1 X148.734 Y173.504 E15.22332
G1 X150.66 Y174.504 E15.29549
G1 X152.04 Y175.981 E15.36273
G1 X153.188 Y177.905 E15.43724
G1 X153.458 Y179.548 E15.49262
G1 X153.528 Y205.269 E16.34811
G1 X153.086 Y207.068 E16.40972
G1 X152.086 Y208.994 E16.4819
G1 X150.609 Y210.374 E16.54913
G1 X148.685 Y211.522 E16.62365
G1 X147.042 Y211.792 E16.67903
G1 X139.194 Y211.844 E16.94006
G1 X138.314 Y214.975 E17.04824
G1 X137.398 Y216.71 E17.11349
G1 X134.744 Y219.364 E17.23833
G1 X133.032 Y220.466 E17.30604
G1 X129.291 Y221.502 E17.43515
G1 X127.149 Y221.655 E17.50658
G1 X123.367 Y220.548 E17.63765
G1 X121.64 Y219.617 E17.7029
G1 X118.936 Y216.913 E17.83009
G1 X117.852 Y215.225 E17.89681
G1 X116.866 Y211.862 E18.01337
G1 X109.321 Y211.862 E18.26432
G1 X107.522 Y211.42 E18.32594
G1 X105.596 Y210.42 E18.39812
G1 X104.216 Y208.943 E18.46535
G1 X103.068 Y207.019 E18.53986
G1 X102.798 Y205.376 E18.59524
G1 X102.728 Y179.655 E19.45073
G1 X103.17 Y177.856 E19.51235
G1 X104.17 Y175.93 E19.58452
G1 X105.647 Y174.55 E19.65176
G1 X107.571 Y173.402 E19.72627
G1 X109.214 Y173.132 E19.78165
G1 X116.857 Y173.08 E20.03587
G1 X117.753 Y170.026 E20.14172
G1 X118.601 Y168.396 E20.20284
G1 X119.13 Y167.838 E20.22841
G1 X118.884 Y167.592 E20.23998
G1 X117.821 Y165.936 E20.30543
G1 X116.834 Y162.569 E20.42213
G1 X109.826 Y162.569 E20.65522
G1 X108.027 Y162.127 E20.71683
G1 X106.101 Y161.127 E20.78901
G1 X104.721 Y159.65 E20.85624
G1 X103.573 Y157.726 E20.93076
G1 X103.303 Y156.083 E20.98614
G1 X103.233 Y130.362 E21.84163
G1 X103.675 Y128.563 E21.90324
G1 X104.675 Y126.637 E21.97542
G1 X106.152 Y125.257 E22.04265
M204 S2000
G0 F7500 X106.394 Y125.578
M204 S500
G1 F1500 X108.214 Y124.492 E22.11314
G1 X109.784 Y124.234 E22.16606
G1 X117.666 Y124.185 E22.42822
G1 X118.638 Y120.873 E22.54302
G1 X119.442 Y119.329 E22.60092
G1 X121.927 Y116.704 E22.72115
G1 X123.558 Y115.553 E22.78754
G1 X127.467 Y114.463 E22.92252
G1 X129.195 Y114.437 E22.98
G1 X129.546 Y114.476 E22.99174
G1 X129.8 Y114.47 E23.00019
G1 X130.788 Y114.515 E23.03309
G1 X134.113 Y115.452 E23.14799
G1 X135.847 Y116.357 E23.21304
G1 X138.453 Y119.091 E23.33867
G1 X139.397 Y120.579 E23.39728
G1 X140.382 Y123.958 E23.51434
G1 X140.407 Y124.167 E23.52134
G1 X147.393 Y124.169 E23.7537
G1 X149.097 Y124.588 E23.81206
G1 X150.92 Y125.534 E23.88037
G1 X152.224 Y126.93 E23.94391
G1 X153.31 Y128.75 E24.0144
G1 X153.568 Y130.32 E24.06732
G1 X153.633 Y155.929 E24.91908
G1 X153.214 Y157.633 E24.97744
G1 X152.268 Y159.456 E25.04575
G1 X150.872 Y160.76 E25.10929
G1 X149.052 Y161.846 E25.17978
G1 X147.482 Y162.104 E25.2327
G1 X139.825 Y162.152 E25.48738
G1 X138.871 Y165.544 E25.60457
G1 X138.002 Y167.19 E25.66648
G1 X136.993 Y168.199 E25.71394
G1 X137.196 Y168.422 E25.72397
G1 X138.116 Y169.872 E25.78109
G1 X139.101 Y173.252 E25.89818
G1 X139.127 Y173.462 E25.90522
G1 X146.888 Y173.462 E26.16335
G1 X148.592 Y173.881 E26.22172
G1 X150.415 Y174.827 E26.29003
G1 X151.719 Y176.223 E26.35356
G1 X152.805 Y178.043 E26.42405
G1 X153.063 Y179.613 E26.47697
G1 X153.128 Y205.222 E27.32873
G1 X152.709 Y206.926 E27.3871
G1 X151.763 Y208.749 E27.45541
G1 X150.367 Y210.053 E27.51895
G1 X148.547 Y211.139 E27.58944
G1 X146.977 Y211.397 E27.64236
G1 X138.891 Y211.446 E27.9113
G1 X137.941 Y214.824 E28.02801
G1 X137.072 Y216.47 E28.08992
G1 X134.491 Y219.051 E28.21132
G1 X132.866 Y220.097 E28.2756
G1 X129.225 Y221.106 E28.40126
G1 X127.192 Y221.251 E28.46905
G1 X123.52 Y220.176 E28.59631
G1 X121.882 Y219.293 E28.6582
G1 X119.25 Y216.661 E28.782
G1 X118.219 Y215.056 E28.84545
G1 X117.229 Y211.678 E28.96253
G1 X117.205 Y211.462 E28.96976
G1 X109.368 Y211.462 E29.23042
G1 X107.664 Y211.043 E29.28878
G1 X105.841 Y210.097 E29.35709
G1 X104.537 Y208.701 E29.42063
G1 X103.451 Y206.881 E29.49112
G1 X103.193 Y205.311 E29.54404
G1 X103.128 Y179.702 E30.3958
G1 X103.547 Y177.998 E30.45416
G1 X104.493 Y176.175 E30.52247
G1 X105.889 Y174.871 E30.58601
G1 X107.709 Y173.785 E30.6565
G1 X109.279 Y173.527 E30.70942
G1 X117.157 Y173.478 E30.97145
G1 X118.126 Y170.176 E31.08591
G1 X118.93 Y168.631 E31.14383
G1 X119.688 Y167.83 E31.18051
G1 X119.198 Y167.34 E31.20356
G1 X118.189 Y165.768 E31.26569
G1 X117.197 Y162.384 E31.38298
G1 X117.173 Y162.169 E31.39017
G1 X109.873 Y162.169 E31.63297
G1 X108.169 Y161.75 E31.69134
G1 X106.346 Y160.804 E31.75965
G1 X105.042 Y159.408 E31.82318
G1 X103.956 Y157.588 E31.89368
G1 X103.698 Y156.018 E31.94659
G1 X103.633 Y130.409 E32.79836
G1 X104.052 Y128.705 E32.85672
G1 X104.998 Y126.882 E32.92503
G1 X106.394 Y125.578 E32.98857
M204 S2000
G0 F7500 X106.636 Y125.899
M204 S500
G1 F1500 X108.352 Y124.875 E33.05503
G1 X109.849 Y124.629 E33.10549
G1 X117.966 Y124.583 E33.37547
G1 X119.011 Y121.023 E33.49887
G1 X119.772 Y119.561 E33.55369
G1 X122.187 Y117.01 E33.67052
G1 X123.734 Y115.919 E33.73349
G1 X127.523 Y114.862 E33.86432
G1 X129.151 Y114.835 E33.91847
G1 X129.527 Y114.877 E33.93106
G1 X129.782 Y114.87 E33.93954
G1 X130.725 Y114.913 E33.97094
G1 X133.964 Y115.826 E34.08287
G1 X135.603 Y116.681 E34.14435
G1 X138.137 Y119.34 E34.26652
G1 X139.029 Y120.746 E34.3219
G1 X139.998 Y124.07 E34.43706
G1 X140.038 Y124.567 E34.45364
G1 X147.347 Y124.569 E34.69674
G1 X148.954 Y124.964 E34.75178
G1 X150.675 Y125.857 E34.81627
G1 X151.903 Y127.172 E34.87611
G1 X152.927 Y128.888 E34.94257
G1 X153.173 Y130.385 E34.99303
G1 X153.233 Y155.883 E35.8411
G1 X152.838 Y157.49 E35.89614
G1 X151.945 Y159.211 E35.96063
G1 X150.63 Y160.439 E36.02047
G1 X148.914 Y161.463 E36.08694
G1 X147.417 Y161.709 E36.13739
G1 X139.522 Y161.754 E36.39999
G1 X138.498 Y165.393 E36.52572
G1 X137.676 Y166.95 E36.58428
G1 X136.434 Y168.192 E36.6427
G1 X136.858 Y168.636 E36.66312
G1 X137.748 Y170.039 E36.71838
G1 X138.717 Y173.364 E36.83357
G1 X138.758 Y173.862 E36.85019
G1 X146.842 Y173.862 E37.11907
G1 X148.449 Y174.257 E37.17411
G1 X150.17 Y175.15 E37.23859
G1 X151.398 Y176.465 E37.29844
G1 X152.422 Y178.181 E37.3649
G1 X152.668 Y179.678 E37.41536
G1 X152.728 Y205.176 E38.26343
G1 X152.333 Y206.783 E38.31847
G1 X151.44 Y208.504 E38.38296
G1 X150.125 Y209.732 E38.4428
G1 X148.409 Y210.756 E38.50926
G1 X146.912 Y211.002 E38.55972
G1 X138.588 Y211.048 E38.83658
G1 X137.568 Y214.673 E38.96183
G1 X136.746 Y216.23 E39.02039
G1 X134.236 Y218.74 E39.13845
G1 X132.701 Y219.728 E39.19917
G1 X129.159 Y220.71 E39.32142
G1 X127.235 Y220.847 E39.38558
G1 X123.673 Y219.804 E39.50902
G1 X122.124 Y218.969 E39.56755
G1 X119.564 Y216.409 E39.68797
G1 X118.587 Y214.888 E39.74809
G1 X117.613 Y211.565 E39.86327
G1 X117.579 Y211.062 E39.88003
G1 X109.414 Y211.062 E40.1516
G1 X107.807 Y210.667 E40.20664
G1 X106.086 Y209.774 E40.27113
G1 X104.858 Y208.459 E40.33097
G1 X103.834 Y206.743 E40.39744
G1 X103.588 Y205.246 E40.4479
G1 X103.528 Y179.748 E41.29596
G1 X103.923 Y178.141 E41.351
G1 X104.816 Y176.42 E41.41549
G1 X106.131 Y175.192 E41.47533
G1 X107.847 Y174.168 E41.5418
G1 X109.344 Y173.922 E41.59226
G1 X117.457 Y173.876 E41.8621
G1 X118.499 Y170.326 E41.98516
G1 X119.26 Y168.863 E42.04
G1 X120.246 Y167.822 E42.08769
G1 X119.512 Y167.088 E42.12222
G1 X118.556 Y165.599 E42.18107
G1 X117.581 Y162.272 E42.29638
G1 X117.546 Y161.769 E42.31315
G1 X109.919 Y161.769 E42.56683
G1 X108.312 Y161.374 E42.62187
G1 X106.591 Y160.481 E42.68636
G1 X105.363 Y159.166 E42.7462
G1 X104.339 Y157.45 E42.81266
G1 X104.093 Y155.953 E42.86312
G1 X104.033 Y130.455 E43.71119
G1 X104.428 Y128.848 E43.76623
G1 X105.321 Y127.127 E43.83072
G1 X106.636 Y125.899 E43.89056
M204 S2000
G0 F7500 X106.878 Y126.22
M204 S500
G1 F1500 X108.49 Y125.258 E43.953
G1 X109.914 Y125.024 E44.00099
G1 X118.412 Y124.981 E44.28364
G1 X118.384 Y124.579 E44.29705
G1 X119.384 Y121.173 E44.41511
G1 X120.102 Y119.793 E44.46685
G1 X122.449 Y117.314 E44.58039
G1 X123.908 Y116.286 E44.63976
G1 X127.58 Y115.261 E44.76656
G1 X129.107 Y115.233 E44.81735
G1 X129.51 Y115.278 E44.83084
G1 X129.764 Y115.27 E44.83929
G1 X130.663 Y115.311 E44.86922
G1 X133.814 Y116.199 E44.97811
G1 X135.359 Y117.005 E45.03607
G1 X137.821 Y119.589 E45.15478
G1 X138.661 Y120.913 E45.20693
G1 X139.602 Y124.141 E45.31876
G1 X139.669 Y124.967 E45.34632
G1 X147.301 Y124.969 E45.60017
G1 X148.811 Y125.34 E45.65188
G1 X150.43 Y126.18 E45.71255
G1 X151.582 Y127.414 E45.76869
G1 X152.544 Y129.026 E45.83113
G1 X152.778 Y130.45 E45.87913
G1 X152.833 Y155.837 E46.72351
G1 X152.462 Y157.347 E46.77522
G1 X151.622 Y158.966 E46.83589
G1 X150.388 Y160.118 E46.89203
G1 X148.776 Y161.08 E46.95447
G1 X147.352 Y161.314 E47.00247
G1 X139.109 Y161.356 E47.27664
G1 X139.114 Y161.727 E47.28898
G1 X138.125 Y165.242 E47.41043
G1 X137.35 Y166.71 E47.46564
G1 X135.875 Y168.185 E47.53502
G1 X136.54 Y168.882 E47.56706
G1 X137.38 Y170.206 E47.61921
G1 X138.321 Y173.435 E47.73107
G1 X138.389 Y174.262 E47.75867
G1 X146.796 Y174.262 E48.03829
G1 X148.306 Y174.633 E48.09001
G1 X149.925 Y175.473 E48.15067
G1 X151.077 Y176.707 E48.20682
G1 X152.039 Y178.319 E48.26926
G1 X152.273 Y179.743 E48.31726
G1 X152.328 Y205.13 E49.16163
G1 X151.957 Y206.64 E49.21335
G1 X151.117 Y208.259 E49.27401
G1 X149.883 Y209.411 E49.33016
G1 X148.271 Y210.373 E49.3926
G1 X146.847 Y210.607 E49.4406
G1 X138.175 Y210.65 E49.72903
G1 X138.18 Y211.02 E49.74134
G1 X137.195 Y214.522 E49.86234
G1 X136.42 Y215.99 E49.91755
G1 X133.981 Y218.429 E50.03227
G1 X132.536 Y219.359 E50.08943
G1 X129.093 Y220.314 E50.20826
G1 X127.278 Y220.443 E50.26878
G1 X123.826 Y219.432 E50.38842
G1 X122.366 Y218.645 E50.44359
G1 X119.878 Y216.157 E50.56061
G1 X118.955 Y214.72 E50.61742
G1 X118.009 Y211.493 E50.72926
G1 X117.952 Y210.662 E50.75697
G1 X109.46 Y210.662 E51.03941
G1 X107.95 Y210.291 E51.09113
G1 X106.331 Y209.451 E51.1518
G1 X105.179 Y208.217 E51.20794
G1 X104.217 Y206.605 E51.27038
G1 X103.983 Y205.181 E51.31838
G1 X103.928 Y179.794 E52.16275
G1 X104.299 Y178.284 E52.21447
G1 X105.139 Y176.665 E52.27514
G1 X106.373 Y175.513 E52.33128
G1 X107.985 Y174.551 E52.39372
G1 X109.409 Y174.317 E52.44172
G1 X117.903 Y174.274 E52.72423
G1 X117.875 Y173.873 E52.7376
G1 X118.872 Y170.476 E52.85535
G1 X119.589 Y169.098 E52.90702
G1 X120.804 Y167.814 E52.96581
G1 X119.826 Y166.836 E53.01182
G1 X118.924 Y165.431 E53.06735
G1 X117.977 Y162.2 E53.17933
G1 X117.919 Y161.369 E53.20704
G1 X109.965 Y161.369 E53.47159
G1 X108.455 Y160.998 E53.52331
G1 X106.836 Y160.158 E53.58397
G1 X105.684 Y158.924 E53.64012
G1 X104.722 Y157.312 E53.70256
G1 X104.488 Y155.888 E53.75055
G1 X104.433 Y130.501 E54.59493
G1 X104.804 Y128.991 E54.64665
G1 X105.644 Y127.372 E54.70731
G1 X106.878 Y126.22 E54.76346
M204 S2000
G0 F7500 X107.12 Y126.541
M204 S500
G1 F1500 X108.628 Y125.641 E54.82187
G1 X109.979 Y125.419 E54.86741
G1 X118.84 Y125.379 E55.16213
G1 X118.788 Y124.624 E55.1873
G1 X119.757 Y121.323 E55.30172
G1 X120.431 Y120.028 E55.35028
G1 X122.714 Y117.616 E55.46074
G1 X124.082 Y116.653 E55.51638
G1 X127.638 Y115.66 E55.63918
G1 X129.063 Y115.631 E55.68659
G1 X129.494 Y115.679 E55.70101
G1 X129.746 Y115.67 E55.7094
G1 X130.601 Y115.709 E55.73786
G1 X133.664 Y116.572 E55.84371
G1 X135.115 Y117.329 E55.89814
G1 X137.505 Y119.838 E56.01339
G1 X138.293 Y121.08 E56.06231
G1 X139.206 Y124.213 E56.17085
G1 X139.3 Y125.367 E56.20936
G1 X147.254 Y125.369 E56.47391
G1 X148.669 Y125.717 E56.52238
G1 X150.185 Y126.503 E56.57917
