;FLAVOR:Marlin
;TIME:8570
;Filament used: 4.68238m
;Layer height: 0.2
;MINX:89.241
;MINY:42.694
;MINZ:0.2
;MAXX:176.05
;MAXY:201.481
;MAXZ:13.4
;Generated with Cura_SteamEngine 5.4.0
M82 ;absolute extrusion mode
; Ender 3 S1 Plus Start G-code
; M413 S0 ; Disable power loss recovery
G92 E0 ; Reset Extruder

; Prep surfaces before auto home for better accuracy
M140 S60
M104 S200

G28 O ; Home all untrusted axes
G1 Z10.0 F3000 ; Move Z Axis up little to prevent scratching of Heat Bed
G1 X0 Y0

M190 S60
M109 S200

G1 X0.1 Y20 Z0.3 F5000.0 ; Move to start position
G1 X0.1 Y200.0 Z0.3 F1500.0 E15 ; Draw the first line
G1 X0.4 Y200.0 Z0.3 F5000.0 ; Move to side a little
G1 X0.4 Y20 Z0.3 F1500.0 E30 ; Draw the second line
G92 E0 ; Reset Extruder
G1 Z2.0 F3000 ; Move Z Axis up little to prevent scratching of Heat Bed
G1 X5 Y20 Z0.3 F5000.0 ; Move over to prevent blob squish

G92 E0
G92 E0
G1 F2400 E-0.8
;LAYER_COUNT:67
;LAYER:0
M107
M204 S2000
G0 F7500 X126.517 Y49.622 Z0.2
M204 S500
;TYPE:SKIRT
G1 F2400 E0
G1 F1500 X127.41 Y47.905 E0.06437
G1 X129.982 Y45.184 E0.1889
G1 X131.757 Y43.931 E0.26117
G1 X135.613 Y42.856 E0.39431
G1 X137.818 Y42.694 E0.46784
G1 X141.685 Y43.776 E0.6014
G1 X143.657 Y44.801 E0.67532
G1 X146.336 Y47.637 E0.80508
G1 X147.379 Y49.276 E0.86969
G1 X148.276 Y52.336 E0.97575
G1 X154.103 Y52.336 E1.16956
G1 X155.999 Y52.802 E1.2345
G1 X158.027 Y53.855 E1.3105
G1 X159.495 Y55.425 E1.38199
G1 X159.949 Y56.186 E1.41146
G1 X169.103 Y56.186 E1.71592
G1 X170.999 Y56.652 E1.78086
G1 X173.027 Y57.705 E1.85686
G1 X174.486 Y59.266 E1.92793
G1 X175.654 Y61.225 E2.00379
G1 X175.705 Y61.366 E2.00878
G1 X175.985 Y63.131 E2.06821
G1 X176.05 Y73.128 E2.40072
G1 X175.582 Y75.037 E2.4661
G1 X174.531 Y77.063 E2.54201
G1 X172.97 Y78.522 E2.61308
G1 X170.947 Y79.729 E2.69143
G1 X169.373 Y79.987 E2.74448
G1 X170.999 Y80.387 E2.80017
G1 X173.027 Y81.44 E2.87617
G1 X174.486 Y83.001 E2.94724
G1 X175.654 Y84.96 E3.0231
G1 X175.705 Y85.101 E3.02808
G1 X175.985 Y86.866 E3.08752
G1 X176.05 Y96.863 E3.42003
G1 X175.582 Y98.772 E3.48541
G1 X174.531 Y100.798 E3.56132
G1 X172.97 Y102.257 E3.63238
G1 X170.947 Y103.464 E3.71074
G1 X169.167 Y103.751 E3.7707
G1 X159.969 Y103.809 E4.07664
G1 X159.533 Y104.646 E4.10803
G1 X157.964 Y106.113 E4.17947
G1 X156.145 Y107.197 E4.2499
G1 X155.757 Y107.344 E4.2637
G1 X153.981 Y107.616 E4.32345
G1 X149.344 Y107.647 E4.47769
G1 X148.762 Y109.717 E4.5492
G1 X148.836 Y109.738 E4.55176
G1 X150.541 Y109.653 E4.60854
G1 X154.326 Y110.72 E4.73934
G1 X156.253 Y111.72 E4.81155
G1 X158.976 Y114.601 E4.9434
G1 X160.005 Y116.22 E5.0072
G1 X160.898 Y119.273 E5.113
G1 X164.853 Y119.273 E5.24454
G1 X166.749 Y119.739 E5.30948
G1 X168.777 Y120.792 E5.38548
G1 X170.236 Y122.353 E5.45655
G1 X171.443 Y124.376 E5.5349
G1 X171.725 Y126.094 E5.5928
G1 X171.8 Y139.918 E6.0526
G1 X171.332 Y141.824 E6.11788
G1 X170.281 Y143.85 E6.19379
G1 X168.711 Y145.318 E6.26528
G1 X166.896 Y146.399 E6.33554
G1 X166.559 Y146.537 E6.34765
G1 X164.669 Y146.823 E6.41123
G1 X161.111 Y146.847 E6.52957
G1 X160.317 Y149.671 E6.62714
G1 X159.354 Y151.495 E6.69574
G1 X156.659 Y154.19 E6.82251
G1 X154.878 Y155.327 E6.89279
G1 X153.957 Y155.588 E6.92463
G1 X154.283 Y155.679 E6.93588
G1 X156.256 Y156.704 E7.00983
G1 X158.935 Y159.54 E7.13959
G1 X159.978 Y161.179 E7.2042
G1 X160.875 Y164.239 E7.31026
G1 X164.88 Y164.239 E7.44347
G1 X166.776 Y164.705 E7.50841
G1 X168.804 Y165.758 E7.58441
G1 X170.263 Y167.319 E7.65548
G1 X171.47 Y169.342 E7.73383
G1 X171.752 Y171.06 E7.79173
G1 X171.827 Y184.884 E8.25153
G1 X171.359 Y186.79 E8.3168
G1 X170.308 Y188.816 E8.39272
G1 X168.733 Y190.289 E8.46444
G1 X167.023 Y191.298 E8.53048
G1 X166.494 Y191.521 E8.54957
G1 X164.622 Y191.796 E8.6125
G1 X163.682 Y191.807 E8.64377
G1 X162.885 Y194.638 E8.74159
G1 X161.922 Y196.462 E8.81019
G1 X159.242 Y199.142 E8.93625
G1 X157.443 Y200.3 E9.00741
G1 X153.763 Y201.319 E9.13441
G1 X151.483 Y201.48 E9.21044
G1 X150.997 Y201.336 E9.2273
G1 X148.991 Y201.481 E9.29419
G1 X145.184 Y200.366 E9.42613
G1 X143.365 Y199.384 E9.49488
G1 X140.648 Y196.667 E9.62268
G1 X139.51 Y194.895 E9.69273
G1 X138.614 Y191.839 E9.79865
G1 X135.174 Y191.839 E9.91306
G1 X133.278 Y191.373 E9.978
G1 X131.25 Y190.32 E10.054
G1 X129.82 Y188.79 E10.12366
G1 X129.695 Y188.599 E10.13125
G1 X127.937 Y189.646 E10.19931
G1 X127.6 Y189.784 E10.21142
G1 X125.71 Y190.07 E10.27499
G1 X122.205 Y190.094 E10.39157
G1 X121.411 Y192.919 E10.48917
G1 X120.448 Y194.743 E10.55778
G1 X117.769 Y197.422 E10.68379
G1 X115.971 Y198.581 E10.75494
G1 X112.193 Y199.627 E10.88532
G1 X109.935 Y199.788 E10.96061
G1 X106.034 Y198.646 E11.09581
G1 X104.216 Y197.665 E11.16452
G1 X101.499 Y194.948 E11.29232
G1 X100.361 Y193.176 E11.36236
G1 X99.465 Y190.12 E11.46828
G1 X96.188 Y190.12 E11.57728
G1 X94.292 Y189.654 E11.64221
G1 X92.264 Y188.601 E11.71822
G1 X90.805 Y187.04 E11.78928
G1 X89.598 Y185.017 E11.86763
G1 X89.316 Y183.299 E11.92554
G1 X89.241 Y169.475 E12.38533
G1 X89.709 Y167.569 E12.45061
G1 X90.76 Y165.543 E12.52652
G1 X92.335 Y164.07 E12.59825
G1 X94.045 Y163.061 E12.66428
G1 X94.574 Y162.838 E12.68338
G1 X96.446 Y162.563 E12.74631
G1 X97.378 Y162.552 E12.77731
G1 X98.187 Y159.798 E12.87278
G1 X99.077 Y158.091 E12.93681
G1 X101.636 Y155.388 E13.06061
G1 X103.455 Y154.107 E13.13461
G1 X105.532 Y153.527 E13.20633
G1 X102.909 Y150.904 E13.32971
G1 X101.767 Y149.126 E13.39999
G1 X100.872 Y146.073 E13.50581
G1 X97.738 Y146.073 E13.61005
G1 X95.842 Y145.607 E13.67498
G1 X93.814 Y144.554 E13.75099
G1 X92.355 Y142.993 E13.82205
G1 X91.148 Y140.97 E13.9004
G1 X90.866 Y139.252 E13.95831
G1 X90.791 Y125.428 E14.4181
G1 X91.259 Y123.522 E14.48338
G1 X92.31 Y121.496 E14.55929
G1 X93.883 Y120.025 E14.63092
G1 X95.627 Y118.986 E14.69844
G1 X96.062 Y118.803 E14.71414
G1 X97.927 Y118.522 E14.77687
G1 X100.527 Y118.501 E14.86335
G1 X101.328 Y115.766 E14.95814
G1 X102.227 Y114.036 E15.02298
G1 X104.806 Y111.312 E15.14775
G1 X106.618 Y110.057 E15.22106
G1 X110.958 Y108.831 E15.37106
G1 X112.056 Y108.92 E15.40769
G1 X113.153 Y108.831 E15.4443
G1 X117.016 Y109.92 E15.57779
G1 X118.922 Y110.913 E15.64927
G1 X121.668 Y113.813 E15.78211
G1 X122.689 Y115.42 E15.84543
G1 X123.582 Y118.473 E15.95123
G1 X127.444 Y118.473 E16.07968
G1 X129.34 Y118.939 E16.14462
G1 X131.368 Y119.992 E16.22062
G1 X131.842 Y120.499 E16.24371
G1 X132.952 Y119.84 E16.28664
G1 X133.53 Y119.592 E16.30756
G1 X135.405 Y119.316 E16.37059
G1 X136.339 Y119.305 E16.40166
G1 X136.945 Y117.242 E16.47318
G1 X133.406 Y116.21 E16.59579
G1 X131.525 Y115.199 E16.66681
G1 X128.828 Y112.502 E16.79367
G1 X127.686 Y110.724 E16.86396
G1 X126.65 Y107.19 E16.98644
G1 X126.55 Y105.699 E17.03615
G1 X125.506 Y104.583 E17.08697
G1 X124.525 Y102.918 E17.15125
G1 X124.259 Y102.299 E17.17366
G1 X124 Y100.573 E17.23171
G1 X123.95 Y95.14 E17.41242
G1 X124.377 Y93.388 E17.4724
G1 X123.147 Y93.028 E17.51502
G1 X121.331 Y92.049 E17.58364
G1 X118.829 Y89.547 E17.70133
G1 X117.708 Y87.817 E17.76989
G1 X116.746 Y84.519 E17.88415
G1 X116.583 Y82.159 E17.96283
G1 X116.758 Y81.571 E17.98324
G1 X116.732 Y81.223 E17.99485
G1 X117.725 Y77.788 E18.11377
G1 X118.595 Y76.116 E18.17646
G1 X120.926 Y73.65 E18.28932
G1 X122.725 Y72.401 E18.36217
G1 X123.951 Y72.059 E18.4045
G1 X123.95 Y71.434 E18.42529
G1 X124.417 Y69.529 E18.49052
G1 X125.159 Y68.11 E18.54378
G1 X124.525 Y67.033 E18.58535
G1 X124.259 Y66.414 E18.60776
G1 X124 Y64.688 E18.66581
G1 X123.95 Y59.26 E18.84635
G1 X124.392 Y57.434 E18.90884
G1 X125.067 Y56.136 E18.9575
G1 X125.178 Y54.481 E19.01267
G1 X125.534 Y53.269 E19.05468
G1 X125.543 Y52.921 E19.06626
G1 X126.517 Y49.622 E19.18067
M204 S2000
G0 F7500 X126.89 Y49.773
M204 S500
G1 F1500 X127.739 Y48.14 E19.24188
G1 X130.246 Y45.488 E19.36326
G1 X131.933 Y44.297 E19.43195
G1 X135.68 Y43.252 E19.56133
G1 X137.778 Y43.098 E19.6313
G1 X141.537 Y44.15 E19.76113
G1 X143.411 Y45.124 E19.83137
G1 X146.018 Y47.883 E19.95762
G1 X147.011 Y49.444 E20.01916
G1 X147.976 Y52.736 E20.13326
G1 X154.057 Y52.736 E20.33551
G1 X155.856 Y53.178 E20.39712
G1 X157.782 Y54.178 E20.4693
G1 X159.171 Y55.664 E20.53696
G1 X159.721 Y56.586 E20.57267
G1 X169.057 Y56.586 E20.88318
G1 X170.856 Y57.028 E20.9448
G1 X172.782 Y58.028 E21.01698
G1 X174.162 Y59.505 E21.08421
G1 X175.31 Y61.43 E21.15875
G1 X175.585 Y63.134 E21.21616
G1 X175.65 Y73.083 E21.54707
G1 X175.206 Y74.894 E21.60909
G1 X174.208 Y76.818 E21.68118
G1 X172.731 Y78.198 E21.74841
G1 X170.807 Y79.346 E21.82293
G1 X169.164 Y79.616 E21.87831
G1 X159.725 Y79.676 E22.19226
G1 X159.542 Y80.026 E22.20539
G1 X159.719 Y80.321 E22.21684
G1 X169.057 Y80.321 E22.52742
G1 X170.856 Y80.763 E22.58903
G1 X172.782 Y81.763 E22.66121
G1 X174.162 Y83.24 E22.72844
G1 X175.31 Y85.165 E22.80299
G1 X175.585 Y86.869 E22.8604
G1 X175.65 Y96.818 E23.19131
G1 X175.206 Y98.629 E23.25333
G1 X174.208 Y100.553 E23.32542
G1 X172.731 Y101.933 E23.39265
G1 X170.807 Y103.081 E23.46717
G1 X169.164 Y103.351 E23.52255
G1 X159.725 Y103.411 E23.8365
G1 X159.209 Y104.402 E23.87366
G1 X157.725 Y105.789 E23.94122
G1 X155.94 Y106.853 E24.01033
G1 X155.656 Y106.955 E24.02037
G1 X153.978 Y107.216 E24.07685
G1 X149.04 Y107.249 E24.24109
G1 X148.254 Y110.046 E24.33773
G1 X148.48 Y110.053 E24.34525
G1 X148.793 Y110.141 E24.35606
G1 X150.497 Y110.056 E24.41281
G1 X154.179 Y111.094 E24.54004
G1 X156.007 Y112.043 E24.60855
G1 X158.658 Y114.847 E24.73689
G1 X159.638 Y116.389 E24.79766
G1 X160.598 Y119.673 E24.91146
G1 X164.807 Y119.673 E25.05145
G1 X166.606 Y120.115 E25.11306
G1 X168.532 Y121.115 E25.18524
G1 X169.912 Y122.592 E25.25247
G1 X171.06 Y124.516 E25.32699
G1 X171.33 Y126.159 E25.38237
G1 X171.4 Y139.873 E25.83851
G1 X170.956 Y141.681 E25.90043
G1 X169.958 Y143.605 E25.97252
G1 X168.472 Y144.994 E26.04017
G1 X166.691 Y146.055 E26.10912
G1 X166.448 Y146.15 E26.1178
G1 X164.666 Y146.423 E26.17776
G1 X160.807 Y146.449 E26.30611
G1 X159.944 Y149.52 E26.41221
G1 X159.028 Y151.255 E26.47747
G1 X156.405 Y153.878 E26.60085
G1 X154.714 Y154.958 E26.66758
G1 X152.48 Y155.589 E26.74479
G1 X154.136 Y156.053 E26.80199
G1 X156.01 Y157.027 E26.87224
G1 X158.617 Y159.786 E26.99849
G1 X159.61 Y161.347 E27.06002
G1 X160.575 Y164.639 E27.17412
G1 X164.834 Y164.639 E27.31578
G1 X166.633 Y165.081 E27.37739
G1 X168.559 Y166.081 E27.44957
G1 X169.939 Y167.558 E27.5168
G1 X171.087 Y169.482 E27.59132
G1 X171.357 Y171.125 E27.6467
G1 X171.427 Y184.839 E28.10283
G1 X170.983 Y186.647 E28.16475
G1 X169.985 Y188.571 E28.23684
G1 X168.493 Y189.966 E28.30478
G1 X166.868 Y190.929 E28.36761
G1 X166.386 Y191.132 E28.385
G1 X164.617 Y191.396 E28.44449
G1 X163.378 Y191.41 E28.4857
G1 X162.512 Y194.487 E28.59202
G1 X161.596 Y196.222 E28.65727
G1 X158.989 Y198.829 E28.7799
G1 X157.277 Y199.931 E28.84762
G1 X153.697 Y200.923 E28.97117
G1 X151.528 Y201.076 E29.0435
G1 X151.041 Y200.932 E29.06039
G1 X149.034 Y201.077 E29.12731
G1 X145.337 Y199.994 E29.25544
G1 X143.607 Y199.06 E29.32083
G1 X140.962 Y196.415 E29.44525
G1 X139.878 Y194.727 E29.51197
G1 X138.914 Y191.439 E29.62593
G1 X135.22 Y191.439 E29.74879
G1 X133.421 Y190.997 E29.81041
G1 X131.495 Y189.997 E29.88259
G1 X130.112 Y188.517 E29.94996
G1 X129.792 Y187.98 E29.97075
G1 X129.513 Y188.241 E29.98346
G1 X127.732 Y189.302 E30.05241
G1 X127.489 Y189.397 E30.06109
G1 X125.707 Y189.67 E30.12105
G1 X121.902 Y189.696 E30.24761
G1 X121.038 Y192.768 E30.35375
G1 X120.122 Y194.503 E30.419
G1 X117.515 Y197.11 E30.54163
G1 X115.804 Y198.212 E30.60932
G1 X112.127 Y199.231 E30.73622
G1 X109.978 Y199.384 E30.80788
G1 X106.187 Y198.274 E30.93926
G1 X104.458 Y197.341 E31.00461
G1 X101.813 Y194.696 E31.12902
G1 X100.729 Y193.008 E31.19574
G1 X99.765 Y189.72 E31.30971
G1 X96.234 Y189.72 E31.42715
G1 X94.435 Y189.278 E31.48876
G1 X92.509 Y188.278 E31.56094
G1 X91.129 Y186.801 E31.62817
G1 X89.981 Y184.877 E31.70269
G1 X89.711 Y183.234 E31.75807
G1 X89.641 Y169.52 E32.21421
G1 X90.085 Y167.712 E32.27613
G1 X91.083 Y165.788 E32.34822
G1 X92.575 Y164.393 E32.41615
G1 X94.2 Y163.43 E32.47898
G1 X94.682 Y163.227 E32.49637
G1 X96.451 Y162.963 E32.55586
G1 X97.679 Y162.949 E32.59671
G1 X98.56 Y159.949 E32.7007
G1 X99.406 Y158.326 E32.76158
G1 X101.901 Y155.69 E32.88229
G1 X103.629 Y154.474 E32.95257
G1 X106.545 Y153.66 E33.05327
G1 X105.864 Y153.293 E33.079
G1 X103.223 Y150.652 E33.20322
G1 X102.134 Y148.957 E33.27023
G1 X101.172 Y145.673 E33.38405
G1 X97.784 Y145.673 E33.49673
G1 X95.985 Y145.231 E33.55835
G1 X94.059 Y144.231 E33.63052
G1 X92.679 Y142.754 E33.69776
G1 X91.531 Y140.83 E33.77227
G1 X91.261 Y139.187 E33.82765
G1 X91.191 Y125.473 E34.28379
G1 X91.635 Y123.665 E34.34571
G1 X92.633 Y121.741 E34.4178
G1 X94.122 Y120.349 E34.48559
G1 X95.832 Y119.33 E34.5518
G1 X96.169 Y119.192 E34.56391
G1 X97.987 Y118.918 E34.62506
G1 X100.827 Y118.899 E34.71952
G1 X101.702 Y115.914 E34.82298
G1 X102.555 Y114.272 E34.88453
G1 X105.068 Y111.617 E35.00612
G1 X106.791 Y110.424 E35.07582
G1 X110.997 Y109.236 E35.22118
G1 X112.056 Y109.322 E35.25652
G1 X113.114 Y109.236 E35.29183
G1 X116.867 Y110.294 E35.42152
G1 X118.679 Y111.238 E35.48947
G1 X121.348 Y114.056 E35.61857
G1 X122.322 Y115.589 E35.67898
G1 X123.282 Y118.873 E35.79277
G1 X127.398 Y118.873 E35.92967
G1 X129.197 Y119.315 E35.99129
G1 X131.123 Y120.315 E36.06347
G1 X131.77 Y121.007 E36.09497
G1 X133.109 Y120.208 E36.14684
G1 X133.639 Y119.981 E36.16601
G1 X135.41 Y119.716 E36.22557
G1 X136.64 Y119.702 E36.26648
G1 X137.466 Y116.889 E36.364
G1 X137.152 Y116.886 E36.37444
G1 X133.556 Y115.837 E36.49903
G1 X131.768 Y114.876 E36.56654
G1 X129.142 Y112.25 E36.69006
G1 X128.053 Y110.555 E36.75707
G1 X127.046 Y107.119 E36.87616
G1 X126.939 Y105.53 E36.92913
G1 X125.83 Y104.344 E36.98313
G1 X124.87 Y102.715 E37.04602
G1 X124.648 Y102.191 E37.06495
G1 X124.396 Y100.514 E37.12136
G1 X124.35 Y95.188 E37.29851
G1 X124.773 Y93.455 E37.35784
G1 X124.939 Y93.136 E37.3698
G1 X123.3 Y92.656 E37.4266
G1 X121.573 Y91.725 E37.49186
G1 X119.143 Y89.295 E37.60616
G1 X118.075 Y87.647 E37.67147
G1 X117.142 Y84.448 E37.7823
G1 X116.987 Y82.203 E37.85715
G1 X117.162 Y81.613 E37.87762
G1 X117.136 Y81.264 E37.88926
G1 X118.097 Y77.94 E38.00434
G1 X118.924 Y76.351 E38.06392
G1 X121.189 Y73.955 E38.17359
G1 X122.899 Y72.767 E38.24284
G1 X124.351 Y72.362 E38.29298
G1 X124.35 Y71.48 E38.32231
G1 X124.793 Y69.675 E38.38413
G1 X125.617 Y68.098 E38.44331
G1 X124.87 Y66.83 E38.49226
G1 X124.648 Y66.306 E38.51118
G1 X124.396 Y64.629 E38.56759
G1 X124.35 Y59.307 E38.7446
G1 X124.769 Y57.576 E38.80384
G1 X125.46 Y56.247 E38.85366
G1 X125.574 Y54.553 E38.91013
G1 X125.933 Y53.332 E38.95246
G1 X125.942 Y52.985 E38.96401
G1 X126.89 Y49.773 E39.07539
M204 S2000
G0 F7500 X127.264 Y49.921
M204 S500
G1 F1500 X128.067 Y48.376 E39.13331
G1 X130.51 Y45.792 E39.25158
G1 X132.109 Y44.663 E39.31668
G1 X135.747 Y43.648 E39.44231
G1 X137.738 Y43.502 E39.5087
G1 X141.389 Y44.524 E39.63481
G1 X143.165 Y45.447 E39.70138
G1 X145.703 Y48.133 E39.82429
G1 X146.642 Y49.609 E39.88247
G1 X147.609 Y52.906 E39.99675
G1 X147.636 Y53.136 E40.00445
G1 X154.01 Y53.136 E40.21645
G1 X155.714 Y53.555 E40.27481
G1 X157.537 Y54.501 E40.34312
G1 X158.847 Y55.903 E40.40694
G1 X159.493 Y56.986 E40.44889
G1 X169.01 Y56.986 E40.76542
G1 X170.714 Y57.405 E40.82379
G1 X172.537 Y58.351 E40.8921
G1 X173.841 Y59.747 E40.95563
G1 X174.927 Y61.567 E41.02612
G1 X175.185 Y63.137 E41.07904
G1 X175.25 Y73.038 E41.40836
G1 X174.83 Y74.751 E41.46702
G1 X173.885 Y76.573 E41.53529
G1 X172.489 Y77.877 E41.59882
G1 X170.669 Y78.963 E41.66932
G1 X169.099 Y79.221 E41.72223
G1 X159.481 Y79.277 E42.04214
G1 X159.084 Y80.04 E42.07074
G1 X159.492 Y80.721 E42.09715
G1 X169.01 Y80.721 E42.41372
G1 X170.714 Y81.14 E42.47208
G1 X172.537 Y82.086 E42.54039
G1 X173.841 Y83.482 E42.60393
G1 X174.927 Y85.302 E42.67442
G1 X175.185 Y86.872 E42.72734
G1 X175.25 Y96.773 E43.05665
G1 X174.83 Y98.486 E43.11532
G1 X173.885 Y100.308 E43.18358
G1 X172.489 Y101.612 E43.24712
G1 X170.669 Y102.698 E43.31761
G1 X169.099 Y102.956 E43.37053
G1 X159.481 Y103.012 E43.69043
G1 X158.885 Y104.158 E43.73339
G1 X157.486 Y105.465 E43.79707
G1 X155.735 Y106.509 E43.86487
