;FLAVOR:Marlin
;TIME:1070
;Filament used: 0.490577m
;Layer height: 0.2
;MINX:133
;MINY:108.42
;MINZ:0.2
;MAXX:167
;MAXY:158.42
;MAXZ:13.4
;Generated with Cura_SteamEngine 5.4.0
M82 ;absolute extrusion mode
; Ender 3 S1 Plus Start G-code
; M413 S0 ; Disable power loss recovery
G92 E0 ; Reset Extruder

; Prep surfaces before auto home for better accuracy
M140 S60
M104 S200

G28 O ; Home all untrusted axes
G1 Z10.0 F3000 ; Move Z Axis up little to prevent scratching of Heat Bed
G1 X0 Y0

M190 S60
M109 S200

G1 X0.1 Y20 Z0.3 F5000.0 ; Move to start position
G1 X0.1 Y200.0 Z0.3 F1500.0 E15 ; Draw the first line
G1 X0.4 Y200.0 Z0.3 F5000.0 ; Move to side a little
G1 X0.4 Y20 Z0.3 F1500.0 E30 ; Draw the second line
G92 E0 ; Reset Extruder
G1 Z2.0 F3000 ; Move Z Axis up little to prevent scratching of Heat Bed
G1 X5 Y20 Z0.3 F5000.0 ; Move over to prevent blob squish

G92 E0
G92 E0
G1 F2400 E-0.8
;LAYER_COUNT:67
;LAYER:0
M107
M204 S2000
G0 F7500 X135.731 Y112.185 Z0.2
M204 S500
;TYPE:SKIRT
G1 F2400 E0
G1 F1500 X136.456 Y111.433 E0.03474
G1 X137.192 Y110.796 E0.06712
G1 X137.924 Y110.266 E0.09718
G1 X138.821 Y109.731 E0.13191
G1 X139.699 Y109.31 E0.1643
G1 X140.612 Y108.968 E0.19673
G1 X141.549 Y108.709 E0.22906
G1 X142.516 Y108.531 E0.26176
G1 X143.655 Y108.435 E0.29978
G1 X144.312 Y108.42 E0.32164
G1 X155.304 Y108.42 E0.68723
G1 X156.184 Y108.433 E0.71651
G1 X157.156 Y108.492 E0.74889
G1 X158.119 Y108.638 E0.78129
G1 X159.066 Y108.869 E0.81371
G1 X159.954 Y109.169 E0.84489
G1 X160.846 Y109.559 E0.87726
G1 X161.729 Y110.046 E0.9108
G1 X162.48 Y110.548 E0.94085
G1 X163.295 Y111.206 E0.97569
G1 X163.993 Y111.884 E1.00805
G1 X164.629 Y112.621 E1.04043
G1 X165.199 Y113.411 E1.07283
G1 X165.661 Y114.187 E1.10287
G1 X166.115 Y115.129 E1.13765
G1 X166.444 Y116.007 E1.16883
G1 X166.713 Y116.979 E1.20238
G1 X166.89 Y117.945 E1.23504
G1 X166.985 Y119.075 E1.27276
G1 X167 Y119.75 E1.29522
G1 X166.999 Y146.82 E2.19557
G1 X166.988 Y147.583 E2.22095
G1 X166.931 Y148.556 E2.25337
G1 X166.786 Y149.519 E2.28576
G1 X166.557 Y150.465 E2.31813
G1 X166.246 Y151.389 E2.35056
G1 X165.854 Y152.28 E2.38293
G1 X165.386 Y153.132 E2.41526
G1 X164.864 Y153.913 E2.44651
G1 X164.231 Y154.698 E2.48005
G1 X163.606 Y155.349 E2.51006
G1 X162.817 Y156.037 E2.54488
G1 X162.057 Y156.587 E2.57608
G1 X161.19 Y157.104 E2.60966
G1 X160.312 Y157.526 E2.64206
G1 X159.401 Y157.868 E2.67442
G1 X158.462 Y158.129 E2.70684
G1 X157.496 Y158.307 E2.73951
G1 X156.345 Y158.405 E2.77793
G1 X155.67 Y158.42 E2.80038
G1 X144.564 Y158.419 E3.16977
G1 X143.831 Y158.408 E3.19415
G1 X142.859 Y158.351 E3.22654
G1 X141.896 Y158.205 E3.25893
G1 X140.95 Y157.976 E3.29131
G1 X140.026 Y157.664 E3.32374
G1 X139.136 Y157.272 E3.35609
G1 X138.313 Y156.821 E3.3873
G1 X137.474 Y156.26 E3.42087
G1 X136.77 Y155.694 E3.45092
G1 X136.017 Y154.969 E3.48568
G1 X135.38 Y154.233 E3.51806
G1 X134.85 Y153.502 E3.54809
G1 X134.314 Y152.605 E3.58284
G1 X133.892 Y151.727 E3.61524
G1 X133.55 Y150.815 E3.64764
G1 X133.29 Y149.877 E3.68001
G1 X133.112 Y148.908 E3.71278
G1 X133.014 Y147.729 E3.75213
G1 X133 Y147.078 E3.77379
G1 X133.001 Y119.945 E4.67624
G1 X133.012 Y119.245 E4.69952
G1 X133.07 Y118.272 E4.73194
G1 X133.216 Y117.309 E4.76434
G1 X133.446 Y116.363 E4.79672
G1 X133.759 Y115.44 E4.82913
G1 X134.151 Y114.55 E4.86148
G1 X134.621 Y113.697 E4.89387
G1 X135.164 Y112.889 E4.92625
G1 X135.731 Y112.185 E4.95632
M204 S2000
G0 F7500 X136.043 Y112.436
M204 S500
G1 F1500 X136.718 Y111.735 E4.98868
G1 X137.427 Y111.12 E5.0199
G1 X138.159 Y110.59 E5.04996
G1 X138.995 Y110.091 E5.08234
G1 X139.84 Y109.684 E5.11353
G1 X140.719 Y109.353 E5.14477
G1 X141.622 Y109.102 E5.17595
G1 X142.55 Y108.93 E5.20734
G1 X143.689 Y108.834 E5.24536
G1 X144.321 Y108.82 E5.26638
G1 X155.298 Y108.82 E5.63148
G1 X156.16 Y108.832 E5.66015
G1 X157.097 Y108.888 E5.69137
G1 X158.025 Y109.027 E5.72258
G1 X158.938 Y109.248 E5.75382
G1 X159.794 Y109.536 E5.78386
G1 X160.686 Y109.926 E5.81624
G1 X161.507 Y110.379 E5.84743
G1 X162.258 Y110.881 E5.87748
G1 X163.017 Y111.493 E5.9099
G1 X163.691 Y112.146 E5.94112
G1 X164.305 Y112.855 E5.97231
G1 X164.855 Y113.616 E6.00354
G1 X165.317 Y114.392 E6.03358
G1 X165.74 Y115.269 E6.06596
G1 X166.069 Y116.147 E6.09715
G1 X166.32 Y117.052 E6.12839
G1 X166.491 Y117.979 E6.15974
G1 X166.586 Y119.109 E6.19745
G1 X166.6 Y119.75 E6.21878
G1 X166.599 Y146.815 E7.11897
G1 X166.589 Y147.56 E7.14375
G1 X166.535 Y148.497 E7.17496
G1 X166.397 Y149.426 E7.2062
G1 X166.178 Y150.338 E7.2374
G1 X165.88 Y151.228 E7.26861
G1 X165.503 Y152.088 E7.29984
G1 X165.053 Y152.91 E7.33101
G1 X164.531 Y153.691 E7.36226
G1 X163.942 Y154.421 E7.39345
G1 X163.317 Y155.072 E7.42347
G1 X162.582 Y155.713 E7.45591
G1 X161.822 Y156.263 E7.48711
G1 X161.016 Y156.744 E7.51833
G1 X160.171 Y157.152 E7.54954
G1 X159.293 Y157.483 E7.58075
G1 X158.389 Y157.736 E7.61197
G1 X157.462 Y157.908 E7.64333
G1 X156.311 Y158.006 E7.68175
G1 X155.67 Y158.02 E7.70307
G1 X144.57 Y158.019 E8.07226
G1 X143.854 Y158.009 E8.09608
G1 X142.918 Y157.955 E8.12726
G1 X141.989 Y157.816 E8.1585
G1 X141.077 Y157.597 E8.1897
G1 X140.187 Y157.298 E8.22093
G1 X139.328 Y156.921 E8.25213
G1 X138.505 Y156.47 E8.28334
G1 X137.725 Y155.948 E8.31456
G1 X137.021 Y155.382 E8.3446
G1 X136.319 Y154.707 E8.37699
G1 X135.704 Y153.998 E8.40821
G1 X135.174 Y153.267 E8.43824
G1 X134.674 Y152.431 E8.47064
G1 X134.266 Y151.586 E8.50185
G1 X133.935 Y150.708 E8.53306
G1 X133.683 Y149.804 E8.56427
G1 X133.511 Y148.875 E8.59569
G1 X133.413 Y147.696 E8.63504
G1 X133.4 Y147.078 E8.6556
G1 X133.401 Y119.951 E9.55785
G1 X133.411 Y119.268 E9.58057
G1 X133.466 Y118.331 E9.61179
G1 X133.605 Y117.403 E9.643
G1 X133.825 Y116.491 E9.6742
G1 X134.125 Y115.601 E9.70544
G1 X134.502 Y114.742 E9.73664
G1 X134.953 Y113.92 E9.76782
G1 X135.476 Y113.14 E9.79906
G1 X136.043 Y112.436 E9.82912
M204 S2000
G0 F7500 X136.355 Y112.687
M204 S500
G1 F1500 X136.981 Y112.037 E9.85914
G1 X137.662 Y111.444 E9.88917
G1 X138.394 Y110.914 E9.91923
G1 X139.169 Y110.451 E9.94926
G1 X139.982 Y110.058 E9.97929
G1 X140.827 Y109.738 E10.00934
G1 X141.696 Y109.495 E10.03936
G1 X142.584 Y109.329 E10.0694
G1 X143.723 Y109.233 E10.10742
G1 X144.33 Y109.22 E10.12761
G1 X155.293 Y109.22 E10.49225
G1 X156.137 Y109.231 E10.52032
G1 X157.039 Y109.284 E10.55037
G1 X157.932 Y109.416 E10.5804
G1 X158.81 Y109.627 E10.61043
G1 X159.666 Y109.915 E10.64047
G1 X160.493 Y110.277 E10.67049
G1 X161.285 Y110.712 E10.70055
G1 X162.036 Y111.214 E10.73059
G1 X162.739 Y111.781 E10.76063
G1 X163.389 Y112.408 E10.79067
G1 X163.981 Y113.09 E10.82071
G1 X164.511 Y113.821 E10.85074
G1 X164.973 Y114.597 E10.88078
G1 X165.366 Y115.41 E10.91081
G1 X165.684 Y116.255 E10.94084
G1 X165.927 Y117.125 E10.97088
G1 X166.092 Y118.013 E11.00092
G1 X166.187 Y119.143 E11.03864
G1 X166.2 Y119.75 E11.05883
G1 X166.199 Y146.81 E11.95885
G1 X166.19 Y147.537 E11.98303
G1 X166.139 Y148.439 E12.01308
G1 X166.008 Y149.333 E12.04314
G1 X165.799 Y150.211 E12.07315
G1 X165.513 Y151.068 E12.1032
G1 X165.152 Y151.896 E12.13325
G1 X164.72 Y152.688 E12.16325
G1 X164.219 Y153.44 E12.19331
G1 X163.653 Y154.144 E12.22335
G1 X163.028 Y154.795 E12.25337
G1 X162.347 Y155.389 E12.28342
G1 X161.616 Y155.92 E12.31347
G1 X160.842 Y156.384 E12.34349
G1 X160.029 Y156.778 E12.37354
G1 X159.185 Y157.098 E12.40356
G1 X158.315 Y157.343 E12.43362
G1 X157.428 Y157.509 E12.46363
G1 X156.277 Y157.607 E12.50205
G1 X155.67 Y157.62 E12.52225
G1 X144.575 Y157.619 E12.89127
G1 X143.877 Y157.61 E12.91449
G1 X142.976 Y157.559 E12.9445
G1 X142.082 Y157.427 E12.97456
G1 X141.204 Y157.218 E13.00458
G1 X140.347 Y156.931 E13.03464
G1 X139.52 Y156.57 E13.06465
G1 X138.727 Y156.137 E13.0947
G1 X137.976 Y155.636 E13.12473
G1 X137.272 Y155.07 E13.15477
G1 X136.621 Y154.444 E13.18481
G1 X136.028 Y153.763 E13.21484
G1 X135.498 Y153.032 E13.24488
G1 X135.034 Y152.257 E13.27492
G1 X134.64 Y151.444 E13.30497
G1 X134.32 Y150.6 E13.33499
G1 X134.076 Y149.73 E13.36504
G1 X133.91 Y148.842 E13.39509
G1 X133.813 Y147.687 E13.43364
G1 X133.8 Y147.078 E13.4539
G1 X133.801 Y119.956 E14.35598
G1 X133.81 Y119.291 E14.3781
G1 X133.862 Y118.389 E14.40815
G1 X133.994 Y117.496 E14.43817
G1 X134.204 Y116.618 E14.4682
G1 X134.491 Y115.761 E14.49826
G1 X134.853 Y114.934 E14.52829
G1 X135.286 Y114.142 E14.55831
G1 X135.788 Y113.391 E14.58835
G1 X136.355 Y112.687 E14.61842
M204 S2000
G1 F2400 E13.81842
;MESH:Y Axis Rod Holder.stl
G0 F7500 X148.287 Y121.849
G0 X150 Y125.452
M204 S500
;TYPE:WALL-INNER
G1 F2400 E14.61842
G1 F1500 X149.196 Y125.293 E14.64568
G1 X148.607 Y124.902 E14.66919
G1 X148.439 Y124.734 E14.67709
G1 X148.115 Y124.247 E14.69655
G1 X148.026 Y124.032 E14.70429
G1 X147.909 Y123.445 E14.7242
G1 X147.912 Y123.224 E14.73155
G1 X148.049 Y122.533 E14.75498
G1 X148.439 Y121.947 E14.77839
G1 X148.607 Y121.78 E14.78627
G1 X149.095 Y121.455 E14.80577
G1 X149.309 Y121.367 E14.81346
G1 X149.896 Y121.25 E14.83337
G1 X150.118 Y121.253 E14.84076
G1 X150.691 Y121.367 E14.86019
G1 X150.905 Y121.455 E14.86788
G1 X151.393 Y121.78 E14.88739
G1 X151.561 Y121.947 E14.89526
G1 X151.951 Y122.534 E14.9187
G1 X152.111 Y123.344 E14.94617
G1 X151.974 Y124.032 E14.9695
G1 X151.885 Y124.246 E14.97721
G1 X151.561 Y124.734 E14.99669
G1 X151.393 Y124.902 E15.00459
G1 X150.804 Y125.293 E15.0281
G1 X150 Y125.452 E15.05536
M204 S2000
G1 F2400 E14.25536
G0 F7500 X150.001 Y141.203
G0 X150.104 Y145.589
M204 S500
G1 F2400 E15.05536
G1 F1500 X149.882 Y145.586 E15.06275
G1 X149.309 Y145.472 E15.08218
G1 X149.094 Y145.383 E15.08992
G1 X148.607 Y145.059 E15.10937
G1 X148.439 Y144.891 E15.11728
G1 X148.049 Y144.306 E15.14066
G1 X147.909 Y143.602 E15.16453
G1 X147.912 Y143.381 E15.17189
G1 X148.026 Y142.807 E15.19135
G1 X148.115 Y142.592 E15.19909
G1 X148.439 Y142.105 E15.21854
G1 X148.607 Y141.937 E15.22645
G1 X149.196 Y141.546 E15.24996
G1 X150 Y141.387 E15.27722
G1 X150.804 Y141.546 E15.30448
G1 X151.393 Y141.937 E15.32799
G1 X151.561 Y142.105 E15.33589
G1 X151.885 Y142.593 E15.35538
G1 X151.974 Y142.807 E15.36309
G1 X152.111 Y143.501 E15.38661
G1 X151.951 Y144.306 E15.41391
G1 X151.561 Y144.891 E15.4373
G1 X151.393 Y145.059 E15.4452
G1 X150.906 Y145.383 E15.46465
G1 X150.691 Y145.472 E15.47239
G1 X150.104 Y145.589 E15.4923
M204 S2000
G1 F2400 E14.6923
G0 F7500 X151.007 Y145.533
G0 X151.007 Y146.62
G0 X155.4 Y146.82
M204 S500
G1 F2400 E15.4923
G1 F1500 X155.4 Y120.02 E16.38367
G1 X144.6 Y120.02 E16.74288
G1 X144.6 Y146.82 E17.63425
G1 X155.4 Y146.82 E17.99346
M204 S2000
G0 F7500 X155.8 Y147.22
M204 S500
;TYPE:WALL-OUTER
G1 F1500 X155.8 Y119.62 E18.91144
G1 X144.2 Y119.62 E19.29726
G1 X144.2 Y147.22 E20.21524
G1 X155.8 Y147.22 E20.60106
M204 S2000
G1 F2400 E19.80106
G0 F7500 X155.53 Y146.95
G0 X149.942 Y146.62
G0 X150 Y145.794
G0 X150 Y145.202
M204 S500
G1 F2400 E20.60106
G1 F1500 X149.35 Y145.073 E20.6231
G1 X148.794 Y144.703 E20.64531
G1 X148.431 Y144.15 E20.66731
G1 X148.296 Y143.499 E20.68943
G1 X148.425 Y142.848 E20.7115
G1 X148.794 Y142.292 E20.73369
G1 X149.35 Y141.923 E20.75589
G1 X150.001 Y141.794 E20.77796
G1 X150.647 Y141.927 E20.7999
G1 X151.205 Y142.292 E20.82208
G1 X151.575 Y142.849 E20.84432
G1 X151.7 Y143.498 E20.8663
G1 X151.575 Y144.147 E20.88828
G1 X151.206 Y144.704 E20.9105
G1 X150.65 Y145.073 E20.9327
G1 X150 Y145.202 E20.95474
M204 S2000
G1 F2400 E20.15474
G0 F7500 X149.942 Y145.496
G0 X149.255 Y145.297
G0 X148.623 Y144.875
G0 X148.201 Y144.243
G0 X148.052 Y143.498
G0 X148.201 Y142.753
G0 X148.58 Y142.185
G0 X150.001 Y141.203
G0 X149.999 Y125.636
G0 X149.999 Y125.045
M204 S500
G1 F2400 E20.95474
G1 F1500 X149.353 Y124.912 E20.97668
G1 X148.795 Y124.547 E20.99885
G1 X148.425 Y123.991 E21.02107
G1 X148.296 Y123.342 E21.04307
G1 X148.425 Y122.691 E21.06515
G1 X148.794 Y122.135 E21.08734
G1 X149.35 Y121.766 E21.10954
G1 X150 Y121.637 E21.13158
G1 X150.65 Y121.766 E21.15362
G1 X151.206 Y122.136 E21.17583
G1 X151.569 Y122.689 E21.19783
G1 X151.7 Y123.341 E21.21995
G1 X151.575 Y123.99 E21.24193
G1 X151.206 Y124.547 E21.26416
G1 X150.65 Y124.916 E21.28635
G1 X149.999 Y125.045 E21.30842
M204 S2000
G1 F2400 E20.50842
G0 F7500 X149.941 Y125.339
G0 X150.876 Y125.463
G0 X155.2 Y125.463
G0 X155.04 Y146.46
M204 S500
;TYPE:SKIN
G1 F2400 E21.30842
G1 F1500 X150.817 Y146.46 E21.44888
G1 F1415.1 X149.914 Y146.436 E21.48073
G1 X149.183 Y146.46 E21.50652
G1 F1500 X144.96 Y146.46 E21.64697
G1 X144.96 Y120.38 E22.5144
G1 X149.183 Y120.381 E22.65485
G1 F1395.3 X149.777 Y120.411 E22.67612
G1 F1301.5 X150.241 Y120.412 E22.69391
G1 F1392.1 X150.817 Y120.381 E22.71458
G1 F1500 X155.04 Y120.38 E22.85504
G1 X155.04 Y146.46 E23.72246
M204 S2000
G1 F2400 E22.92246
G0 F7500 X155.3 Y146.46
G0 X149.959 Y146.62
G0 X150 Y145.794
G0 X150 Y146.002
M204 S500
G1 F2400 E23.72246
G1 F1459.9 X150.795 Y145.816 E23.75036
G1 F1500 X151.112 Y145.68 E23.76184
G1 X151.591 Y145.361 E23.78098
G1 X151.838 Y145.12 E23.79246
G1 X152.285 Y144.447 E23.81933
G1 X152.476 Y143.505 E23.8513
G1 X152.329 Y142.742 E23.87714
G1 X152.199 Y142.42 E23.88869
G1 X151.863 Y141.907 E23.90909
G1 X151.624 Y141.662 E23.92047
G1 X150.942 Y141.209 E23.9477
G1 X150.002 Y141.02 E23.97959
G1 X149.055 Y141.205 E24.01168
G1 X148.407 Y141.637 E24.03759
G1 X148.162 Y141.876 E24.04897
G1 X147.819 Y142.386 E24.06941
G1 X147.682 Y142.703 E24.0809
G1 X147.559 Y143.306 E24.10137
G1 X147.554 Y143.665 E24.11331
G1 X147.717 Y144.448 E24.13991
G1 X148.137 Y145.089 E24.1654
G1 X148.378 Y145.336 E24.17688
G1 X148.888 Y145.679 E24.19732
G1 X149.205 Y145.816 E24.2088
G1 F1459.9 X150 Y146.002 E24.23671
M204 S2000
G1 F2400 E23.43671
G0 F7500 X150 Y145.714
G0 X148.623 Y144.875
G0 X148.201 Y144.243
G0 X148.052 Y143.498
G0 X148.201 Y142.753
G0 X148.58 Y142.185
G0 X150.001 Y141.203
G0 X149.999 Y125.636
G0 X149.998 Y125.819
M204 S500
G1 F2400 E24.23671
G1 F1500 X150.945 Y125.634 E24.2688
G1 X151.593 Y125.202 E24.2947
G1 X151.838 Y124.963 E24.30609
G1 X152.181 Y124.453 E24.32653
G1 X152.329 Y124.099 E24.33929
G1 X152.479 Y123.346 E24.36483
G1 X152.285 Y122.391 E24.39724
G1 X151.863 Y121.75 E24.42277
G1 X151.622 Y121.503 E24.43424
G1 X151.112 Y121.16 E24.45469
G1 X150.795 Y121.023 E24.46617
G1 F1392.1 X150.197 Y120.87 E24.48829
G1 F1301.5 X149.826 Y120.866 E24.50251
G1 F1395.3 X149.205 Y121.023 E24.52542
G1 F1500 X148.921 Y121.142 E24.53566
G1 X148.409 Y121.478 E24.55603
G1 X148.162 Y121.719 E24.5675
G1 X147.717 Y122.391 E24.59431
G1 X147.559 Y123.148 E24.62003
G1 X147.554 Y123.51 E24.63207
G1 X147.67 Y124.097 E24.65198
G1 X147.801 Y124.42 E24.66357
G1 X148.137 Y124.932 E24.68394
G1 X148.376 Y125.177 E24.69532
G1 X149.058 Y125.63 E24.72255
G1 X149.998 Y125.819 E24.75444
M204 S2000
G1 F2400 E23.95444
G0 F7500 X149.999 Y125.556
G0 X151.377 Y124.718
G0 X151.756 Y124.15
G0 X152.121 Y122.464
G0 X155.2 Y122.464
G0 X154.839 Y120.898
M204 S500
G1 F2400 E24.75444
G1 F1500 X154.521 Y120.58 E24.7694
M204 S2000
G0 F7500 X153.956 Y120.58
M204 S500
G1 F1500 X154.839 Y121.463 E24.81093
M204 S2000
G0 F7500 X154.839 Y122.029
M204 S500
G1 F1500 X153.39 Y120.58 E24.87909
M204 S2000
G0 F7500 X152.824 Y120.58
M204 S500
G1 F1500 X154.839 Y122.595 E24.97387
M204 S2000
G0 F7500 X154.839 Y123.161
M204 S500
G1 F1500 X152.259 Y120.58 E25.09525
M204 S2000
G0 F7500 X151.693 Y120.58
M204 S500
G1 F1500 X154.839 Y123.726 E25.24323
M204 S2000
G0 F7500 X154.839 Y124.292
M204 S500
G1 F1500 X151.127 Y120.58 E25.41783
M204 S2000
G0 F7500 X150.795 Y120.814
M204 S500
G1 F1500 X150.587 Y120.606 E25.42761
M204 S2000
G0 F7500 X150.587 Y120.12
G0 X149.653 Y120.22
G0 X149.82 Y121.062
G0 X149.557 Y120.707
M204 S500
G1 F1500 X149.459 Y120.609 E25.43222
M204 S2000
G0 F7500 X149.123 Y120.838
M204 S500
G1 F1500 X148.865 Y120.58 E25.44436
M204 S2000
G0 F7500 X148.74 Y121.022
M204 S500
G1 F1500 X148.299 Y120.58 E25.46512
M204 S2000
G0 F7500 X147.733 Y120.58
M204 S500
G1 F1500 X148.398 Y121.245 E25.4964
M204 S2000
G0 F7500 X148.093 Y121.506
M204 S500
G1 F1500 X147.168 Y120.58 E25.53994
M204 S2000
G0 F7500 X146.602 Y120.58
M204 S500
G1 F1500 X147.848 Y121.826 E25.59854
M204 S2000
G0 F7500 X147.625 Y122.169
M204 S500
G1 F1500 X146.036 Y120.58 E25.67329
M204 S2000
G0 F7500 X145.47 Y120.58
