;FLAVOR:Marlin
;TIME:2367
;Filament used: 1.05333m
;Layer height: 0.2
;MINX:127.967
;MINY:129.441
;MINZ:0.2
;MAXX:171.661
;MAXY:170.892
;MAXZ:31.4
;Generated with Cura_SteamEngine 5.4.0
M82 ;absolute extrusion mode
; Ender 3 S1 Plus Start G-code
; M413 S0 ; Disable power loss recovery
G92 E0 ; Reset Extruder

; Prep surfaces before auto home for better accuracy
M140 S60
M104 S200

G28 O ; Home all untrusted axes
G1 Z10.0 F3000 ; Move Z Axis up little to prevent scratching of Heat Bed
G1 X0 Y0

M190 S60
M109 S200

G1 X0.1 Y20 Z0.3 F5000.0 ; Move to start position
G1 X0.1 Y200.0 Z0.3 F1500.0 E15 ; Draw the first line
G1 X0.4 Y200.0 Z0.3 F5000.0 ; Move to side a little
G1 X0.4 Y20 Z0.3 F1500.0 E30 ; Draw the second line
G92 E0 ; Reset Extruder
G1 Z2.0 F3000 ; Move Z Axis up little to prevent scratching of Heat Bed
G1 X5 Y20 Z0.3 F5000.0 ; Move over to prevent blob squish

G92 E0
G92 E0
G1 F2400 E-0.8
;LAYER_COUNT:157
;LAYER:0
M107
M204 S2000
G0 F7500 X132.6 Y141.757 Z0.2
M204 S500
;TYPE:SKIRT
G1 F2400 E0
G1 F1500 X134.39 Y140.497 E0.07281
G1 X138.273 Y139.414 E0.20688
G1 X139.102 Y139.352 E0.23453
G1 X139.876 Y136.68 E0.32706
G1 X140.761 Y134.984 E0.39069
G1 X143.61 Y131.992 E0.5281
G1 X145.393 Y130.772 E0.59995
G1 X149.336 Y129.605 E0.73672
G1 X151.611 Y129.441 E0.81259
G1 X155.547 Y130.487 E0.94804
G1 X157.622 Y131.529 E1.02527
G1 X160.535 Y134.625 E1.16666
G1 X161.553 Y136.265 E1.23086
G1 X162.39 Y139.288 E1.33519
G1 X164.718 Y139.944 E1.41563
G1 X166.633 Y140.943 E1.48747
G1 X169.384 Y143.83 E1.62011
G1 X170.428 Y145.476 E1.68494
G1 X171.478 Y149.07 E1.80947
G1 X171.661 Y151.302 E1.88396
G1 X170.531 Y155.313 E2.02256
G1 X169.568 Y157.137 E2.09116
G1 X166.851 Y159.854 E2.21896
G1 X165.044 Y161.017 E2.29043
G1 X161.861 Y161.897 E2.40027
G1 X161.398 Y163.586 E2.45852
G1 X160.404 Y165.477 E2.52957
G1 X157.514 Y168.413 E2.6666
G1 X155.74 Y169.582 E2.73726
G1 X151.736 Y170.73 E2.8758
G1 X149.405 Y170.892 E2.95351
G1 X145.183 Y169.635 E3.10003
G1 X143.442 Y168.692 E3.16588
G1 X140.451 Y165.636 E3.30811
G1 X139.328 Y163.874 E3.3776
G1 X138.969 Y162.61 E3.42131
G1 X138.688 Y162.605 E3.43065
G1 X134.893 Y161.493 E3.56218
G1 X133.077 Y160.514 E3.6308
G1 X130.32 Y157.757 E3.76048
G1 X129.182 Y155.985 E3.83053
G1 X128.13 Y152.396 E3.95492
G1 X127.967 Y150.036 E4.0336
G1 X129.082 Y146.237 E4.16529
G1 X129.968 Y144.537 E4.22905
G1 X132.6 Y141.757 E4.35638
M204 S2000
G0 F7500 X132.862 Y142.061
M204 S500
G1 F1500 X134.564 Y140.863 E4.4256
G1 X138.34 Y139.81 E4.55598
G1 X139.408 Y139.731 E4.5916
G1 X140.248 Y136.832 E4.69199
G1 X141.09 Y135.219 E4.75251
G1 X143.872 Y132.297 E4.8867
G1 X145.565 Y131.139 E4.95492
G1 X149.41 Y130.001 E5.08829
G1 X151.572 Y129.845 E5.16038
G1 X155.407 Y130.864 E5.29236
G1 X157.38 Y131.855 E5.3658
G1 X160.215 Y134.868 E5.5034
G1 X161.182 Y136.426 E5.56439
G1 X162.064 Y139.612 E5.67434
G1 X164.569 Y140.318 E5.7609
G1 X166.389 Y141.267 E5.82917
G1 X169.068 Y144.079 E5.95835
G1 X170.06 Y145.643 E6.01995
G1 X171.082 Y149.141 E6.14116
G1 X171.256 Y151.264 E6.212
G1 X170.158 Y155.162 E6.3467
G1 X169.242 Y156.897 E6.41195
G1 X166.596 Y159.543 E6.53641
G1 X164.882 Y160.646 E6.6042
G1 X161.535 Y161.571 E6.7197
G1 X161.023 Y163.44 E6.78415
G1 X160.078 Y165.238 E6.85171
G1 X157.258 Y168.103 E6.98542
G1 X155.57 Y169.215 E7.05265
G1 X151.669 Y170.334 E7.18763
G1 X149.449 Y170.488 E7.26164
G1 X145.341 Y169.265 E7.4042
G1 X143.685 Y168.368 E7.46684
G1 X140.764 Y165.384 E7.60573
G1 X139.698 Y163.71 E7.67173
G1 X139.265 Y162.189 E7.72433
G1 X138.8 Y162.221 E7.73984
G1 X135.046 Y161.121 E7.86994
G1 X133.319 Y160.19 E7.9352
G1 X130.634 Y157.505 E8.06149
G1 X129.55 Y155.817 E8.12822
G1 X128.526 Y152.324 E8.24928
G1 X128.371 Y150.081 E8.32406
G1 X129.455 Y146.387 E8.45211
G1 X130.298 Y144.769 E8.51279
G1 X132.862 Y142.061 E8.63682
M204 S2000
G0 F7500 X133.124 Y142.365
M204 S500
G1 F1500 X134.738 Y141.23 E8.70245
G1 X138.408 Y140.206 E8.82918
G1 X139.714 Y140.109 E8.87273
G1 X140.62 Y136.984 E8.98095
G1 X141.419 Y135.454 E9.03836
G1 X144.134 Y132.602 E9.16933
G1 X145.737 Y131.506 E9.23391
G1 X149.484 Y130.397 E9.36388
G1 X151.533 Y130.249 E9.43221
G1 X155.269 Y131.242 E9.56079
G1 X157.137 Y132.18 E9.63031
G1 X159.895 Y135.111 E9.76417
G1 X160.811 Y136.587 E9.82194
G1 X161.738 Y139.936 E9.93752
G1 X164.42 Y140.692 E10.0302
G1 X166.145 Y141.591 E10.0949
G1 X168.752 Y144.328 E10.22062
G1 X169.692 Y145.81 E10.27899
G1 X170.686 Y149.212 E10.39687
G1 X170.851 Y151.226 E10.46408
G1 X169.785 Y155.011 E10.59487
G1 X168.916 Y156.657 E10.65678
G1 X166.343 Y159.23 E10.7778
G1 X164.718 Y160.276 E10.84208
G1 X161.209 Y161.246 E10.96317
G1 X160.648 Y163.294 E11.03379
G1 X159.752 Y164.999 E11.09785
G1 X157.001 Y167.793 E11.22827
G1 X155.402 Y168.847 E11.29197
G1 X151.597 Y169.938 E11.42362
G1 X149.493 Y170.084 E11.49377
G1 X145.499 Y168.895 E11.63237
G1 X143.928 Y168.044 E11.6918
G1 X141.077 Y165.132 E11.82734
G1 X140.067 Y163.546 E11.88988
G1 X139.561 Y161.767 E11.9514
G1 X138.844 Y161.817 E11.9753
G1 X135.199 Y160.749 E12.10163
G1 X133.561 Y159.866 E12.16352
G1 X130.948 Y157.253 E12.28643
G1 X129.917 Y155.648 E12.34988
G1 X128.922 Y152.253 E12.46755
G1 X128.775 Y150.126 E12.53846
G1 X129.828 Y146.537 E12.66286
G1 X130.628 Y145.001 E12.72046
G1 X133.124 Y142.365 E12.8412
M204 S2000
G0 F7500 X133.386 Y142.669
M204 S500
G1 F1500 X134.912 Y141.596 E12.90325
G1 X138.475 Y140.602 E13.02628
G1 X140.02 Y140.488 E13.07781
G1 X140.992 Y137.137 E13.19386
G1 X141.748 Y135.689 E13.24819
G1 X144.396 Y132.907 E13.37593
G1 X145.909 Y131.873 E13.43688
G1 X149.558 Y130.793 E13.56345
G1 X151.494 Y130.653 E13.62801
G1 X155.129 Y131.619 E13.75311
G1 X156.895 Y132.506 E13.81884
G1 X159.575 Y135.354 E13.94891
G1 X160.44 Y136.748 E14.00347
G1 X161.412 Y140.26 E14.12468
G1 X164.27 Y141.065 E14.22343
G1 X165.901 Y141.915 E14.2846
G1 X168.436 Y144.577 E14.40687
G1 X169.324 Y145.977 E14.46201
G1 X170.29 Y149.283 E14.57656
G1 X170.446 Y151.188 E14.64014
G1 X169.412 Y154.86 E14.76702
G1 X168.59 Y156.417 E14.82558
G1 X166.088 Y158.919 E14.94326
G1 X164.553 Y159.907 E15.00398
G1 X161.161 Y160.849 E15.12107
G1 X160.895 Y160.877 E15.12996
G1 X160.273 Y163.148 E15.20828
G1 X159.426 Y164.76 E15.26884
G1 X156.745 Y167.483 E15.39594
G1 X155.232 Y168.48 E15.45621
G1 X151.53 Y169.542 E15.5843
G1 X149.537 Y169.68 E15.65075
G1 X145.657 Y168.525 E15.78539
G1 X144.171 Y167.72 E15.84161
G1 X141.39 Y164.88 E15.97381
G1 X140.436 Y163.382 E16.03288
G1 X139.857 Y161.346 E16.10328
G1 X138.888 Y161.413 E16.13559
G1 X135.352 Y160.377 E16.25814
G1 X133.803 Y159.542 E16.31667
G1 X131.262 Y157.001 E16.43619
G1 X130.285 Y155.48 E16.49632
G1 X129.318 Y152.181 E16.61066
G1 X129.179 Y150.171 E16.67767
G1 X130.201 Y146.687 E16.79843
G1 X130.958 Y145.233 E16.85295
G1 X133.386 Y142.669 E16.9704
M204 S2000
G0 F7500 X133.648 Y142.973
M204 S500
G1 F1500 X135.086 Y141.962 E17.02887
G1 X138.542 Y140.998 E17.1482
G1 X140.326 Y140.867 E17.2077
G1 X141.364 Y137.29 E17.33158
G1 X142.077 Y135.924 E17.38283
G1 X144.658 Y133.212 E17.50735
G1 X146.081 Y132.24 E17.56466
G1 X149.632 Y131.189 E17.68784
G1 X151.455 Y131.057 E17.74863
G1 X154.991 Y131.997 E17.87032
G1 X156.652 Y132.831 E17.93214
G1 X159.255 Y135.597 E18.05847
G1 X160.069 Y136.909 E18.10982
G1 X160.995 Y140.254 E18.22526
G1 X161.025 Y140.567 E18.23572
G1 X164.12 Y141.438 E18.34266
G1 X165.657 Y142.239 E18.4003
G1 X168.12 Y144.826 E18.51911
G1 X168.956 Y146.144 E18.57102
G1 X169.894 Y149.354 E18.68225
G1 X170.041 Y151.15 E18.74218
G1 X169.039 Y154.709 E18.86516
G1 X168.264 Y156.177 E18.92037
G1 X165.833 Y158.608 E19.03472
G1 X164.388 Y159.538 E19.09187
G1 X161.054 Y160.464 E19.20696
G1 X160.584 Y160.498 E19.22263
G1 X159.898 Y163.002 E19.30898
G1 X159.1 Y164.521 E19.36605
G1 X156.489 Y167.173 E19.48984
G1 X155.064 Y168.112 E19.5466
G1 X151.458 Y169.146 E19.67137
G1 X149.581 Y169.276 E19.73394
G1 X145.815 Y168.155 E19.86463
G1 X144.414 Y167.396 E19.91763
G1 X141.703 Y164.628 E20.04649
G1 X140.805 Y163.218 E20.10209
G1 X140.153 Y160.924 E20.18142
G1 X138.932 Y161.009 E20.22212
G1 X135.505 Y160.005 E20.3409
G1 X134.045 Y159.218 E20.39606
G1 X131.576 Y156.749 E20.5122
G1 X130.653 Y155.312 E20.569
G1 X129.714 Y152.109 E20.68002
G1 X129.583 Y150.216 E20.74313
G1 X130.574 Y146.837 E20.86025
G1 X131.288 Y145.465 E20.91169
G1 X133.648 Y142.973 E21.02585
M204 S2000
G0 F7500 X133.91 Y143.277
M204 S500
G1 F1500 X135.259 Y142.329 E21.08068
G1 X138.61 Y141.394 E21.1964
G1 X140.276 Y141.272 E21.25196
G1 X140.778 Y141.413 E21.2693
G1 X140.739 Y140.88 E21.28707
G1 X141.737 Y137.438 E21.40627
G1 X142.404 Y136.162 E21.45416
G1 X144.92 Y133.517 E21.57558
G1 X146.254 Y132.606 E21.6293
G1 X149.705 Y131.585 E21.749
G1 X151.416 Y131.461 E21.80606
G1 X154.851 Y132.374 E21.92428
G1 X156.41 Y133.157 E21.9823
G1 X158.935 Y135.84 E22.10484
G1 X159.698 Y137.07 E22.15298
G1 X160.609 Y140.361 E22.26656
G1 X160.646 Y140.876 E22.28373
G1 X163.97 Y141.811 E22.39858
G1 X165.413 Y142.563 E22.4527
G1 X167.804 Y145.075 E22.56805
G1 X168.588 Y146.311 E22.61673
G1 X169.498 Y149.425 E22.72463
G1 X169.636 Y151.112 E22.78093
G1 X168.666 Y154.558 E22.9
G1 X167.938 Y155.937 E22.95186
G1 X165.578 Y158.297 E23.06287
G1 X164.223 Y159.169 E23.11646
G1 X160.987 Y160.068 E23.22817
G1 X160.273 Y160.119 E23.25198
G1 X159.523 Y162.856 E23.34637
G1 X158.774 Y164.282 E23.39994
G1 X156.233 Y166.863 E23.5204
G1 X154.894 Y167.745 E23.57373
G1 X151.391 Y168.75 E23.69494
G1 X149.625 Y168.872 E23.75382
G1 X145.973 Y167.785 E23.88055
G1 X144.657 Y167.072 E23.93033
G1 X142.016 Y164.376 E24.05586
G1 X141.174 Y163.054 E24.10799
G1 X140.449 Y160.502 E24.19623
G1 X138.976 Y160.605 E24.24534
G1 X135.658 Y159.633 E24.36034
G1 X134.287 Y158.894 E24.41214
G1 X131.89 Y156.497 E24.52489
G1 X131.02 Y155.143 E24.57841
G1 X130.11 Y152.038 E24.68603
G1 X129.987 Y150.261 E24.74528
G1 X130.947 Y146.987 E24.85875
G1 X131.618 Y145.697 E24.90712
G1 X133.91 Y143.277 E25.01798
M204 S2000
G0 F7500 X134.172 Y143.581
M204 S500
G1 F1500 X135.433 Y142.695 E25.06924
G1 X138.677 Y141.79 E25.18125
G1 X140.236 Y141.676 E25.23324
G1 X141.219 Y141.952 E25.2672
G1 X141.143 Y140.921 E25.30159
G1 X142.109 Y137.591 E25.41691
G1 X142.733 Y136.397 E25.46172
G1 X145.184 Y133.82 E25.58001
G1 X146.425 Y132.973 E25.62998
G1 X149.778 Y131.981 E25.74628
G1 X151.377 Y131.865 E25.7996
G1 X154.713 Y132.752 E25.91441
G1 X156.167 Y133.482 E25.96852
G1 X158.615 Y136.083 E26.08732
G1 X159.329 Y137.234 E26.13237
G1 X160.213 Y140.427 E26.24257
G1 X160.274 Y141.279 E26.27098
G1 X160.604 Y141.279 E26.28195
G1 X163.82 Y142.184 E26.39307
G1 X165.169 Y142.887 E26.44367
G1 X167.488 Y145.324 E26.55556
G1 X168.22 Y146.478 E26.60101
G1 X169.102 Y149.496 E26.70559
G1 X169.231 Y151.074 E26.75825
G1 X168.293 Y154.407 E26.87341
G1 X167.612 Y155.697 E26.92193
G1 X165.323 Y157.986 E27.02959
G1 X164.058 Y158.8 E27.07963
G1 X160.921 Y159.672 E27.18792
G1 X159.962 Y159.74 E27.2199
G1 X159.148 Y162.71 E27.32232
G1 X158.448 Y164.043 E27.3724
G1 X155.977 Y166.553 E27.48955
G1 X154.726 Y167.377 E27.53937
G1 X151.319 Y168.354 E27.65725
G1 X149.669 Y168.468 E27.71226
G1 X146.131 Y167.415 E27.83504
G1 X144.9 Y166.748 E27.88161
G1 X142.329 Y164.124 E28.00379
G1 X141.543 Y162.89 E28.05245
G1 X140.745 Y160.08 E28.14961
G1 X139.02 Y160.201 E28.20713
G1 X135.811 Y159.261 E28.31834
G1 X134.529 Y158.57 E28.36678
G1 X132.204 Y156.245 E28.47614
G1 X131.388 Y154.975 E28.52635
G1 X130.506 Y151.966 E28.63064
G1 X130.391 Y150.306 E28.68598
G1 X131.32 Y147.137 E28.79582
G1 X131.948 Y145.929 E28.84111
G1 X134.172 Y143.581 E28.94867
M204 S2000
G0 F7500 X134.434 Y143.885
M204 S500
G1 F1500 X135.606 Y143.062 E28.9963
G1 X138.745 Y142.186 E29.1047
G1 X140.196 Y142.08 E29.15308
G1 X141.66 Y142.492 E29.20367
G1 X141.547 Y140.963 E29.25466
G1 X142.482 Y137.742 E29.36622
G1 X143.062 Y136.632 E29.40787
G1 X145.445 Y134.126 E29.52289
G1 X146.598 Y133.34 E29.5693
G1 X149.852 Y132.377 E29.68217
G1 X151.338 Y132.269 E29.73172
G1 X154.573 Y133.129 E29.84306
G1 X155.925 Y133.808 E29.89338
G1 X158.295 Y136.326 E30.00839
G1 X158.96 Y137.398 E30.05035
G1 X159.817 Y140.493 E30.15716
G1 X159.904 Y141.707 E30.19764
G1 X160.496 Y141.664 E30.21738
G1 X163.67 Y142.557 E30.32705
G1 X164.925 Y143.211 E30.37412
G1 X167.172 Y145.573 E30.48255
G1 X167.852 Y146.645 E30.52477
G1 X168.706 Y149.567 E30.62602
G1 X168.826 Y151.036 E30.67505
G1 X167.92 Y154.256 E30.7863
G1 X167.286 Y155.457 E30.83147
G1 X165.068 Y157.675 E30.9358
G1 X163.893 Y158.431 E30.98227
G1 X160.855 Y159.276 E31.08715
G1 X159.651 Y159.361 E31.1273
G1 X158.773 Y162.564 E31.23776
G1 X158.122 Y163.804 E31.28434
G1 X155.721 Y166.243 E31.39817
G1 X154.558 Y167.009 E31.44449
G1 X151.247 Y167.958 E31.55905
G1 X149.713 Y168.064 E31.61019
G1 X146.289 Y167.045 E31.72901
G1 X145.143 Y166.424 E31.77236
G1 X142.642 Y163.872 E31.89121
G1 X141.912 Y162.726 E31.9364
G1 X141.015 Y159.565 E32.04569
G1 X140.557 Y159.692 E32.06149
G1 X139.064 Y159.797 E32.11127
G1 X135.964 Y158.889 E32.21871
G1 X134.771 Y158.246 E32.26379
G1 X132.515 Y155.99 E32.3699
G1 X131.756 Y154.809 E32.4166
G1 X130.902 Y151.895 E32.51759
G1 X130.795 Y150.351 E32.56907
G1 X131.694 Y147.285 E32.67534
G1 X132.277 Y146.163 E32.71739
G1 X134.434 Y143.885 E32.82174
M204 S2000
G0 F7500 X134.696 Y144.189
M204 S500
G1 F1500 X135.779 Y143.429 E32.86574
G1 X138.813 Y142.582 E32.97051
G1 X140.156 Y142.484 E33.0153
G1 X142.241 Y143.071 E33.08734
G1 X142.05 Y142.416 E33.11003
G1 X141.951 Y141.005 E33.15708
G1 X142.855 Y137.893 E33.26486
G1 X143.391 Y136.867 E33.30337
G1 X145.706 Y134.432 E33.41511
G1 X146.772 Y133.706 E33.45801
G1 X149.925 Y132.773 E33.56738
G1 X151.299 Y132.673 E33.6132
G1 X154.435 Y133.507 E33.72112
G1 X155.682 Y134.133 E33.76753
G1 X157.975 Y136.569 E33.8788
G1 X158.591 Y137.562 E33.91767
G1 X159.421 Y140.559 E34.0211
G1 X159.513 Y141.853 E34.06425
G1 X159.455 Y142.141 E34.07402
G1 X160.456 Y142.068 E34.1074
G1 X163.52 Y142.93 E34.21327
G1 X164.681 Y143.535 E34.25681
G1 X166.856 Y145.822 E34.36178
G1 X167.484 Y146.812 E34.40078
G1 X168.31 Y149.638 E34.4987
G1 X168.421 Y150.998 E34.54409
G1 X167.547 Y154.105 E34.65144
G1 X166.96 Y155.217 E34.69326
G1 X164.813 Y157.364 E34.79425
G1 X163.728 Y158.062 E34.83716
G1 X160.789 Y158.88 E34.93862
G1 X159.34 Y158.982 E34.98694
G1 X158.398 Y162.418 E35.10544
G1 X157.796 Y163.565 E35.14852
G1 X155.465 Y165.933 E35.25904
G1 X154.39 Y166.641 E35.30185
G1 X151.175 Y167.562 E35.41308
G1 X149.757 Y167.66 E35.46036
G1 X146.447 Y166.675 E35.57522
G1 X145.386 Y166.1 E35.61536
G1 X142.955 Y163.62 E35.73086
G1 X142.281 Y162.562 E35.77259
G1 X141.337 Y159.236 E35.88758
G1 X141.322 Y159.065 E35.89329
G1 X140.491 Y159.296 E35.92197
G1 X139.108 Y159.393 E35.96809
G1 X136.117 Y158.517 E36.07175
G1 X135.013 Y157.922 E36.11346
G1 X132.826 Y155.735 E36.21633
G1 X132.124 Y154.643 E36.25951
G1 X131.298 Y151.824 E36.35721
G1 X131.199 Y150.396 E36.40482
G1 X132.068 Y147.433 E36.50752
G1 X132.606 Y146.397 E36.54635
G1 X134.696 Y144.189 E36.64747
M204 S2000
G0 F7500 X134.958 Y144.494
M204 S500
G1 F1500 X135.955 Y143.795 E36.68796
G1 X138.881 Y142.978 E36.78901
G1 X140.116 Y142.888 E36.83019
G1 X142.828 Y143.651 E36.92389
G1 X142.446 Y142.345 E36.96915
G1 X142.355 Y141.048 E37.0124
G1 X143.228 Y138.044 E37.11644
G1 X143.72 Y137.102 E37.15179
G1 X145.967 Y134.738 E37.26027
G1 X146.945 Y134.072 E37.29962
G1 X149.998 Y133.169 E37.40552
G1 X151.26 Y133.077 E37.4476
G1 X154.295 Y133.884 E37.55205
G1 X155.44 Y134.459 E37.59467
G1 X157.655 Y136.812 E37.70215
G1 X158.222 Y137.726 E37.73792
G1 X159.025 Y140.625 E37.83798
G1 X159.114 Y141.881 E37.87986
G1 X158.891 Y142.643 E37.90626
G1 X159.22 Y142.559 E37.91756
G1 X160.416 Y142.472 E37.95744
G1 X163.37 Y143.303 E38.0595
G1 X164.437 Y143.859 E38.09952
G1 X166.54 Y146.071 E38.20104
G1 X167.116 Y146.979 E38.2368
G1 X167.914 Y149.709 E38.3314
G1 X168.016 Y150.96 E38.37315
G1 X167.174 Y153.954 E38.47659
G1 X166.634 Y154.977 E38.51507
G1 X164.558 Y157.053 E38.61271
G1 X163.563 Y157.693 E38.65206
G1 X160.723 Y158.484 E38.75012
G1 X159.451 Y158.573 E38.79253
G1 X158.909 Y158.414 E38.81131
G1 X158.949 Y158.894 E38.82733
