;FLAVOR:Marlin
;TIME:13787
;Filament used: 8.03961m
;Layer height: 0.2
;MINX:104.084
;MINY:80.01
;MINZ:0.2
;MAXX:196.98
;MAXY:231.233
;MAXZ:49.2
;Generated with Cura_SteamEngine 5.4.0
M82 ;absolute extrusion mode
; Ender 3 S1 Plus Start G-code
; M413 S0 ; Disable power loss recovery
G92 E0 ; Reset Extruder

; Prep surfaces before auto home for better accuracy
M140 S60
M104 S200

G28 O ; Home all untrusted axes
G1 Z10.0 F3000 ; Move Z Axis up little to prevent scratching of Heat Bed
G1 X0 Y0

M190 S60
M109 S200

G1 X0.1 Y20 Z0.3 F5000.0 ; Move to start position
G1 X0.1 Y200.0 Z0.3 F1500.0 E15 ; Draw the first line
G1 X0.4 Y200.0 Z0.3 F5000.0 ; Move to side a little
G1 X0.4 Y20 Z0.3 F1500.0 E30 ; Draw the second line
G92 E0 ; Reset Extruder
G1 Z2.0 F3000 ; Move Z Axis up little to prevent scratching of Heat Bed
G1 X5 Y20 Z0.3 F5000.0 ; Move over to prevent blob squish

G92 E0
G92 E0
G1 F2400 E-0.8
;LAYER_COUNT:246
;LAYER:0
M107
M204 S2000
G0 F7500 X120.41 Y89.015 Z0.2
M204 S500
;TYPE:SKIRT
G1 F2400 E0
G1 F1500 X127.866 Y81.559 E0.35071
G1 X130.251 Y80.271 E0.44086
G1 X131.978 Y80.049 E0.49877
G1 X141.789 Y80.01 E0.82509
G1 X143.602 Y80.452 E0.88716
G1 X145.709 Y81.54 E0.96603
G1 X147.113 Y83.06 E1.03485
G1 X148.249 Y84.964 E1.10859
G1 X148.704 Y87.083 E1.18068
G1 X148.716 Y89.429 E1.25871
G1 X148.667 Y92.927 E1.37506
G1 X148.671 Y127.215 E2.51549
G1 X150.584 Y127.075 E2.57928
G1 X153.011 Y127.755 E2.66311
G1 X152.948 Y127.482 E2.67243
G1 X152.948 Y124.266 E2.7794
G1 X153.678 Y121.775 E2.86573
G1 X154.583 Y120.029 E2.93114
G1 X156.794 Y117.69 E3.03819
G1 X158.648 Y116.448 E3.11242
G1 X161.87 Y115.549 E3.22367
G1 X164.071 Y115.387 E3.29708
G1 X167.507 Y116.348 E3.41574
G1 X169.178 Y117.297 E3.47966
G1 X170.183 Y118.169 E3.52391
G1 X171.277 Y119.686 E3.58612
G1 X171.843 Y120.705 E3.62489
G1 X172.23 Y122.258 E3.67812
G1 X173.356 Y121.068 E3.73261
G1 X175.299 Y119.9 E3.80802
G1 X180.586 Y118.418 E3.99064
G1 X182.793 Y118.256 E4.06424
G1 X188.419 Y119.831 E4.25856
G1 X190.387 Y120.854 E4.33233
G1 X194.356 Y125.055 E4.52455
G1 X195.369 Y126.647 E4.58731
G1 X196.978 Y132.137 E4.77759
G1 X196.98 Y134.487 E4.85575
G1 X195.482 Y139.851 E5.04099
G1 X194.519 Y141.675 E5.10959
G1 X190.552 Y145.642 E5.29619
G1 X188.789 Y146.775 E5.36589
G1 X183.351 Y148.291 E5.55365
G1 X181.08 Y148.452 E5.62938
G1 X175.622 Y146.859 E5.81848
G1 X174.893 Y146.467 E5.84601
G1 X172.594 Y148.766 E5.95415
G1 X170.793 Y149.925 E6.02539
G1 X167.12 Y150.944 E6.15216
G1 X164.857 Y151.105 E6.22762
G1 X162.086 Y150.294 E6.32365
G1 X158.264 Y154.167 E6.50463
G1 X156.451 Y155.349 E6.57661
G1 X151.186 Y156.843 E6.75864
G1 X148.846 Y157.005 E6.83666
G1 X146.17 Y156.213 E6.92948
G1 X147.113 Y157.233 E6.97568
G1 X148.249 Y159.137 E7.04942
G1 X148.704 Y161.256 E7.12151
G1 X148.716 Y163.603 E7.19957
G1 X148.666 Y167.101 E7.31593
G1 X148.67 Y201.27 E8.45239
G1 X150.959 Y201.102 E8.52873
G1 X152.948 Y201.659 E8.59743
G1 X152.948 Y198.439 E8.70453
G1 X153.678 Y195.948 E8.79086
G1 X154.583 Y194.202 E8.85627
G1 X156.794 Y191.863 E8.96332
G1 X158.648 Y190.621 E9.03754
G1 X161.87 Y189.722 E9.1488
G1 X164.071 Y189.56 E9.22221
G1 X167.507 Y190.521 E9.34087
G1 X169.178 Y191.47 E9.40479
G1 X170.183 Y192.342 E9.44904
G1 X171.277 Y193.859 E9.51125
G1 X171.843 Y194.878 E9.55002
G1 X171.982 Y195.436 E9.56915
G1 X173.117 Y194.238 E9.62403
G1 X175.055 Y193.074 E9.69923
G1 X180.05 Y191.673 E9.87177
G1 X182.271 Y191.511 E9.94584
G1 X187.655 Y192.998 E10.13162
G1 X189.596 Y193.982 E10.20399
G1 X193.423 Y197.96 E10.38759
G1 X194.458 Y199.583 E10.45161
G1 X196.098 Y205.088 E10.64266
G1 X195.936 Y207.41 E10.72008
G1 X194.585 Y212.161 E10.88437
G1 X193.57 Y214.043 E10.95548
G1 X189.818 Y217.733 E11.13051
G1 X188.012 Y218.873 E11.20155
G1 X182.834 Y220.297 E11.38016
G1 X180.501 Y220.439 E11.4579
G1 X175.888 Y219.095 E11.61771
G1 X175.272 Y220.262 E11.6616
G1 X172.594 Y222.94 E11.78757
G1 X170.793 Y224.099 E11.8588
G1 X167.12 Y225.118 E11.98558
G1 X164.854 Y225.279 E12.06114
G1 X162.527 Y224.597 E12.14179
G1 X158.712 Y228.465 E12.32248
G1 X156.899 Y229.647 E12.39447
G1 X151.309 Y231.233 E12.58773
G1 X148.886 Y231.232 E12.66832
G1 X143.811 Y229.728 E12.84437
G1 X142.179 Y228.846 E12.90607
G1 X141.627 Y229.198 E12.92785
G1 X136.482 Y230.601 E13.10522
G1 X134.187 Y230.743 E13.1817
G1 X129.056 Y229.252 E13.35941
G1 X127.175 Y228.241 E13.43044
G1 X123.396 Y224.462 E13.60819
G1 X122.284 Y222.726 E13.67676
G1 X121.349 Y219.517 E13.78793
G1 X119.642 Y219.993 E13.84687
G1 X117.359 Y220.154 E13.92299
G1 X112.303 Y218.674 E14.09821
G1 X110.487 Y217.695 E14.16683
G1 X106.76 Y213.968 E14.34214
G1 X105.656 Y212.244 E14.41023
G1 X104.247 Y207.437 E14.57684
G1 X104.084 Y205.096 E14.65489
G1 X105.553 Y200.081 E14.8287
G1 X106.441 Y198.37 E14.89281
G1 X110.122 Y194.48 E15.07094
G1 X112.05 Y193.322 E15.14574
G1 X116.872 Y191.971 E15.3123
G1 X118.858 Y191.825 E15.37853
G1 X118.912 Y167.127 E16.19999
G1 X119.141 Y165.548 E16.25306
G1 X120.41 Y163.189 E16.34215
G1 X127.866 Y155.732 E16.69288
G1 X130.251 Y154.444 E16.78304
G1 X131.978 Y154.222 E16.84095
G1 X141.413 Y154.184 E17.15476
G1 X137.86 Y150.579 E17.32311
G1 X136.028 Y151.086 E17.38633
G1 X133.776 Y151.247 E17.46143
G1 X132.969 Y151.011 E17.48939
G1 X130.293 Y153.687 E17.61526
G1 X128.513 Y154.831 E17.68564
G1 X123.267 Y156.295 E17.86679
G1 X120.936 Y156.294 E17.94432
G1 X116.062 Y154.896 E18.11296
G1 X114.311 Y153.959 E18.17902
G1 X110.519 Y150.232 E18.35586
G1 X109.391 Y148.537 E18.42358
G1 X107.939 Y143.646 E18.59327
G1 X107.776 Y141.329 E18.67052
G1 X109.279 Y136.274 E18.84593
G1 X110.192 Y134.554 E18.91069
G1 X113.914 Y130.684 E19.08928
G1 X115.869 Y129.525 E19.16487
G1 X118.851 Y128.731 E19.26751
G1 X118.912 Y92.953 E20.45749
G1 X119.141 Y91.374 E20.51056
G1 X120.41 Y89.015 E20.59965
M204 S2000
G0 F7500 X120.733 Y89.258
M204 S500
G1 F1500 X128.108 Y81.883 E20.94655
G1 X130.375 Y80.659 E21.03224
G1 X132.029 Y80.446 E21.08771
G1 X141.74 Y80.41 E21.4107
G1 X143.465 Y80.831 E21.46975
G1 X145.462 Y81.862 E21.5445
G1 X146.792 Y83.302 E21.6097
G1 X147.872 Y85.111 E21.67978
G1 X148.304 Y87.126 E21.74832
G1 X148.316 Y89.423 E21.82472
G1 X148.267 Y92.921 E21.94107
G1 X148.271 Y127.682 E23.09723
G1 X148.484 Y127.63 E23.10452
G1 X150.544 Y127.479 E23.17322
G1 X153.595 Y128.334 E23.27861
G1 X153.348 Y127.482 E23.30811
G1 X153.348 Y124.323 E23.41318
G1 X154.051 Y121.924 E23.49633
G1 X154.911 Y120.265 E23.55848
G1 X157.056 Y117.996 E23.66233
G1 X158.818 Y116.815 E23.73288
G1 X161.937 Y115.945 E23.84058
G1 X164.031 Y115.791 E23.91041
G1 X167.352 Y116.72 E24.02511
G1 X168.946 Y117.625 E24.08608
G1 X169.886 Y118.441 E24.12748
G1 X170.927 Y119.88 E24.18655
G1 X171.468 Y120.854 E24.22361
G1 X171.951 Y122.79 E24.28997
G1 X171.951 Y123.136 E24.30148
G1 X173.61 Y121.382 E24.38178
G1 X175.46 Y120.27 E24.45357
G1 X180.654 Y118.814 E24.63298
G1 X182.753 Y118.66 E24.70299
G1 X188.271 Y120.205 E24.89357
G1 X190.141 Y121.177 E24.96367
G1 X194.041 Y125.305 E25.15255
G1 X195 Y126.812 E25.21196
G1 X196.578 Y132.196 E25.39857
G1 X196.58 Y134.433 E25.47297
G1 X195.109 Y139.7 E25.65486
G1 X194.193 Y141.435 E25.72011
G1 X190.3 Y145.328 E25.90323
G1 X188.621 Y146.407 E25.96961
G1 X183.284 Y147.895 E26.15389
G1 X181.123 Y148.048 E26.22594
G1 X175.772 Y146.486 E26.41134
G1 X174.82 Y145.974 E26.4473
G1 X172.339 Y148.455 E26.564
G1 X170.628 Y149.556 E26.63167
G1 X167.054 Y150.548 E26.75503
G1 X164.9 Y150.701 E26.82686
G1 X161.884 Y149.818 E26.93138
G1 X161.719 Y150.096 E26.94213
G1 X158.008 Y153.857 E27.11787
G1 X156.285 Y154.98 E27.18627
G1 X151.116 Y156.447 E27.36498
G1 X148.892 Y156.601 E27.43913
G1 X143.652 Y155.049 E27.6209
G1 X141.889 Y154.097 E27.68754
G1 X137.98 Y150.13 E27.87277
G1 X135.957 Y150.69 E27.94259
G1 X133.819 Y150.843 E28.01388
G1 X132.853 Y150.561 E28.04735
G1 X130.041 Y153.373 E28.17962
G1 X128.346 Y154.462 E28.24663
G1 X123.213 Y155.895 E28.42388
G1 X120.99 Y155.894 E28.49782
G1 X116.217 Y154.525 E28.66297
G1 X114.548 Y153.632 E28.72593
G1 X110.829 Y149.977 E28.89936
G1 X109.757 Y148.365 E28.96375
G1 X108.335 Y143.576 E29.1299
G1 X108.18 Y141.372 E29.20339
G1 X109.651 Y136.425 E29.37505
G1 X110.518 Y134.791 E29.43657
G1 X114.163 Y131.001 E29.61146
G1 X116.024 Y129.898 E29.68342
G1 X119.251 Y129.039 E29.79448
G1 X119.308 Y93.01 E30.99282
G1 X119.527 Y91.5 E31.04356
G1 X120.733 Y89.258 E31.12824
M204 S2000
G0 F7500 X121.056 Y89.501
M204 S500
G1 F1500 X128.35 Y82.207 E31.47132
G1 X130.499 Y81.047 E31.55255
G1 X132.08 Y80.843 E31.60557
G1 X141.691 Y80.81 E31.92523
G1 X143.328 Y81.21 E31.98128
G1 X145.213 Y82.183 E32.05184
G1 X146.47 Y83.543 E32.11343
G1 X147.495 Y85.261 E32.17997
G1 X147.904 Y87.169 E32.24487
G1 X147.916 Y89.417 E32.31964
G1 X147.867 Y92.915 E32.436
G1 X147.871 Y128.209 E33.60988
G1 X148.513 Y128.029 E33.63206
G1 X150.504 Y127.883 E33.69846
G1 X154.18 Y128.913 E33.82543
G1 X153.748 Y127.425 E33.87696
G1 X153.748 Y124.38 E33.97824
G1 X154.424 Y122.073 E34.0582
G1 X155.239 Y120.501 E34.11709
G1 X157.317 Y118.302 E34.21772
G1 X158.988 Y117.183 E34.28461
G1 X162.005 Y116.341 E34.38879
G1 X163.991 Y116.195 E34.45502
G1 X167.197 Y117.092 E34.56575
G1 X168.714 Y117.953 E34.62377
G1 X169.588 Y118.711 E34.66225
G1 X170.577 Y120.074 E34.71826
G1 X171.093 Y121.003 E34.7536
G1 X171.551 Y122.839 E34.81654
G1 X171.551 Y124.141 E34.85984
G1 X173.864 Y121.696 E34.97179
G1 X175.621 Y120.64 E35.03997
G1 X180.722 Y119.21 E35.21617
G1 X182.713 Y119.064 E35.28257
G1 X188.123 Y120.579 E35.46943
G1 X189.895 Y121.5 E35.53585
G1 X193.723 Y125.551 E35.72122
G1 X194.632 Y126.98 E35.77755
G1 X196.178 Y132.255 E35.96038
G1 X196.18 Y134.379 E36.03103
G1 X194.736 Y139.549 E36.20956
G1 X193.867 Y141.195 E36.27147
G1 X190.048 Y145.014 E36.4511
G1 X188.453 Y146.039 E36.51416
G1 X183.217 Y147.499 E36.69496
G1 X181.166 Y147.644 E36.76334
G1 X175.922 Y146.113 E36.94504
G1 X174.7 Y145.456 E36.99119
G1 X174.577 Y145.651 E36.99885
G1 X172.084 Y148.144 E37.11612
G1 X170.463 Y149.187 E37.18023
G1 X166.988 Y150.152 E37.30018
G1 X164.943 Y150.297 E37.36837
G1 X161.682 Y149.342 E37.48139
G1 X161.434 Y149.815 E37.49915
G1 X157.753 Y153.545 E37.67345
G1 X156.117 Y154.612 E37.73841
G1 X151.046 Y156.051 E37.91373
G1 X148.938 Y156.197 E37.98401
G1 X143.803 Y154.676 E38.16214
G1 X142.133 Y153.774 E38.22527
G1 X138.349 Y149.935 E38.40455
G1 X138.168 Y149.663 E38.41542
G1 X135.891 Y150.294 E38.49401
G1 X133.862 Y150.439 E38.56167
G1 X132.738 Y150.11 E38.60062
G1 X129.786 Y153.062 E38.73947
G1 X128.182 Y154.093 E38.80289
G1 X123.159 Y155.495 E38.97634
G1 X121.044 Y155.494 E39.04669
G1 X116.372 Y154.154 E39.20834
G1 X114.785 Y153.305 E39.26821
G1 X111.139 Y149.722 E39.43823
G1 X110.123 Y148.194 E39.49926
G1 X108.731 Y143.506 E39.66191
G1 X108.584 Y141.415 E39.73163
G1 X110.023 Y136.576 E39.89954
G1 X110.844 Y135.028 E39.95782
G1 X114.412 Y131.318 E40.12902
G1 X116.179 Y130.271 E40.19733
G1 X119.651 Y129.347 E40.31683
G1 X119.704 Y93.067 E41.52351
G1 X119.913 Y91.626 E41.57194
G1 X121.056 Y89.501 E41.65219
M204 S2000
G0 F7500 X121.379 Y89.744
M204 S500
G1 F1500 X128.592 Y82.531 E41.99147
G1 X130.623 Y81.435 E42.06823
G1 X132.131 Y81.24 E42.1188
G1 X141.642 Y81.21 E42.43514
G1 X143.189 Y81.588 E42.48811
G1 X144.967 Y82.506 E42.55466
G1 X146.149 Y83.785 E42.61259
G1 X147.118 Y85.408 E42.67546
G1 X147.504 Y87.212 E42.73682
G1 X147.516 Y89.411 E42.80996
G1 X147.467 Y92.909 E42.92631
G1 X147.466 Y127.81 E44.08712
G1 X147.477 Y128.734 E44.11786
G1 X148.581 Y128.425 E44.15599
G1 X150.464 Y128.287 E44.21879
G1 X154.764 Y129.492 E44.36731
G1 X154.148 Y127.369 E44.44084
G1 X154.148 Y124.437 E44.53836
G1 X154.797 Y122.222 E44.61512
G1 X155.567 Y120.737 E44.67076
G1 X157.579 Y118.608 E44.76819
G1 X159.158 Y117.55 E44.83141
G1 X162.072 Y116.737 E44.93203
G1 X163.951 Y116.599 E44.99469
G1 X167.04 Y117.463 E45.10138
G1 X168.484 Y118.283 E45.15661
G1 X169.293 Y118.984 E45.19221
G1 X170.227 Y120.268 E45.24502
G1 X170.718 Y121.152 E45.27865
G1 X171.151 Y122.888 E45.33816
G1 X171.151 Y125.146 E45.41326
G1 X174.118 Y122.01 E45.55685
G1 X175.782 Y121.01 E45.62142
G1 X180.79 Y119.606 E45.79441
G1 X182.673 Y119.468 E45.85721
G1 X187.975 Y120.953 E46.04034
G1 X189.649 Y121.823 E46.10309
G1 X193.408 Y125.801 E46.28512
G1 X194.263 Y127.145 E46.3381
G1 X195.778 Y132.314 E46.51726
G1 X195.78 Y134.325 E46.58414
G1 X194.363 Y139.398 E46.75933
G1 X193.541 Y140.955 E46.81789
G1 X189.796 Y144.7 E46.99404
G1 X188.285 Y145.671 E47.05378
G1 X183.15 Y147.103 E47.23109
G1 X181.209 Y147.24 E47.29581
G1 X176.072 Y145.74 E47.4738
G1 X174.534 Y144.913 E47.53188
G1 X174.294 Y145.368 E47.54899
G1 X171.829 Y147.833 E47.66494
G1 X170.298 Y148.818 E47.72549
G1 X166.922 Y149.756 E47.84202
G1 X164.986 Y149.893 E47.90658
G1 X161.48 Y148.866 E48.02809
G1 X161.108 Y149.576 E48.05475
G1 X157.497 Y153.235 E48.22573
G1 X155.951 Y154.243 E48.28711
G1 X150.976 Y155.655 E48.45912
G1 X148.984 Y155.793 E48.52553
G1 X143.954 Y154.303 E48.70002
G1 X142.377 Y153.451 E48.75963
G1 X138.634 Y149.654 E48.93697
G1 X138.347 Y149.199 E48.95486
G1 X135.825 Y149.898 E49.0419
G1 X133.905 Y150.035 E49.10593
G1 X132.622 Y149.66 E49.15038
G1 X129.534 Y152.748 E49.29563
G1 X128.015 Y153.724 E49.35569
G1 X123.105 Y155.095 E49.52524
G1 X121.098 Y155.094 E49.59199
G1 X116.527 Y153.783 E49.75015
G1 X115.022 Y152.978 E49.80692
G1 X111.449 Y149.467 E49.97353
G1 X110.489 Y148.023 E50.03121
G1 X109.127 Y143.436 E50.19035
G1 X108.988 Y141.458 E50.2563
G1 X110.394 Y136.73 E50.42036
G1 X111.172 Y135.264 E50.47556
G1 X114.662 Y131.635 E50.64302
G1 X116.334 Y130.644 E50.70767
G1 X120.051 Y129.655 E50.8356
G1 X120.1 Y93.124 E52.05063
G1 X120.299 Y91.752 E52.09674
G1 X121.379 Y89.744 E52.17257
M204 S2000
G0 F7500 X121.702 Y89.987
M204 S500
G1 F1500 X128.834 Y82.855 E52.50804
G1 X130.747 Y81.823 E52.58033
G1 X132.182 Y81.637 E52.62846
G1 X141.593 Y81.61 E52.94147
G1 X143.052 Y81.967 E52.99143
G1 X144.718 Y82.827 E53.05379
G1 X145.83 Y84.03 E53.10828
G1 X146.741 Y85.555 E53.16736
G1 X147.104 Y87.255 E53.22518
G1 X147.116 Y89.405 E53.29669
G1 X147.067 Y92.903 E53.41304
G1 X147.066 Y127.81 E54.57405
G1 X147.083 Y129.259 E54.62225
G1 X148.649 Y128.821 E54.67633
G1 X150.424 Y128.691 E54.73553
G1 X155.514 Y130.117 E54.91134
G1 X155.212 Y129.601 E54.93123
G1 X154.548 Y127.313 E55.01047
G1 X154.548 Y124.494 E55.10423
G1 X155.17 Y122.371 E55.17781
G1 X155.895 Y120.973 E55.23018
G1 X157.841 Y118.914 E55.32441
G1 X159.328 Y117.917 E55.38396
G1 X162.139 Y117.133 E55.48102
G1 X163.911 Y117.003 E55.54012
G1 X166.885 Y117.835 E55.64283
G1 X168.252 Y118.611 E55.69511
G1 X168.996 Y119.256 E55.72786
G1 X169.877 Y120.462 E55.77754
G1 X170.343 Y121.301 E55.80946
G1 X170.751 Y122.937 E55.86554
G1 X170.751 Y126.151 E55.97244
G1 X174.372 Y122.324 E56.14767
G1 X175.943 Y121.38 E56.20863
G1 X180.858 Y120.002 E56.3784
G1 X182.633 Y119.872 E56.4376
G1 X187.827 Y121.327 E56.617
G1 X189.403 Y122.146 E56.67608
G1 X193.093 Y126.051 E56.85477
G1 X193.894 Y127.31 E56.9044
G1 X195.378 Y132.373 E57.07988
G1 X195.38 Y134.271 E57.14301
G1 X193.99 Y139.247 E57.31485
G1 X193.215 Y140.715 E57.37006
G1 X189.544 Y144.386 E57.54273
G1 X188.117 Y145.303 E57.59915
G1 X183.083 Y146.707 E57.77297
G1 X181.252 Y146.836 E57.83402
G1 X176.222 Y145.367 E58.00831
G1 X174.713 Y144.556 E58.06529
G1 X174.423 Y144.266 E58.07893
G1 X173.968 Y145.128 E58.11135
G1 X171.574 Y147.522 E58.22395
G1 X170.133 Y148.449 E58.28094
G1 X166.856 Y149.36 E58.39407
G1 X165.03 Y149.489 E58.45495
G1 X161.657 Y148.501 E58.57185
G1 X161.316 Y148.317 E58.58474
G1 X160.782 Y149.336 E58.62301
G1 X157.241 Y152.925 E58.7907
G1 X155.785 Y153.874 E58.8485
G1 X150.906 Y155.259 E59.01719
G1 X149.03 Y155.389 E59.07973
G1 X144.105 Y153.93 E59.25058
G1 X142.621 Y153.128 E59.30668
G1 X138.947 Y149.402 E59.48072
G1 X138.526 Y148.734 E59.50698
G1 X135.759 Y149.502 E59.60249
G1 X133.948 Y149.631 E59.66288
G1 X132.506 Y149.21 E59.71285
G1 X129.279 Y152.437 E59.86463
G1 X127.851 Y153.355 E59.9211
G1 X123.051 Y154.695 E60.08685
G1 X121.156 Y154.694 E60.14988
G1 X116.678 Y153.41 E60.30482
G1 X115.259 Y152.651 E60.35834
G1 X111.759 Y149.212 E60.52154
