;FLAVOR:Marlin
;TIME:6375
;Filament used: 4.176m
;Layer height: 0.2
;MINX:96.492
;MINY:81.881
;MINZ:0.2
;MAXX:207.696
;MAXY:206.043
;MAXZ:13.8
;Generated with Cura_SteamEngine 5.4.0
M82 ;absolute extrusion mode
; Ender 3 S1 Plus Start G-code
; M413 S0 ; Disable power loss recovery
G92 E0 ; Reset Extruder

; Prep surfaces before auto home for better accuracy
M140 S60
M104 S200

G28 O ; Home all untrusted axes
G1 Z10.0 F3000 ; Move Z Axis up little to prevent scratching of Heat Bed
G1 X0 Y0

M190 S60
M109 S200

G1 X0.1 Y20 Z0.3 F5000.0 ; Move to start position
G1 X0.1 Y200.0 Z0.3 F1500.0 E15 ; Draw the first line
G1 X0.4 Y200.0 Z0.3 F5000.0 ; Move to side a little
G1 X0.4 Y20 Z0.3 F1500.0 E30 ; Draw the second line
G92 E0 ; Reset Extruder
G1 Z2.0 F3000 ; Move Z Axis up little to prevent scratching of Heat Bed
G1 X5 Y20 Z0.3 F5000.0 ; Move over to prevent blob squish

G92 E0
G92 E0
G1 F2400 E-0.8
;LAYER_COUNT:69
;LAYER:0
M107
M204 S2000
G0 F7500 X128.687 Y97.34 Z0.2
M204 S500
;TYPE:SKIRT
G1 F2400 E0
G1 F1500 X131.281 Y94.602 E0.12545
G1 X133.071 Y93.341 E0.19827
G1 X136.223 Y92.464 E0.30709
G1 X136.2 Y88.82 E0.42829
G1 X136.657 Y86.954 E0.49219
G1 X137.719 Y84.905 E0.56895
G1 X139.28 Y83.446 E0.64002
G1 X141.303 Y82.239 E0.71837
G1 X143.021 Y81.957 E0.77627
G1 X156.85 Y81.881 E1.23623
G1 X158.72 Y82.326 E1.30017
G1 X160.782 Y83.396 E1.37743
G1 X162.261 Y84.991 E1.44978
G1 X163.259 Y86.683 E1.51512
G1 X163.482 Y87.212 E1.53421
G1 X163.753 Y89.03 E1.59535
G1 X163.781 Y91.888 E1.69041
G1 X166.429 Y92.634 E1.78191
G1 X168.328 Y93.624 E1.85314
G1 X171.068 Y96.505 E1.98538
G1 X172.098 Y98.129 E2.04934
G1 X173.132 Y101.669 E2.172
G1 X173.315 Y103.897 E2.24635
G1 X172.201 Y107.854 E2.38308
G1 X171.238 Y109.678 E2.45168
G1 X168.559 Y112.357 E2.57769
G1 X166.763 Y113.513 E2.64873
G1 X163.075 Y114.534 E2.77601
G1 X160.829 Y114.695 E2.8509
G1 X157.947 Y113.854 E2.95076
G1 X158.079 Y116.061 E3.02429
G1 X157.444 Y118.352 E3.10337
G1 X156.496 Y120.166 E3.17144
G1 X154.894 Y121.768 E3.2468
G1 X153.102 Y122.918 E3.31762
G1 X150.893 Y123.519 E3.39376
G1 X148.651 Y123.601 E3.46838
G1 X146.448 Y122.962 E3.54467
G1 X144.605 Y121.974 E3.61422
G1 X143.062 Y120.431 E3.6868
G1 X141.956 Y118.724 E3.75445
G1 X141.307 Y116.494 E3.8317
G1 X141.224 Y114.668 E3.89249
G1 X139.644 Y115.105 E3.94702
G1 X137.393 Y115.266 E4.02208
G1 X133.621 Y114.166 E4.15276
G1 X131.74 Y113.155 E4.22378
G1 X129.043 Y110.458 E4.35064
G1 X127.901 Y108.68 E4.42093
G1 X126.865 Y105.146 E4.54342
G1 X126.702 Y102.786 E4.6221
G1 X127.802 Y99.039 E4.75198
G1 X128.687 Y97.34 E4.8157
M204 S2000
G0 F7500 X129.017 Y97.573
M204 S500
G1 F1500 X131.543 Y94.906 E4.93787
G1 X133.245 Y93.707 E5.00712
G1 X136.625 Y92.767 E5.1238
G1 X136.6 Y88.869 E5.25345
G1 X137.035 Y87.093 E5.31427
G1 X138.042 Y85.15 E5.38706
G1 X139.519 Y83.77 E5.45429
G1 X141.443 Y82.622 E5.52881
G1 X143.086 Y82.352 E5.58419
G1 X156.804 Y82.281 E6.04046
G1 X158.58 Y82.704 E6.10118
G1 X160.536 Y83.719 E6.17447
G1 X161.938 Y85.231 E6.24305
G1 X162.89 Y86.838 E6.30518
G1 X163.093 Y87.32 E6.32257
G1 X163.357 Y89.089 E6.38206
G1 X163.384 Y92.192 E6.48527
G1 X166.279 Y93.007 E6.5853
G1 X168.084 Y93.948 E6.65301
G1 X170.752 Y96.754 E6.78179
G1 X171.73 Y98.296 E6.84252
G1 X172.736 Y101.74 E6.96185
G1 X172.91 Y103.859 E7.03257
G1 X171.828 Y107.703 E7.16539
G1 X170.912 Y109.438 E7.23065
G1 X168.304 Y112.046 E7.35332
G1 X166.598 Y113.144 E7.4208
G1 X163.009 Y114.138 E7.54466
G1 X160.872 Y114.291 E7.61592
G1 X157.631 Y113.345 E7.72821
G1 X157.509 Y113.774 E7.74305
G1 X157.556 Y114.006 E7.75092
G1 X157.676 Y116.019 E7.81799
G1 X157.071 Y118.201 E7.8933
G1 X156.169 Y119.927 E7.95808
G1 X154.642 Y121.454 E8.0299
G1 X152.937 Y122.548 E8.09728
G1 X150.833 Y123.121 E8.16981
G1 X148.699 Y123.199 E8.24083
G1 X146.603 Y122.591 E8.31342
G1 X144.846 Y121.649 E8.37973
G1 X143.376 Y120.179 E8.44887
G1 X142.323 Y118.554 E8.51328
G1 X141.705 Y116.43 E8.58685
G1 X141.61 Y114.349 E8.65614
G1 X141.651 Y114.134 E8.66342
G1 X139.573 Y114.709 E8.73513
G1 X137.436 Y114.862 E8.80639
G1 X133.771 Y113.793 E8.93336
G1 X131.983 Y112.832 E9.00088
G1 X129.357 Y110.206 E9.1244
G1 X128.268 Y108.511 E9.19141
G1 X127.261 Y105.075 E9.31049
G1 X127.106 Y102.831 E9.38531
G1 X128.175 Y99.189 E9.51155
G1 X129.017 Y97.573 E9.57216
M204 S2000
G0 F7500 X129.347 Y97.805
M204 S500
G1 F1500 X131.805 Y95.21 E9.69104
G1 X133.419 Y94.073 E9.75671
G1 X137.027 Y93.07 E9.88126
G1 X137 Y88.918 E10.01936
G1 X137.413 Y87.232 E10.07709
G1 X138.365 Y85.395 E10.14591
G1 X139.761 Y84.091 E10.20945
G1 X141.581 Y83.005 E10.27994
G1 X143.151 Y82.747 E10.33286
G1 X156.758 Y82.681 E10.78543
G1 X158.44 Y83.082 E10.84294
G1 X160.29 Y84.042 E10.91227
G1 X161.614 Y85.469 E10.97701
G1 X162.521 Y86.993 E11.036
G1 X162.704 Y87.428 E11.05169
G1 X162.961 Y89.148 E11.10953
G1 X162.986 Y92.495 E11.22086
G1 X166.129 Y93.38 E11.32946
G1 X167.84 Y94.272 E11.39364
G1 X170.436 Y97.003 E11.51896
G1 X171.362 Y98.463 E11.57646
G1 X172.34 Y101.811 E11.69247
G1 X172.505 Y103.821 E11.75955
G1 X171.455 Y107.552 E11.88847
G1 X170.586 Y109.198 E11.95037
G1 X168.049 Y111.735 E12.06971
G1 X166.433 Y112.775 E12.13362
G1 X162.943 Y113.742 E12.25407
G1 X160.915 Y113.887 E12.3217
G1 X157.252 Y112.818 E12.44861
G1 X157.271 Y113.146 E12.45954
G1 X157.097 Y113.762 E12.48083
G1 X157.157 Y114.03 E12.48996
G1 X157.273 Y115.977 E12.55484
G1 X156.698 Y118.05 E12.62639
G1 X155.842 Y119.688 E12.68786
G1 X154.39 Y121.14 E12.75616
G1 X152.772 Y122.178 E12.82009
G1 X150.773 Y122.723 E12.88901
G1 X148.747 Y122.797 E12.95644
G1 X146.758 Y122.22 E13.02532
G1 X145.087 Y121.324 E13.08838
G1 X143.688 Y119.925 E13.15419
G1 X142.691 Y118.386 E13.21518
G1 X142.103 Y116.366 E13.28515
G1 X142.01 Y114.331 E13.35291
G1 X142.175 Y113.762 E13.37261
G1 X142.125 Y113.588 E13.37863
G1 X139.507 Y114.313 E13.46898
G1 X137.479 Y114.458 E13.53661
G1 X133.921 Y113.42 E13.65988
G1 X132.226 Y112.509 E13.72388
G1 X129.671 Y109.954 E13.84406
G1 X128.636 Y108.343 E13.90775
G1 X127.657 Y105.003 E14.02351
G1 X127.51 Y102.876 E14.09442
G1 X128.548 Y99.339 E14.21703
G1 X129.347 Y97.805 E14.27455
M204 S2000
G0 F7500 X129.677 Y98.037
M204 S500
G1 F1500 X132.067 Y95.514 E14.39014
G1 X133.593 Y94.439 E14.45223
G1 X137.104 Y93.46 E14.57346
G1 X137.429 Y93.436 E14.5843
G1 X137.4 Y88.967 E14.73294
G1 X137.791 Y87.371 E14.78759
G1 X138.688 Y85.64 E14.85244
G1 X140.003 Y84.412 E14.91228
G1 X141.719 Y83.388 E14.97874
G1 X143.216 Y83.142 E15.0292
G1 X156.712 Y83.081 E15.47809
G1 X158.3 Y83.46 E15.53239
G1 X160.044 Y84.365 E15.59774
G1 X161.29 Y85.708 E15.65867
G1 X162.177 Y87.198 E15.71634
G1 X162.315 Y87.535 E15.72845
G1 X162.565 Y89.207 E15.78468
G1 X162.588 Y92.798 E15.90412
G1 X165.979 Y93.753 E16.0213
G1 X167.596 Y94.596 E16.08195
G1 X170.12 Y97.252 E16.20381
G1 X170.994 Y98.63 E16.25809
G1 X171.944 Y101.882 E16.37077
G1 X172.1 Y103.783 E16.43421
G1 X171.082 Y107.401 E16.55922
G1 X170.26 Y108.958 E16.61778
G1 X167.794 Y111.424 E16.73377
G1 X166.268 Y112.406 E16.79413
G1 X162.877 Y113.346 E16.91116
G1 X160.958 Y113.483 E16.97515
G1 X157.507 Y112.476 E17.09472
G1 X156.809 Y112.101 E17.12107
G1 X156.868 Y113.102 E17.15443
G1 X156.684 Y113.755 E17.17699
G1 X156.758 Y114.054 E17.18723
G1 X156.87 Y115.935 E17.24991
G1 X156.325 Y117.899 E17.3177
G1 X155.515 Y119.449 E17.37587
G1 X154.138 Y120.826 E17.44064
G1 X152.607 Y121.808 E17.50113
G1 X150.713 Y122.325 E17.56643
G1 X148.795 Y122.395 E17.63027
G1 X146.909 Y121.848 E17.69558
G1 X145.33 Y121.001 E17.75518
G1 X144.002 Y119.673 E17.81764
G1 X143.058 Y118.216 E17.87539
G1 X142.501 Y116.302 E17.94169
G1 X142.413 Y114.378 E18.00575
G1 X142.592 Y113.762 E18.02708
G1 X142.499 Y113.442 E18.03816
G1 X142.482 Y113.074 E18.05042
G1 X139.441 Y113.917 E18.15538
G1 X137.522 Y114.054 E18.21936
G1 X134.071 Y113.047 E18.33893
G1 X132.469 Y112.186 E18.39942
G1 X129.985 Y109.702 E18.51626
G1 X129.004 Y108.175 E18.57663
G1 X128.053 Y104.931 E18.68907
G1 X127.914 Y102.921 E18.75608
G1 X128.921 Y99.489 E18.87504
G1 X129.677 Y98.037 E18.92949
M204 S2000
G0 F7500 X130.007 Y98.269
M204 S500
G1 F1500 X132.329 Y95.818 E19.04178
G1 X133.767 Y94.805 E19.10028
G1 X137.17 Y93.856 E19.21779
G1 X137.832 Y93.807 E19.23987
G1 X137.8 Y89.016 E19.39922
G1 X138.169 Y87.51 E19.45079
G1 X139.011 Y85.885 E19.51166
G1 X140.245 Y84.733 E19.56781
G1 X141.857 Y83.771 E19.63025
G1 X143.281 Y83.537 E19.67825
G1 X156.666 Y83.481 E20.12344
G1 X158.16 Y83.838 E20.17453
G1 X159.798 Y84.688 E20.2359
G1 X160.966 Y85.947 E20.29302
G1 X161.833 Y87.403 E20.34939
G1 X161.928 Y87.646 E20.35806
G1 X162.165 Y89.21 E20.41068
G1 X162.19 Y93.169 E20.54236
G1 X162.447 Y93.174 E20.55091
G1 X165.829 Y94.126 E20.66776
G1 X167.354 Y94.921 E20.72496
G1 X169.802 Y97.498 E20.84318
G1 X170.626 Y98.797 E20.89435
G1 X171.548 Y101.953 E21.0037
G1 X171.695 Y103.745 E21.06351
G1 X170.709 Y107.25 E21.18461
G1 X169.934 Y108.718 E21.23982
G1 X167.539 Y111.113 E21.35247
G1 X166.103 Y112.037 E21.40927
G1 X162.811 Y112.95 E21.52289
G1 X161.001 Y113.079 E21.58325
G1 X157.657 Y112.103 E21.69911
G1 X156.368 Y111.41 E21.74778
G1 X156.465 Y113.058 E21.80269
G1 X156.269 Y113.755 E21.82677
G1 X156.359 Y114.078 E21.83793
G1 X156.467 Y115.893 E21.8984
G1 X155.952 Y117.748 E21.96243
G1 X155.188 Y119.21 E22.0173
G1 X153.886 Y120.512 E22.07854
G1 X152.442 Y121.438 E22.13559
G1 X150.653 Y121.927 E22.19728
G1 X148.844 Y121.993 E22.25749
G1 X147.063 Y121.476 E22.31917
G1 X145.571 Y120.676 E22.37548
G1 X144.316 Y119.421 E22.43451
G1 X143.425 Y118.046 E22.489
G1 X142.899 Y116.238 E22.55163
G1 X142.816 Y114.425 E22.61199
G1 X143.009 Y113.762 E22.63496
G1 X142.897 Y113.378 E22.64826
G1 X142.856 Y112.487 E22.67793
G1 X142.609 Y112.624 E22.68732
G1 X139.375 Y113.521 E22.79895
G1 X137.565 Y113.65 E22.8593
G1 X134.221 Y112.674 E22.97516
G1 X132.712 Y111.863 E23.03214
G1 X130.299 Y109.45 E23.14564
G1 X129.371 Y108.006 E23.20273
G1 X128.449 Y104.86 E23.31177
G1 X128.318 Y102.966 E23.37492
G1 X129.294 Y99.639 E23.49024
G1 X130.007 Y98.269 E23.5416
M204 S2000
G0 F7500 X130.337 Y98.501
M204 S500
G1 F1500 X132.591 Y96.122 E23.6506
G1 X133.941 Y95.172 E23.70551
G1 X137.238 Y94.252 E23.81936
G1 X138.234 Y94.179 E23.85257
G1 X138.2 Y89.065 E24.02267
G1 X138.547 Y87.649 E24.07116
G1 X139.334 Y86.13 E24.12806
G1 X140.487 Y85.054 E24.18051
G1 X141.995 Y84.154 E24.23892
G1 X143.346 Y83.932 E24.28446
G1 X156.62 Y83.881 E24.72596
G1 X158.02 Y84.216 E24.77384
G1 X159.552 Y85.011 E24.83124
G1 X160.642 Y86.186 E24.88455
G1 X161.489 Y87.608 E24.9396
G1 X161.54 Y87.751 E24.94465
G1 X161.765 Y89.213 E24.99385
G1 X161.793 Y93.599 E25.13973
G1 X162.339 Y93.559 E25.15794
G1 X165.679 Y94.499 E25.27334
G1 X167.112 Y95.246 E25.32709
G1 X169.484 Y97.743 E25.44164
G1 X170.258 Y98.964 E25.48973
G1 X171.152 Y102.024 E25.59576
G1 X171.29 Y103.707 E25.65192
G1 X170.336 Y107.099 E25.76912
G1 X169.608 Y108.478 E25.82098
G1 X167.284 Y110.802 E25.93029
G1 X165.938 Y111.668 E25.98353
G1 X162.745 Y112.554 E26.09374
G1 X161.044 Y112.675 E26.15046
G1 X157.807 Y111.73 E26.26262
G1 X156.391 Y110.969 E26.31608
G1 X155.67 Y110.248 E26.35
G1 X155.961 Y111.29 E26.38598
G1 X156.062 Y113.013 E26.44339
G1 X155.853 Y113.754 E26.46899
G1 X155.963 Y114.145 E26.4825
G1 X156.064 Y115.851 E26.53934
G1 X155.579 Y117.597 E26.59961
G1 X154.861 Y118.971 E26.65118
G1 X153.634 Y120.198 E26.70889
G1 X152.277 Y121.068 E26.7625
G1 X150.592 Y121.529 E26.82061
G1 X148.892 Y121.591 E26.87719
G1 X147.214 Y121.104 E26.9353
G1 X145.814 Y120.353 E26.98814
G1 X144.63 Y119.169 E27.04383
G1 X143.792 Y117.876 E27.09508
G1 X143.297 Y116.174 E27.15404
G1 X143.219 Y114.472 E27.2107
G1 X143.425 Y113.763 E27.23526
G1 X143.295 Y113.315 E27.25078
G1 X143.224 Y111.774 E27.30208
G1 X142.502 Y112.239 E27.33065
G1 X139.309 Y113.125 E27.44086
G1 X137.608 Y113.246 E27.49758
G1 X134.371 Y112.301 E27.60973
G1 X132.955 Y111.54 E27.6632
G1 X130.613 Y109.198 E27.77336
G1 X129.739 Y107.838 E27.82713
G1 X128.845 Y104.788 E27.93284
G1 X128.722 Y103.011 E27.99209
G1 X129.667 Y99.789 E28.10377
G1 X130.337 Y98.501 E28.15205
M204 S2000
G0 F7500 X130.667 Y98.733
M204 S500
G1 F1500 X132.853 Y96.426 E28.25776
G1 X134.115 Y95.538 E28.30909
G1 X137.305 Y94.648 E28.41924
G1 X138.636 Y94.551 E28.46362
G1 X138.6 Y89.114 E28.64446
G1 X138.925 Y87.788 E28.68987
G1 X139.657 Y86.375 E28.7428
G1 X140.729 Y85.375 E28.79156
G1 X142.133 Y84.537 E28.84594
G1 X143.411 Y84.327 E28.88902
G1 X156.574 Y84.281 E29.32682
G1 X157.88 Y84.594 E29.37149
G1 X159.306 Y85.334 E29.42493
G1 X160.318 Y86.425 E29.47442
G1 X161.145 Y87.813 E29.52816
G1 X161.365 Y89.216 E29.57539
G1 X161.396 Y94.029 E29.73548
G1 X162.299 Y93.963 E29.76559
G1 X165.529 Y94.872 E29.8772
G1 X166.87 Y95.571 E29.92749
G1 X169.166 Y97.988 E30.03837
G1 X169.89 Y99.131 E30.08337
G1 X170.756 Y102.095 E30.18608
G1 X170.885 Y103.669 E30.2386
G1 X169.963 Y106.948 E30.35189
G1 X169.282 Y108.238 E30.40041
G1 X167.029 Y110.491 E30.50639
G1 X165.773 Y111.299 E30.55606
G1 X162.679 Y112.158 E30.66286
G1 X161.087 Y112.271 E30.71594
G1 X157.957 Y111.357 E30.82439
G1 X156.634 Y110.646 E30.87435
G1 X154.36 Y108.372 E30.98131
G1 X153.543 Y107.101 E31.03156
G1 X152.677 Y104.146 E31.13398
G1 X152.562 Y102.484 E31.18939
G1 X153.48 Y99.367 E31.29747
G1 X150.838 Y99.364 E31.38534
G1 X150.07 Y99.173 E31.41166
G1 X149.574 Y99.365 E31.42935
G1 X146.24 Y99.364 E31.54024
G1 X146.454 Y99.703 E31.55357
G1 X147.32 Y102.666 E31.65625
G1 X147.449 Y104.24 E31.70877
G1 X146.631 Y107.15 E31.80931
G1 X147.097 Y106.838 E31.82796
G1 X148.733 Y106.377 E31.8845
G1 X150.288 Y106.305 E31.93627
G1 X151.923 Y106.766 E31.99277
G1 X153.277 Y107.489 E32.04382
G1 X154.405 Y108.681 E32.09841
G1 X155.149 Y109.868 E32.145
G1 X155.564 Y111.356 E32.19638
G1 X155.659 Y112.968 E32.25009
G1 X155.438 Y113.752 E32.27718
G1 X155.566 Y114.211 E32.29303
G1 X155.661 Y115.809 E32.34628
G1 X155.206 Y117.446 E32.40279
G1 X154.534 Y118.732 E32.45105
G1 X153.382 Y119.884 E32.50523
G1 X152.112 Y120.698 E32.55541
G1 X150.531 Y121.131 E32.60993
G1 X148.94 Y121.189 E32.66288
G1 X147.365 Y120.732 E32.71742
G1 X146.057 Y120.03 E32.7668
G1 X144.942 Y118.915 E32.81924
G1 X144.16 Y117.708 E32.86708
G1 X143.695 Y116.11 E32.92243
G1 X143.622 Y114.518 E32.97544
G1 X143.841 Y113.763 E33.00158
G1 X143.693 Y113.252 E33.01928
G1 X143.62 Y111.671 E33.07192
G1 X143.877 Y110.778 E33.10283
G1 X143.593 Y111.062 E33.11618
G1 X142.337 Y111.87 E33.16586
G1 X139.243 Y112.729 E33.27266
G1 X137.651 Y112.842 E33.32574
G1 X134.521 Y111.928 E33.43419
G1 X133.198 Y111.217 E33.48415
G1 X130.924 Y108.943 E33.59111
G1 X130.107 Y107.672 E33.64136
G1 X129.241 Y104.717 E33.74378
G1 X129.126 Y103.056 E33.79916
G1 X130.04 Y99.939 E33.90719
G1 X130.667 Y98.733 E33.9524
M204 S2000
G0 F7500 X130.997 Y98.965
M204 S500
G1 F1500 X133.115 Y96.73 E34.05482
G1 X134.289 Y95.904 E34.10256
G1 X137.372 Y95.044 E34.20901
G1 X138.754 Y94.943 E34.2551
G1 X139.129 Y95.024 E34.26786
G1 X139.035 Y94.426 E34.288
G1 X139 Y89.159 E34.46318
G1 X139.301 Y87.931 E34.50523
G1 X139.979 Y86.622 E34.55427
G1 X140.974 Y85.694 E34.59952
G1 X142.271 Y84.92 E34.64975
G1 X143.476 Y84.722 E34.69037
G1 X156.528 Y84.681 E35.12448
G1 X157.74 Y84.972 E35.16594
G1 X159.06 Y85.657 E35.2154
G1 X159.994 Y86.664 E35.26109
G1 X160.762 Y87.953 E35.31099
G1 X160.965 Y89.219 E35.35364
G1 X160.999 Y94.459 E35.52792
G1 X162.259 Y94.367 E35.56994
G1 X165.379 Y95.245 E35.67774
G1 X166.628 Y95.896 E35.72459
G1 X168.848 Y98.233 E35.8318
G1 X169.522 Y99.298 E35.87372
G1 X170.36 Y102.166 E35.9731
G1 X170.48 Y103.631 E36.02199
G1 X169.59 Y106.797 E36.13137
G1 X168.956 Y107.998 E36.17654
G1 X166.774 Y110.18 E36.27917
G1 X165.608 Y110.93 E36.32529
G1 X162.613 Y111.762 E36.42867
G1 X161.13 Y111.867 E36.47812
G1 X158.107 Y110.984 E36.58287
G1 X156.877 Y110.323 E36.62931
G1 X154.671 Y108.117 E36.73307
G1 X153.911 Y106.935 E36.77981
G1 X153.073 Y104.075 E36.87894
G1 X152.966 Y102.529 E36.93048
G1 X153.849 Y99.517 E37.03487
G1 X154.134 Y98.968 E37.05545
G1 X150.886 Y98.964 E37.16348
G1 X150.043 Y98.755 E37.19236
G1 X149.5 Y98.965 E37.21173
G1 X145.514 Y98.964 E37.3443
G1 X146.086 Y99.869 E37.37991
G1 X146.924 Y102.737 E37.47929
