;START_OF_HEADER
;HEADER_VERSION:0.1
;FLAVOR:Griffin
;GENERATOR.NAME:Cura_SteamEngine
;GENERATOR.VERSION:5.7.0
;GENERATOR.BUILD_DATE:2024-04-02
;TARGET_MACHINE.NAME:Ultimaker S5
;EXTRUDER_TRAIN.0.INITIAL_TEMPERATURE:205
;EXTRUDER_TRAIN.0.MATERIAL.VOLUME_USED:3670
;EXTRUDER_TRAIN.0.MATERIAL.GUID:44a029e6-e31b-4c9e-a12f-9282e29a92ff
;EXTRUDER_TRAIN.0.NOZZLE.DIAMETER:0.4
;EXTRUDER_TRAIN.0.NOZZLE.NAME:AA 0.4
;BUILD_PLATE.INITIAL_TEMPERATURE:60
;BUILD_VOLUME.TEMPERATURE:28
;PRINT.TIME:1100
;PRINT.GROUPS:1
;PRINT.SIZE.MIN.X:147.93
;PRINT.SIZE.MIN.Y:102.93
;PRINT.SIZE.MIN.Z:0.2
;PRINT.SIZE.MAX.X:330
;PRINT.SIZE.MAX.Y:237
;PRINT.SIZE.MAX.Z:22
;SLICE_UUID:153c6c3f-216d-4426-99c6-853059a02b74
;END_OF_HEADER
;Generated with Cura_SteamEngine 5.7.0
T0
M82 ;absolute extrusion mode

G92 E0
M190 S60
M109 S205
G280 S1
G0 Z20.001
G1 F2700 E-6.5
;LAYER_COUNT:100
G0 F9000 X330 Y237
;LAYER:0
M106 S255
M204 S1500
M205 X30 Y30
G1 F600 Z2.2
G0 F9000 X181.476 Y133.052 Z2.2
;TYPE:SKIRT
G1 F600 Z0.2
G1 F2700 E0
G1 F1800 X179.847 Y135.177 E0.03358
G1 X177.732 Y136.558 E0.06525
G1 X175.54 Y137.07 E0.09348
G1 X154.109 Y137.07 E0.36223
G1 X151.948 Y136.476 E0.39034
G1 X149.823 Y134.847 E0.42392
G1 X148.442 Y132.732 E0.45559
G1 X147.93 Y130.54 E0.48382
G1 X147.93 Y108.744 E0.75715
G1 X148.779 Y106.517 E0.78704
G1 X150.291 Y104.742 E0.81628
G1 X152.272 Y103.44 E0.84601
G1 X154.456 Y102.93 E0.87413
G1 X176.256 Y102.93 E1.14751
G1 X178.483 Y103.779 E1.1774
G1 X180.258 Y105.291 E1.20664
G1 X181.56 Y107.272 E1.23637
G1 X182.07 Y109.456 E1.26449
G1 X182.07 Y130.891 E1.5333
G1 X181.476 Y133.052 E1.5614
G0 F9000 X181.11 Y132.873
G1 F1800 X179.573 Y134.878 E1.59308
G1 X177.573 Y136.184 E1.62304
G1 X175.492 Y136.67 E1.64984
G1 X154.164 Y136.67 E1.9173
G1 X152.127 Y136.11 E1.94379
G1 X150.122 Y134.573 E1.97547
G1 X148.816 Y132.573 E2.00543
G1 X148.33 Y130.492 E2.03222
G1 X148.33 Y108.819 E2.30401
G1 X149.13 Y106.721 E2.33217
G1 X150.557 Y105.046 E2.35976
G1 X152.431 Y103.814 E2.38789
G1 X154.504 Y103.33 E2.41458
G1 X176.181 Y103.33 E2.68642
G1 X178.279 Y104.13 E2.71458
G1 X179.954 Y105.557 E2.74217
G1 X181.186 Y107.431 E2.7703
G1 X181.67 Y109.504 E2.79699
G1 X181.67 Y130.836 E3.0645
G1 X181.11 Y132.873 E3.091
G0 F9000 X180.744 Y132.694
G1 F1800 X179.299 Y134.579 E3.12078
G1 X177.414 Y135.81 E3.14901
G1 X175.444 Y136.27 E3.17438
G1 X154.219 Y136.27 E3.44055
G1 X152.306 Y135.744 E3.46543
G1 X150.421 Y134.299 E3.49522
G1 X149.19 Y132.414 E3.52345
G1 X148.73 Y130.444 E3.54882
G1 X148.73 Y108.894 E3.81906
G1 X149.48 Y106.927 E3.84546
G1 X150.825 Y105.348 E3.87147
G1 X152.59 Y104.188 E3.89796
G1 X154.552 Y103.73 E3.92323
G1 X176.106 Y103.73 E4.19352
G1 X178.073 Y104.48 E4.21992
G1 X179.652 Y105.825 E4.24593
G1 X180.812 Y107.59 E4.27242
G1 X181.27 Y109.552 E4.29768
G1 X181.27 Y130.781 E4.5639
G1 X180.744 Y132.694 E4.58878
G0 F9000 X180.378 Y132.515
G1 F1800 X179.025 Y134.28 E4.61667
G1 X177.255 Y135.436 E4.64318
G1 X175.396 Y135.87 E4.66712
G1 X154.274 Y135.87 E4.932
G1 X152.485 Y135.378 E4.95527
G1 X150.72 Y134.025 E4.98316
G1 X149.564 Y132.255 E5.00967
G1 X149.13 Y130.396 E5.03361
G1 X149.13 Y108.969 E5.30231
G1 X149.831 Y107.131 E5.32698
G1 X151.091 Y105.652 E5.35134
G1 X152.749 Y104.562 E5.37623
G1 X154.6 Y104.13 E5.40006
G1 X176.031 Y104.13 E5.66881
G1 X177.869 Y104.831 E5.69348
G1 X179.348 Y106.091 E5.71785
G1 X180.438 Y107.749 E5.74273
G1 X180.87 Y109.6 E5.76657
G1 X180.87 Y130.726 E6.0315
G1 X180.378 Y132.515 E6.05476
G0 F9000 X180.012 Y132.336
G1 F1800 X178.751 Y133.981 E6.08076
G1 X177.093 Y135.063 E6.10558
G1 X175.352 Y135.47 E6.128
G1 X154.329 Y135.47 E6.39164
G1 X152.664 Y135.012 E6.4133
G1 X151.019 Y133.751 E6.43929
G1 X149.937 Y132.093 E6.46412
G1 X149.53 Y130.352 E6.48654
G1 X149.53 Y109.044 E6.75375
G1 X150.181 Y107.337 E6.77666
G1 X151.359 Y105.954 E6.79944
G1 X152.908 Y104.936 E6.82268
G1 X154.648 Y104.53 E6.84509
G1 X175.956 Y104.53 E7.1123
G1 X177.663 Y105.181 E7.13521
G1 X179.046 Y106.359 E7.15799
G1 X180.064 Y107.908 E7.18124
G1 X180.47 Y109.648 E7.20364
G1 X180.47 Y130.671 E7.46728
G1 X180.012 Y132.336 E7.48894
G0 F9000 X179.646 Y132.157
G1 F1800 X178.477 Y133.682 E7.51303
G1 X176.934 Y134.689 E7.53614
G1 X175.304 Y135.07 E7.55713
G1 X154.384 Y135.07 E7.81947
G1 X152.843 Y134.646 E7.83952
G1 X151.318 Y133.477 E7.86361
G1 X150.311 Y131.934 E7.88672
G1 X149.93 Y130.304 E7.90771
G1 X149.93 Y109.119 E8.17338
G1 X150.532 Y107.541 E8.19456
G1 X151.625 Y106.258 E8.2157
G1 X153.067 Y105.31 E8.23734
G1 X154.696 Y104.93 E8.25831
G1 X175.881 Y104.93 E8.52398
G1 X177.459 Y105.532 E8.54516
G1 X178.742 Y106.625 E8.5663
G1 X179.69 Y108.067 E8.58794
G1 X180.07 Y109.696 E8.60891
G1 X180.07 Y130.616 E8.87126
G1 X179.646 Y132.157 E8.8913
G0 F9000 X179.28 Y131.978
G1 F1800 X178.203 Y133.383 E8.9135
G1 X176.775 Y134.315 E8.93489
G1 X175.256 Y134.67 E8.95445
G1 X154.439 Y134.67 E9.2155
G1 X153.022 Y134.28 E9.23393
G1 X151.617 Y133.203 E9.25613
G1 X150.685 Y131.775 E9.27752
G1 X150.33 Y130.256 E9.29708
G1 X150.33 Y109.194 E9.5612
G1 X150.882 Y107.747 E9.58063
G1 X151.893 Y106.56 E9.60018
G1 X153.226 Y105.684 E9.62018
G1 X154.744 Y105.33 E9.63973
G1 X175.806 Y105.33 E9.90385
G1 X177.253 Y105.882 E9.92327
G1 X178.44 Y106.893 E9.94283
G1 X179.316 Y108.226 E9.96283
G1 X179.67 Y109.744 E9.98238
G1 X179.67 Y130.561 E10.24343
G1 X179.28 Y131.978 E10.26186
G0 F9000 X178.914 Y131.799
G1 F1800 X177.929 Y133.084 E10.28216
G1 X176.616 Y133.941 E10.30183
G1 X175.208 Y134.27 E10.31996
G1 X154.494 Y134.27 E10.57972
G1 X153.201 Y133.914 E10.59654
G1 X151.916 Y132.929 E10.61684
G1 X151.059 Y131.616 E10.63651
G1 X150.73 Y130.208 E10.65464
G1 X150.73 Y109.269 E10.91722
G1 X151.233 Y107.951 E10.93491
G1 X152.159 Y106.864 E10.95282
G1 X153.385 Y106.058 E10.97122
G1 X154.792 Y105.73 E10.98934
G1 X175.731 Y105.73 E11.25192
G1 X177.049 Y106.233 E11.26961
G1 X178.136 Y107.159 E11.28752
G1 X178.942 Y108.385 E11.30592
G1 X179.27 Y109.792 E11.32403
G1 X179.27 Y130.506 E11.58379
G1 X178.914 Y131.799 E11.60061
G0 F9000 X178.548 Y131.62
G1 F1800 X177.655 Y132.785 E11.61902
G1 X176.457 Y133.567 E11.63696
G1 X175.16 Y133.87 E11.65366
G1 X154.549 Y133.87 E11.91213
G1 X153.38 Y133.548 E11.92734
G1 X152.215 Y132.655 E11.94575
G1 X151.433 Y131.457 E11.96369
G1 X151.13 Y130.16 E11.98039
G1 X151.13 Y109.344 E12.24143
G1 X151.583 Y108.157 E12.25736
G1 X152.427 Y107.166 E12.27369
G1 X153.544 Y106.432 E12.29045
G1 X154.84 Y106.13 E12.30714
G1 X175.656 Y106.13 E12.56818
G1 X176.843 Y106.583 E12.58411
G1 X177.834 Y107.427 E12.60043
G1 X178.568 Y108.544 E12.61719
G1 X178.87 Y109.84 E12.63388
G1 X178.87 Y130.451 E12.89235
G1 X178.548 Y131.62 E12.90756
G0 F9000 X178.182 Y131.441
G1 F1800 X177.381 Y132.486 E12.92407
G1 X176.298 Y133.193 E12.94029
G1 X175.112 Y133.47 E12.95556
G1 X154.604 Y133.47 E13.21274
G1 X153.559 Y133.182 E13.22633
G1 X152.514 Y132.381 E13.24284
G1 X151.807 Y131.298 E13.25906
G1 X151.53 Y130.112 E13.27434
G1 X151.53 Y109.419 E13.53383
G1 X151.933 Y108.363 E13.54801
G1 X152.695 Y107.468 E13.56275
G1 X153.703 Y106.806 E13.57787
G1 X154.888 Y106.53 E13.59313
G1 X175.581 Y106.53 E13.85263
G1 X176.637 Y106.933 E13.8668
G1 X177.532 Y107.695 E13.88154
G1 X178.194 Y108.703 E13.89666
G1 X178.47 Y109.888 E13.91192
G1 X178.47 Y130.396 E14.1691
G1 X178.182 Y131.441 E14.18269
G0 F9000 X177.816 Y131.262
G1 F1800 X177.107 Y132.187 E14.19731
G1 X176.139 Y132.819 E14.21181
G1 X175.064 Y133.07 E14.22565
G1 X154.659 Y133.07 E14.48154
G1 X153.738 Y132.816 E14.49352
G1 X152.813 Y132.107 E14.50813
G1 X152.181 Y131.139 E14.52263
G1 X151.93 Y130.064 E14.53647
G1 X151.93 Y109.494 E14.79443
G1 X152.283 Y108.569 E14.80684
G1 X152.964 Y107.769 E14.82002
G1 X153.86 Y107.181 E14.83346
G1 X154.936 Y106.93 E14.84732
G1 X175.506 Y106.93 E15.10527
G1 X176.431 Y107.283 E15.11769
G1 X177.231 Y107.964 E15.13086
G1 X177.819 Y108.86 E15.1443
G1 X178.07 Y109.936 E15.15816
G1 X178.07 Y130.341 E15.41404
G1 X177.816 Y131.262 E15.42602
G0 F9000 X177.45 Y131.081
G1 F1800 X176.831 Y131.889 E15.43879
G1 X175.98 Y132.445 E15.45154
G1 X175.016 Y132.67 E15.46395
G1 X154.715 Y132.67 E15.71853
G1 X153.919 Y132.45 E15.72889
G1 X153.111 Y131.831 E15.74165
G1 X152.555 Y130.98 E15.7544
G1 X152.33 Y130.016 E15.76681
G1 X152.33 Y109.569 E16.02323
G1 X152.633 Y108.775 E16.03388
G1 X153.231 Y108.072 E16.04546
G1 X154.02 Y107.555 E16.05729
G1 X154.984 Y107.33 E16.0697
G1 X175.431 Y107.33 E16.32611
G1 X176.225 Y107.633 E16.33677
G1 X176.928 Y108.231 E16.34835
G1 X177.445 Y109.02 E16.36017
G1 X177.67 Y109.984 E16.37259
G1 X177.67 Y130.285 E16.62717
G1 X177.45 Y131.081 E16.63753
G0 F9000 X177.132 Y130.838
G1 F1800 X176.555 Y131.591 E16.64942
G1 X175.821 Y132.071 E16.66042
G1 X174.968 Y132.27 E16.67141
G1 X154.715 Y132.27 E16.92539
G1 X154.162 Y132.132 E16.93253
G1 X153.409 Y131.555 E16.94443
G1 X152.929 Y130.821 E16.95543
G1 X152.73 Y129.968 E16.96641
G1 X152.73 Y109.644 E17.22128
G1 X152.983 Y108.981 E17.23018
G1 X153.498 Y108.375 E17.24015
G1 X154.179 Y107.929 E17.25036
G1 X155.032 Y107.73 E17.26135
G1 X175.356 Y107.73 E17.51622
G1 X176.019 Y107.983 E17.52512
G1 X176.625 Y108.498 E17.53509
G1 X177.071 Y109.179 E17.5453
G1 X177.27 Y110.032 E17.55628
G1 X177.27 Y130.285 E17.81026
G1 X177.132 Y130.838 E17.81741
G0 F9000 X176.764 Y130.66
G1 F1800 X176.279 Y131.293 E17.82741
G1 X175.662 Y131.697 E17.83666
G1 X174.92 Y131.87 E17.84621
G1 X154.715 Y131.87 E18.09959
G1 X154.34 Y131.764 E18.10448
G1 X153.707 Y131.279 E18.11448
G1 X153.303 Y130.662 E18.12373
G1 X153.13 Y129.92 E18.13328
G1 X153.13 Y109.644 E18.38755
G1 X153.294 Y109.233 E18.3931
G1 X153.717 Y108.71 E18.40154
G1 X154.338 Y108.303 E18.41085
G1 X155.08 Y108.13 E18.4204
G1 X175.356 Y108.13 E18.67467
G1 X175.767 Y108.294 E18.68022
G1 X176.29 Y108.717 E18.68865
G1 X176.697 Y109.338 E18.69796
G1 X176.87 Y110.08 E18.70752
G1 X176.87 Y130.285 E18.9609
G1 X176.764 Y130.66 E18.96578
G0 F9000 X176.386 Y130.53
G1 F1800 X176.048 Y130.967 E18.97271
G1 X175.565 Y131.309 E18.98013
G1 X174.92 Y131.47 E18.98847
G1 X154.715 Y131.47 E19.24185
G1 X154.47 Y131.386 E19.2451
G1 X154.033 Y131.048 E19.25203
G1 X153.691 Y130.565 E19.25945
G1 X153.53 Y129.92 E19.26778
G1 X153.53 Y109.719 E19.52111
G1 X153.612 Y109.476 E19.52433
G1 X153.949 Y109.036 E19.53128
G1 X154.435 Y108.691 E19.53875
G1 X155.08 Y108.53 E19.54709
G1 X175.281 Y108.53 E19.80042
G1 X175.524 Y108.612 E19.80363
G1 X175.964 Y108.949 E19.81058
G1 X176.309 Y109.435 E19.81806
G1 X176.47 Y110.08 E19.82639
G1 X176.47 Y130.285 E20.07977
G1 X176.386 Y130.53 E20.08302
G0 F9000 X176.07 Y130.285
G1 F1800 X175.732 Y130.722 E20.08995
G1 X175.46 Y130.923 E20.09419
G1 X174.92 Y131.07 E20.10121
G1 X154.715 Y131.07 E20.35459
G1 X154.278 Y130.732 E20.36151
G1 X154.077 Y130.46 E20.36576
G1 X153.93 Y129.92 E20.37277
G1 X153.93 Y109.719 E20.6261
G1 X154.267 Y109.279 E20.63305
G1 X154.54 Y109.077 E20.63731
G1 X155.08 Y108.93 E20.64433
G1 X175.281 Y108.93 E20.89766
G1 X175.721 Y109.267 E20.90461
G1 X175.923 Y109.54 E20.90887
G1 X176.07 Y110.08 E20.91588
G1 X176.07 Y130.285 E21.16926
G0 F9000 X175.27 Y130.037
G1 F1800 X175.121 Y130.206 E21.17209
G1 X174.92 Y130.27 E21.17473
G1 X154.963 Y130.27 E21.425
G1 X154.794 Y130.121 E21.42783
G1 X154.73 Y129.92 E21.43047
G1 X154.73 Y109.963 E21.68074
G1 X154.879 Y109.794 E21.68357
G1 X155.08 Y109.73 E21.68621
G1 X175.037 Y109.73 E21.93648
G1 X175.206 Y109.879 E21.9393
G1 X175.27 Y110.08 E21.94195
G1 X175.27 Y130.037 E22.19222
G0 F9000 X175.67 Y130.162
G1 F1800 X175.421 Y130.471 E22.19719
G1 X175.242 Y130.587 E22.19987
G1 X174.92 Y130.67 E22.20404
G1 X154.838 Y130.67 E22.45587
G1 X154.529 Y130.421 E22.46085
G1 X154.413 Y130.242 E22.46353
G1 X154.33 Y129.92 E22.4677
G1 X154.33 Y109.84 E22.71951
G1 X154.579 Y109.529 E22.7245
G1 X154.758 Y109.413 E22.72718
G1 X155.08 Y109.33 E22.73135
G1 X175.16 Y109.33 E22.98316
G1 X175.471 Y109.579 E22.98815
G1 X175.587 Y109.758 E22.99083
G1 X175.67 Y110.08 E22.995
G1 X175.67 Y130.162 E23.24684
;MESH:20mm_calibration_cube.stl
G0 F9000 X174.506 Y129.506
G0 X174.72 Y129.72
;TYPE:WALL-OUTER
G1 F1800 X174.72 Y110.28 E23.515
G1 X155.28 Y110.28 E23.78316
G1 X155.28 Y129.72 E24.05132
G1 X174.72 Y129.72 E24.31949
G0 F9000 X174.72 Y128.92
G0 X174.32 Y129.32
;TYPE:WALL-INNER
G1 F1800 X174.32 Y110.68 E24.56376
G1 X155.68 Y110.68 E24.80803
G1 X155.68 Y129.32 E25.0523
G1 X174.32 Y129.32 E25.29657
G0 F9000 X174 Y129
;TYPE:SKIN
G1 F1800 X174 Y111 E25.52174
G1 X156 Y111 E25.7469
G1 X156 Y129 E25.97206
G1 X174 Y129 E26.19722
G1 F2700 E19.69722
G0 F9000 X174.3 Y129
G0 X174.228 Y110.772
G0 X173.425 Y110.7
G0 X173.425 Y111.2
G1 F2700 E26.19722
G1 F1800 X173.8 Y111.575 E26.20386
G0 F9000 X173.8 Y112.141
G1 F1800 X172.859 Y111.2 E26.2205
G0 F9000 X172.294 Y111.2
G1 F1800 X173.8 Y112.706 E26.24715
G0 F9000 X173.8 Y113.272
G1 F1800 X171.728 Y111.2 E26.2838
G0 F9000 X171.162 Y111.2
G1 F1800 X173.8 Y113.838 E26.33047
G0 F9000 X173.8 Y114.404
G1 F1800 X170.597 Y111.2 E26.38714
G0 F9000 X170.031 Y111.2
G1 F1800 X173.8 Y114.969 E26.45381
G0 F9000 X173.8 Y115.535
G1 F1800 X169.465 Y111.2 E26.5305
G0 F9000 X168.9 Y111.2
G1 F1800 X173.8 Y116.101 E26.61719
G0 F9000 X173.8 Y116.666
G1 F1800 X168.334 Y111.2 E26.71389
G0 F9000 X167.768 Y111.2
G1 F1800 X173.8 Y117.232 E26.8206
G0 F9000 X173.8 Y117.798
G1 F1800 X167.202 Y111.2 E26.93732
G0 F9000 X166.637 Y111.2
G1 F1800 X173.8 Y118.363 E27.06404
G0 F9000 X173.8 Y118.929
G1 F1800 X166.071 Y111.2 E27.20077
G0 F9000 X165.505 Y111.2
G1 F1800 X173.8 Y119.495 E27.34751
G0 F9000 X173.8 Y120.06
G1 F1800 X164.94 Y111.2 E27.50424
G0 F9000 X164.374 Y111.2
G1 F1800 X173.8 Y120.626 E27.67099
G0 F9000 X173.8 Y121.192
G1 F1800 X163.808 Y111.2 E27.84776
G0 F9000 X163.243 Y111.2
G1 F1800 X173.8 Y121.757 E28.03452
G0 F9000 X173.8 Y122.323
G1 F1800 X162.677 Y111.2 E28.23129
G0 F9000 X162.111 Y111.2
G1 F1800 X173.8 Y122.889 E28.43807
G0 F9000 X173.8 Y123.454
G1 F1800 X161.546 Y111.2 E28.65485
G0 F9000 X160.98 Y111.2
G1 F1800 X173.8 Y124.02 E28.88164
G0 F9000 X173.8 Y124.586
G1 F1800 X160.414 Y111.2 E29.11844
G0 F9000 X159.849 Y111.2
G1 F1800 X173.8 Y125.152 E29.36525
G0 F9000 X173.8 Y125.717
G1 F1800 X159.283 Y111.2 E29.62206
G0 F9000 X158.717 Y111.2
G1 F1800 X173.8 Y126.283 E29.88889
G0 F9000 X173.8 Y126.849
G1 F1800 X158.152 Y111.2 E30.16572
G0 F9000 X157.586 Y111.2
G1 F1800 X173.8 Y127.414 E30.45255
G0 F9000 X173.8 Y127.98
G1 F1800 X157.02 Y111.2 E30.74939
G0 F9000 X156.454 Y111.2
G1 F1800 X173.8 Y128.546 E31.05625
G0 F9000 X173.489 Y128.8
G1 F1800 X156.2 Y111.511 E31.3621
G0 F9000 X156.2 Y112.076
G1 F1800 X172.923 Y128.8 E31.65795
G0 F9000 X172.357 Y128.8
G1 F1800 X156.2 Y112.642 E31.94378
G0 F9000 X156.2 Y113.208
G1 F1800 X171.792 Y128.8 E32.21961
G0 F9000 X171.226 Y128.8
G1 F1800 X156.2 Y113.773 E32.48544
G0 F9000 X156.2 Y114.339
G1 F1800 X170.66 Y128.8 E32.74125
G0 F9000 X170.095 Y128.8
G1 F1800 X156.2 Y114.905 E32.98706
G0 F9000 X156.2 Y115.471
G1 F1800 X169.529 Y128.8 E33.22285
G0 F9000 X168.963 Y128.8
G1 F1800 X156.2 Y116.036 E33.44864
G0 F9000 X156.2 Y116.602
G1 F1800 X168.397 Y128.8 E33.66442
G0 F9000 X167.832 Y128.8
G1 F1800 X156.2 Y117.168 E33.8702
G0 F9000 X156.2 Y117.733
G1 F1800 X167.266 Y128.8 E34.06597
G0 F9000 X166.7 Y128.8
G1 F1800 X156.2 Y118.299 E34.25173
G0 F9000 X156.2 Y118.865
G1 F1800 X166.135 Y128.8 E34.42748
G0 F9000 X165.569 Y128.8
G1 F1800 X156.2 Y119.43 E34.59323
G0 F9000 X156.2 Y119.996
G1 F1800 X165.003 Y128.8 E34.74897
G0 F9000 X164.438 Y128.8
G1 F1800 X156.2 Y120.562 E34.8947
G0 F9000 X156.2 Y121.127
G1 F1800 X163.872 Y128.8 E35.03043
G0 F9000 X163.306 Y128.8
G1 F1800 X156.2 Y121.693 E35.15615
G0 F9000 X156.2 Y122.259
G1 F1800 X162.741 Y128.8 E35.27186
G0 F9000 X162.175 Y128.8
G1 F1800 X156.2 Y122.824 E35.37757
G0 F9000 X156.2 Y123.39
G1 F1800 X161.609 Y128.8 E35.47327
G0 F9000 X161.044 Y128.8
G1 F1800 X156.2 Y123.956 E35.55896
G0 F9000 X156.2 Y124.522
G1 F1800 X160.478 Y128.8 E35.63464
G0 F9000 X159.912 Y128.8
G1 F1800 X156.2 Y125.087 E35.70032
G0 F9000 X156.2 Y125.653
G1 F1800 X159.347 Y128.8 E35.75599
G0 F9000 X158.781 Y128.8
G1 F1800 X156.2 Y126.219 E35.80165
G0 F9000 X156.2 Y126.784
G1 F1800 X158.215 Y128.8 E35.8373
G0 F9000 X157.649 Y128.8
