;FLAVOR:Marlin
;TIME:11254
;Filament used: 7.68219m
;Layer height: 0.2
;MINX:57.26
;MINY:78.214
;MINZ:0.2
;MAXX:171
;MAXY:184.067
;MAXZ:33
;Generated with Cura_SteamEngine 5.4.0
M82 ;absolute extrusion mode
; Ender 3 S1 Plus Start G-code
; M413 S0 ; Disable power loss recovery
G92 E0 ; Reset Extruder

; Prep surfaces before auto home for better accuracy
M140 S60
M104 S200

G28 O ; Home all untrusted axes
G1 Z10.0 F3000 ; Move Z Axis up little to prevent scratching of Heat Bed
G1 X0 Y0

M190 S60
M109 S200

G1 X0.1 Y20 Z0.3 F5000.0 ; Move to start position
G1 X0.1 Y200.0 Z0.3 F1500.0 E15 ; Draw the first line
G1 X0.4 Y200.0 Z0.3 F5000.0 ; Move to side a little
G1 X0.4 Y20 Z0.3 F1500.0 E30 ; Draw the second line
G92 E0 ; Reset Extruder
G1 Z2.0 F3000 ; Move Z Axis up little to prevent scratching of Heat Bed
G1 X5 Y20 Z0.3 F5000.0 ; Move over to prevent blob squish

G92 E0
G92 E0
G1 F2400 E-0.8
;LAYER_COUNT:165
;LAYER:0
M107
M204 S2000
G0 F7500 X61.45 Y80.593 Z0.2
M204 S500
;TYPE:SKIRT
G1 F2400 E0
G1 F1500 X62.241 Y80.022 E0.03245
G1 X63.017 Y79.559 E0.0625
G1 X63.957 Y79.106 E0.09721
G1 X64.869 Y78.764 E0.1296
G1 X65.807 Y78.504 E0.16198
G1 X66.774 Y78.326 E0.19468
G1 X67.915 Y78.23 E0.23276
G1 X68.59 Y78.215 E0.25522
G1 X104.062 Y78.214 E1.43502
G1 X104.947 Y78.227 E1.46446
G1 X105.918 Y78.286 E1.49682
G1 X106.882 Y78.432 E1.52925
G1 X107.829 Y78.663 E1.56167
G1 X108.685 Y78.951 E1.59171
G1 X109.641 Y79.369 E1.62641
G1 X110.492 Y79.839 E1.65874
G1 X111.243 Y80.341 E1.68879
G1 X112.058 Y80.999 E1.72363
G1 X112.756 Y81.677 E1.75599
G1 X113.388 Y82.409 E1.78816
G1 X113.861 Y83.054 E1.81476
G1 X114.894 Y84.597 E1.87652
G1 X116.359 Y86.692 E1.96155
G1 X117.848 Y88.702 E2.04475
G1 X119.385 Y90.656 E2.12743
G1 X121.013 Y92.607 E2.21195
G1 X122.696 Y94.515 E2.29657
G1 X124.392 Y96.332 E2.37924
G1 X126.171 Y98.131 E2.46339
G1 X127.979 Y99.859 E2.54657
G1 X129.848 Y101.548 E2.63035
G1 X131.776 Y103.192 E2.71463
G1 X133.706 Y104.746 E2.79704
G1 X135.744 Y106.294 E2.88216
G1 X137.785 Y107.756 E2.96567
G1 X139.861 Y109.155 E3.04893
G1 X142.019 Y110.523 E3.13391
G1 X144.176 Y111.805 E3.21737
G1 X146.35 Y113.019 E3.30019
G1 X148.733 Y114.256 E3.38949
G1 X151.054 Y115.375 E3.47519
G1 X153.131 Y116.309 E3.55093
G1 X154.421 Y116.873 E3.59776
G1 X155.294 Y117.304 E3.63014
G1 X156.133 Y117.815 E3.66281
G1 X157.072 Y118.521 E3.70189
G1 X158.415 Y119.649 E3.76022
G1 X160.363 Y121.22 E3.84346
G1 X162.398 Y122.766 E3.92846
G1 X164.446 Y124.232 E4.01223
G1 X166.207 Y125.432 E4.08311
G1 X166.984 Y126.017 E4.11545
G1 X167.707 Y126.669 E4.14784
G1 X168.371 Y127.382 E4.18024
G1 X168.968 Y128.152 E4.21265
G1 X169.495 Y128.971 E4.24504
G1 X169.947 Y129.833 E4.27741
G1 X170.321 Y130.732 E4.3098
G1 X170.614 Y131.66 E4.34216
G1 X170.826 Y132.61 E4.37454
G1 X170.945 Y133.505 E4.40457
G1 X170.985 Y134.173 E4.42683
G1 X171 Y134.83 E4.44868
G1 X170.999 Y164.95 E5.45048
G1 X170.987 Y165.687 E5.47499
G1 X170.928 Y166.659 E5.50738
G1 X170.782 Y167.622 E5.53978
G1 X170.551 Y168.569 E5.5722
G1 X170.238 Y169.49 E5.60455
G1 X169.844 Y170.382 E5.63699
G1 X169.373 Y171.235 E5.66939
G1 X168.829 Y172.041 E5.70174
G1 X168.215 Y172.798 E5.73416
G1 X167.537 Y173.496 E5.76652
G1 X166.805 Y174.129 E5.79871
G1 X166.167 Y174.597 E5.82502
G1 X165.366 Y175.139 E5.85719
G1 X163.205 Y176.647 E5.94484
G1 X161.215 Y178.121 E6.0272
G1 X159.217 Y179.691 E6.11172
G1 X157.026 Y181.517 E6.20658
G1 X156.235 Y182.115 E6.23956
G1 X155.44 Y182.615 E6.2708
G1 X154.542 Y183.073 E6.30433
G1 X153.638 Y183.437 E6.33674
G1 X152.775 Y183.7 E6.36675
G1 X151.751 Y183.915 E6.40155
G1 X150.829 Y184.024 E6.43243
G1 X150.327 Y184.052 E6.44915
G1 X149.67 Y184.067 E6.47101
G1 X140.55 Y184.066 E6.77434
G1 X139.814 Y184.054 E6.79882
G1 X138.842 Y183.995 E6.83121
G1 X137.879 Y183.849 E6.86361
G1 X136.931 Y183.618 E6.89606
G1 X136.075 Y183.33 E6.9261
G1 X135.119 Y182.911 E6.96082
G1 X134.266 Y182.44 E6.99322
G1 X133.484 Y181.914 E7.02457
G1 X132.536 Y181.132 E7.06544
G1 X131.198 Y179.877 E7.12646
G1 X129.324 Y178.181 E7.21052
G1 X127.435 Y176.567 E7.29316
G1 X125.454 Y174.968 E7.37784
G1 X123.476 Y173.465 E7.46046
G1 X121.416 Y171.987 E7.54479
G1 X119.321 Y170.572 E7.62887
G1 X117.235 Y169.248 E7.71105
G1 X115.032 Y167.936 E7.79633
G1 X112.863 Y166.725 E7.87896
G1 X110.608 Y165.549 E7.96354
G1 X108.357 Y164.455 E8.04679
G1 X106.033 Y163.404 E8.13162
G1 X103.735 Y162.444 E8.21445
G1 X101.336 Y161.521 E8.29995
G1 X99.059 Y160.718 E8.38025
G1 X96.591 Y159.925 E8.46647
G1 X94.205 Y159.23 E8.54913
G1 X91.749 Y158.593 E8.63352
G1 X89.298 Y158.028 E8.71717
G1 X86.826 Y157.532 E8.80103
G1 X84.37 Y157.113 E8.8839
G1 X81.861 Y156.755 E8.96819
G1 X79.365 Y156.473 E9.05174
G1 X76.861 Y156.257 E9.13533
G1 X74.407 Y156.12 E9.21708
G1 X70.438 Y156.036 E9.34912
G1 X68.809 Y156.035 E9.4033
G1 X68.076 Y156.023 E9.42768
G1 X67.104 Y155.964 E9.46007
G1 X66.141 Y155.818 E9.49247
G1 X65.194 Y155.587 E9.52489
G1 X64.306 Y155.287 E9.55606
G1 X63.414 Y154.897 E9.58844
G1 X62.531 Y154.41 E9.62198
G1 X61.78 Y153.908 E9.65203
G1 X60.965 Y153.25 E9.68687
G1 X60.267 Y152.572 E9.71923
G1 X59.631 Y151.835 E9.75161
G1 X59.061 Y151.045 E9.78401
G1 X58.599 Y150.269 E9.81405
G1 X58.145 Y149.327 E9.84883
G1 X57.816 Y148.449 E9.88001
G1 X57.547 Y147.476 E9.91359
G1 X57.37 Y146.509 E9.94629
G1 X57.274 Y145.344 E9.98516
G1 X57.26 Y144.694 E10.00679
G1 X57.261 Y123.085 E10.72551
G1 X57.273 Y122.356 E10.74976
G1 X57.322 Y121.482 E10.77887
G1 X57.522 Y119.57 E10.84281
G1 X57.738 Y117.052 E10.92687
G1 X57.878 Y114.545 E11.01038
G1 X57.95 Y112.005 E11.0949
G1 X57.95 Y109.493 E11.17845
G1 X57.878 Y106.957 E11.26283
G1 X57.738 Y104.518 E11.34408
G1 X57.517 Y101.913 E11.43104
G1 X57.332 Y100.204 E11.48821
G1 X57.276 Y99.399 E11.51505
G1 X57.262 Y98.802 E11.53491
G1 X57.26 Y89.893 E11.83123
G1 X57.272 Y89.042 E11.85953
G1 X57.33 Y88.07 E11.89192
G1 X57.475 Y87.106 E11.92434
G1 X57.705 Y86.16 E11.95672
G1 X58.017 Y85.238 E11.9891
G1 X58.41 Y84.347 E12.02149
G1 X58.88 Y83.494 E12.05388
G1 X59.423 Y82.686 E12.08626
G1 X59.989 Y81.982 E12.1163
G1 X60.715 Y81.229 E12.15109
G1 X61.45 Y80.593 E12.18342
M204 S2000
G0 F7500 X61.685 Y80.917
M204 S500
G1 F1500 X62.446 Y80.366 E12.21467
G1 X63.222 Y79.903 E12.24472
G1 X64.098 Y79.48 E12.27708
G1 X64.976 Y79.149 E12.30829
G1 X65.88 Y78.897 E12.3395
G1 X66.808 Y78.725 E12.37089
G1 X67.949 Y78.629 E12.40898
G1 X68.59 Y78.615 E12.4303
G1 X104.056 Y78.614 E13.6099
G1 X104.923 Y78.626 E13.63874
G1 X105.859 Y78.682 E13.66993
G1 X106.788 Y78.821 E13.70117
G1 X107.701 Y79.042 E13.73242
G1 X108.557 Y79.33 E13.76246
G1 X109.448 Y79.72 E13.79481
G1 X110.27 Y80.172 E13.82601
G1 X111.021 Y80.674 E13.85605
G1 X111.78 Y81.286 E13.88848
G1 X112.454 Y81.939 E13.91969
G1 X113.066 Y82.646 E13.95079
G1 X113.529 Y83.277 E13.97682
G1 X114.566 Y84.826 E14.03882
G1 X116.031 Y86.921 E14.12385
G1 X117.534 Y88.949 E14.20781
G1 X119.078 Y90.912 E14.29087
G1 X120.713 Y92.872 E14.37577
G1 X122.396 Y94.78 E14.46039
G1 X124.1 Y96.605 E14.54343
G1 X125.895 Y98.42 E14.62834
G1 X127.711 Y100.156 E14.71189
G1 X129.588 Y101.852 E14.79603
G1 X131.525 Y103.504 E14.88071
G1 X133.464 Y105.065 E14.9635
G1 X135.502 Y106.613 E15.04862
G1 X137.561 Y108.088 E15.13286
G1 X139.637 Y109.487 E15.21613
G1 X141.806 Y110.862 E15.30154
G1 X143.971 Y112.149 E15.38531
G1 X146.166 Y113.374 E15.46892
G1 X148.559 Y114.616 E15.55859
G1 X150.89 Y115.74 E15.64466
G1 X152.971 Y116.676 E15.72056
G1 X154.245 Y117.232 E15.76679
G1 X155.087 Y117.646 E15.798
G1 X155.893 Y118.135 E15.82935
G1 X156.815 Y118.827 E15.86769
G1 X158.164 Y119.96 E15.92629
G1 X160.121 Y121.538 E16.0099
G1 X162.165 Y123.091 E16.09528
G1 X164.221 Y124.563 E16.17938
G1 X165.967 Y125.752 E16.24964
G1 X166.717 Y126.315 E16.28083
G1 X167.415 Y126.942 E16.31204
G1 X168.055 Y127.628 E16.34325
G1 X168.632 Y128.369 E16.37448
G1 X169.141 Y129.157 E16.40568
G1 X169.578 Y129.987 E16.43688
G1 X169.94 Y130.853 E16.4681
G1 X170.224 Y131.747 E16.4993
G1 X170.429 Y132.663 E16.53052
G1 X170.548 Y133.558 E16.56055
G1 X170.585 Y134.182 E16.58134
G1 X170.6 Y134.83 E16.6029
G1 X170.599 Y164.944 E17.60449
G1 X170.588 Y165.663 E17.62841
G1 X170.532 Y166.6 E17.65963
G1 X170.393 Y167.528 E17.69084
G1 X170.172 Y168.441 E17.72208
G1 X169.872 Y169.329 E17.75326
G1 X169.494 Y170.189 E17.7845
G1 X169.041 Y171.012 E17.81575
G1 X168.518 Y171.79 E17.84693
G1 X167.928 Y172.52 E17.87815
G1 X167.275 Y173.194 E17.90936
G1 X166.568 Y173.806 E17.94046
G1 X165.93 Y174.274 E17.96678
G1 X165.137 Y174.811 E17.99863
G1 X162.976 Y176.319 E18.08628
G1 X160.968 Y177.806 E18.16938
G1 X158.97 Y179.376 E18.2539
G1 X156.784 Y181.198 E18.34855
G1 X156.022 Y181.776 E18.38036
G1 X155.227 Y182.276 E18.4116
G1 X154.392 Y182.702 E18.44277
G1 X153.521 Y183.054 E18.47402
G1 X152.658 Y183.317 E18.50403
G1 X151.704 Y183.518 E18.53645
G1 X150.807 Y183.625 E18.5665
G1 X150.318 Y183.652 E18.58279
G1 X149.67 Y183.667 E18.60435
G1 X140.556 Y183.666 E18.90748
G1 X139.838 Y183.655 E18.93136
G1 X138.901 Y183.599 E18.96258
G1 X137.973 Y183.46 E18.99379
G1 X137.059 Y183.239 E19.02507
G1 X136.203 Y182.951 E19.05511
G1 X135.312 Y182.561 E19.08746
G1 X134.489 Y182.108 E19.1187
G1 X133.739 Y181.605 E19.14874
G1 X132.791 Y180.823 E19.18961
G1 X131.472 Y179.585 E19.24978
G1 X129.592 Y177.884 E19.3341
G1 X127.695 Y176.263 E19.4171
G1 X125.705 Y174.657 E19.50215
G1 X123.709 Y173.14 E19.58553
G1 X121.649 Y171.662 E19.66986
G1 X119.535 Y170.234 E19.75471
G1 X117.44 Y168.904 E19.83725
G1 X115.237 Y167.592 E19.92253
G1 X113.048 Y166.37 E20.00591
G1 X110.793 Y165.194 E20.0905
G1 X108.522 Y164.09 E20.17449
G1 X106.198 Y163.04 E20.2593
G1 X103.889 Y162.075 E20.34254
G1 X101.48 Y161.148 E20.42839
G1 X99.181 Y160.337 E20.50947
G1 X96.713 Y159.544 E20.59569
G1 X94.312 Y158.845 E20.67887
G1 X91.839 Y158.203 E20.76385
G1 X89.388 Y157.638 E20.8475
G1 X86.905 Y157.14 E20.93173
G1 X84.427 Y156.717 E21.01534
G1 X81.918 Y156.359 E21.09964
G1 X79.399 Y156.074 E21.18396
G1 X76.895 Y155.859 E21.26755
G1 X74.415 Y155.72 E21.35016
G1 X70.446 Y155.636 E21.4822
G1 X68.815 Y155.635 E21.53645
G1 X68.1 Y155.624 E21.56023
G1 X67.163 Y155.568 E21.59145
G1 X66.235 Y155.429 E21.62266
G1 X65.322 Y155.208 E21.6539
G1 X64.466 Y154.92 E21.68394
G1 X63.574 Y154.53 E21.71632
G1 X62.753 Y154.077 E21.74751
G1 X62.002 Y153.575 E21.77755
G1 X61.243 Y152.963 E21.80998
G1 X60.569 Y152.31 E21.8412
G1 X59.955 Y151.601 E21.87239
G1 X59.405 Y150.84 E21.90362
G1 X58.943 Y150.064 E21.93366
G1 X58.52 Y149.187 E21.96604
G1 X58.191 Y148.309 E21.99723
G1 X57.94 Y147.404 E22.02847
G1 X57.769 Y146.476 E22.05985
G1 X57.673 Y145.311 E22.09873
G1 X57.66 Y144.694 E22.11926
G1 X57.661 Y123.091 E22.83777
G1 X57.672 Y122.378 E22.86149
G1 X57.72 Y121.521 E22.89004
G1 X57.83 Y120.409 E22.92721
G1 X57.921 Y119.604 E22.95415
G1 X58.136 Y117.086 E23.03821
G1 X58.278 Y114.556 E23.12249
G1 X58.35 Y112.016 E23.207
G1 X58.35 Y109.493 E23.29092
G1 X58.278 Y106.946 E23.37566
G1 X58.137 Y104.484 E23.45768
G1 X57.916 Y101.879 E23.54464
G1 X57.731 Y100.176 E23.60161
G1 X57.676 Y99.389 E23.62785
G1 X57.662 Y98.802 E23.64738
G1 X57.66 Y89.898 E23.94353
G1 X57.671 Y89.065 E23.97124
G1 X57.726 Y88.129 E24.00242
G1 X57.864 Y87.2 E24.03366
G1 X58.084 Y86.288 E24.06486
G1 X58.383 Y85.399 E24.09606
G1 X58.761 Y84.539 E24.1273
G1 X59.212 Y83.717 E24.15849
G1 X59.735 Y82.937 E24.18972
G1 X60.301 Y82.233 E24.21977
G1 X60.977 Y81.531 E24.25218
G1 X61.685 Y80.917 E24.28335
M204 S2000
G0 F7500 X61.92 Y81.241
M204 S500
G1 F1500 X62.651 Y80.71 E24.3134
G1 X63.427 Y80.247 E24.34346
G1 X64.24 Y79.854 E24.37349
G1 X65.084 Y79.534 E24.40351
G1 X65.954 Y79.29 E24.43357
G1 X66.842 Y79.124 E24.46361
G1 X67.983 Y79.028 E24.5017
G1 X68.59 Y79.015 E24.52189
G1 X104.051 Y79.014 E25.70133
G1 X104.9 Y79.025 E25.72957
G1 X105.801 Y79.078 E25.75959
G1 X106.695 Y79.21 E25.78964
G1 X107.573 Y79.421 E25.81968
G1 X108.429 Y79.709 E25.84972
G1 X109.256 Y80.071 E25.87974
G1 X110.048 Y80.505 E25.90978
G1 X110.799 Y81.007 E25.93983
G1 X111.502 Y81.574 E25.96987
G1 X112.152 Y82.201 E25.9999
G1 X112.744 Y82.883 E26.02994
G1 X113.198 Y83.501 E26.05545
G1 X113.862 Y84.482 E26.09485
G1 X114.238 Y85.055 E26.11764
G1 X115.703 Y87.15 E26.20267
G1 X117.22 Y89.196 E26.28738
G1 X118.771 Y91.168 E26.37083
G1 X120.413 Y93.137 E26.4561
G1 X122.096 Y95.045 E26.54072
G1 X123.808 Y96.878 E26.62414
G1 X125.619 Y98.709 E26.7098
G1 X127.443 Y100.453 E26.79373
G1 X129.328 Y102.156 E26.87822
G1 X131.274 Y103.816 E26.9633
G1 X133.222 Y105.384 E27.04647
G1 X135.26 Y106.932 E27.13159
G1 X137.337 Y108.42 E27.21657
G1 X139.413 Y109.819 E27.29983
G1 X141.593 Y111.201 E27.38568
G1 X143.766 Y112.493 E27.46977
G1 X145.982 Y113.729 E27.55416
G1 X148.385 Y114.976 E27.64421
G1 X150.726 Y116.105 E27.73065
G1 X152.811 Y117.043 E27.80669
G1 X154.069 Y117.591 E27.85233
G1 X154.88 Y117.988 E27.88236
G1 X155.653 Y118.455 E27.9124
G1 X156.558 Y119.133 E27.95001
G1 X157.913 Y120.271 E28.00887
G1 X159.879 Y121.856 E28.09286
G1 X161.932 Y123.416 E28.17862
G1 X163.996 Y124.894 E28.26305
G1 X165.727 Y126.072 E28.33269
G1 X166.45 Y126.613 E28.36273
G1 X167.123 Y127.215 E28.39276
G1 X167.74 Y127.874 E28.42279
G1 X168.296 Y128.586 E28.45283
G1 X168.787 Y129.344 E28.48287
G1 X169.209 Y130.142 E28.5129
G1 X169.559 Y130.975 E28.54295
G1 X169.834 Y131.835 E28.57298
G1 X170.032 Y132.716 E28.60301
G1 X170.151 Y133.611 E28.63304
G1 X170.185 Y134.191 E28.65236
G1 X170.2 Y134.83 E28.67362
G1 X170.199 Y164.938 E29.67502
G1 X170.189 Y165.64 E29.69837
G1 X170.136 Y166.542 E29.72842
G1 X170.004 Y167.435 E29.75845
G1 X169.793 Y168.313 E29.78848
G1 X169.505 Y169.169 E29.81852
G1 X169.143 Y169.997 E29.84858
G1 X168.709 Y170.789 E29.87861
G1 X168.206 Y171.539 E29.90865
G1 X167.64 Y172.242 E29.93867
G1 X167.013 Y172.892 E29.96871
G1 X166.331 Y173.484 E29.99874
G1 X165.706 Y173.943 E30.02453
G1 X164.908 Y174.483 E30.05658
G1 X162.747 Y175.991 E30.14423
G1 X160.721 Y177.491 E30.22807
G1 X158.723 Y179.061 E30.31259
G1 X156.528 Y180.891 E30.40764
G1 X155.809 Y181.438 E30.43768
G1 X155.045 Y181.92 E30.46773
G1 X154.241 Y182.331 E30.49776
G1 X153.404 Y182.671 E30.52781
G1 X152.541 Y182.934 E30.55782
G1 X151.657 Y183.121 E30.58787
G1 X150.76 Y183.228 E30.61792
G1 X150.309 Y183.252 E30.63294
G1 X149.67 Y183.267 E30.6542
G1 X140.562 Y183.266 E30.95713
G1 X139.861 Y183.256 E30.98045
G1 X138.959 Y183.203 E31.0105
G1 X138.066 Y183.071 E31.04052
G1 X137.187 Y182.86 E31.07059
G1 X136.331 Y182.572 E31.10063
G1 X135.504 Y182.21 E31.13065
G1 X134.712 Y181.776 E31.16069
G1 X133.962 Y181.273 E31.19073
G1 X133.065 Y180.531 E31.22945
G1 X131.746 Y179.293 E31.28961
G1 X129.86 Y177.587 E31.3742
G1 X127.955 Y175.959 E31.45754
G1 X125.956 Y174.346 E31.54298
G1 X123.942 Y172.815 E31.62712
G1 X121.882 Y171.337 E31.71145
G1 X119.749 Y169.896 E31.79706
G1 X117.645 Y168.56 E31.87996
G1 X115.442 Y167.248 E31.96524
G1 X113.233 Y166.015 E32.04938
G1 X110.978 Y164.839 E32.13397
G1 X108.687 Y163.725 E32.2187
G1 X106.363 Y162.676 E32.3035
G1 X104.043 Y161.706 E32.38714
G1 X101.624 Y160.775 E32.47335
G1 X99.303 Y159.956 E32.55521
G1 X96.835 Y159.163 E32.64143
G1 X94.419 Y158.46 E32.72512
G1 X91.929 Y157.813 E32.81069
G1 X89.478 Y157.248 E32.89435
G1 X86.984 Y156.748 E32.97895
G1 X84.484 Y156.321 E33.0633
G1 X81.975 Y155.963 E33.1476
G1 X79.433 Y155.675 E33.23269
G1 X76.929 Y155.461 E33.31627
G1 X74.423 Y155.32 E33.39976
G1 X70.454 Y155.236 E33.53179
G1 X68.821 Y155.235 E33.58611
G1 X68.123 Y155.225 E33.60933
G1 X67.221 Y155.172 E33.63938
G1 X66.328 Y155.04 E33.6694
G1 X65.45 Y154.829 E33.69944
G1 X64.594 Y154.541 E33.72948
G1 X63.767 Y154.179 E33.7595
G1 X62.975 Y153.744 E33.78955
G1 X62.224 Y153.242 E33.8196
G1 X61.521 Y152.675 E33.84964
G1 X60.871 Y152.048 E33.87968
G1 X60.279 Y151.366 E33.90971
G1 X59.749 Y150.635 E33.93975
G1 X59.287 Y149.859 E33.96978
G1 X58.894 Y149.046 E33.99982
G1 X58.576 Y148.201 E34.02985
G1 X58.333 Y147.331 E34.05989
G1 X58.168 Y146.443 E34.08993
G1 X58.073 Y145.302 E34.12801
G1 X58.06 Y144.694 E34.14824
G1 X58.061 Y123.097 E34.86656
G1 X58.071 Y122.4 E34.88974
G1 X58.118 Y121.56 E34.91772
G1 X58.227 Y120.454 E34.95469
G1 X58.32 Y119.638 E34.982
