;FLAVOR:Marlin
;TIME:3436
;Filament used: 2.18138m
;Layer height: 0.2
;MINX:120.401
;MINY:121.5
;MINZ:0.2
;MAXX:179.641
;MAXY:178.5
;MAXZ:23
;Generated with Cura_SteamEngine 5.4.0
M82 ;absolute extrusion mode
; Ender 3 S1 Plus Start G-code
; M413 S0 ; Disable power loss recovery
G92 E0 ; Reset Extruder

; Prep surfaces before auto home for better accuracy
M140 S60
M104 S200

G28 O ; Home all untrusted axes
G1 Z10.0 F3000 ; Move Z Axis up little to prevent scratching of Heat Bed
G1 X0 Y0

M190 S60
M109 S200

G1 X0.1 Y20 Z0.3 F5000.0 ; Move to start position
G1 X0.1 Y200.0 Z0.3 F1500.0 E15 ; Draw the first line
G1 X0.4 Y200.0 Z0.3 F5000.0 ; Move to side a little
G1 X0.4 Y20 Z0.3 F1500.0 E30 ; Draw the second line
G92 E0 ; Reset Extruder
G1 Z2.0 F3000 ; Move Z Axis up little to prevent scratching of Heat Bed
G1 X5 Y20 Z0.3 F5000.0 ; Move over to prevent blob squish

G92 E0
G92 E0
G1 F2400 E-0.8
;LAYER_COUNT:115
;LAYER:0
M107
M204 S2000
G0 F7500 X131.719 Y124.523 Z0.2
M204 S500
;TYPE:SKIRT
G1 F2400 E0
G1 F1500 X133.28 Y123.064 E0.07107
G1 X135.303 Y121.857 E0.14942
G1 X137.021 Y121.575 E0.20732
G1 X162.853 Y121.5 E1.0665
G1 X164.749 Y121.966 E1.13144
G1 X166.777 Y123.019 E1.20744
G1 X168.236 Y124.58 E1.27851
G1 X169.443 Y126.603 E1.35686
G1 X169.725 Y128.321 E1.41477
G1 X169.784 Y138.412 E1.7504
G1 X172.664 Y139.222 E1.84991
G1 X174.583 Y140.222 E1.92188
G1 X177.35 Y143.124 E2.05524
G1 X178.398 Y144.776 E2.12031
G1 X179.458 Y148.413 E2.24631
G1 X179.641 Y150.641 E2.32066
G1 X178.501 Y154.689 E2.46054
G1 X177.538 Y156.513 E2.52914
G1 X174.796 Y159.255 E2.65812
G1 X172.995 Y160.414 E2.72935
G1 X169.8 Y161.301 E2.83963
G1 X169.8 Y171.553 E3.18062
G1 X169.334 Y173.449 E3.24556
G1 X168.281 Y175.477 E3.32156
G1 X166.72 Y176.936 E3.39262
G1 X164.697 Y178.143 E3.47098
G1 X162.979 Y178.425 E3.52888
G1 X137.147 Y178.5 E4.38806
G1 X135.251 Y178.034 E4.453
G1 X133.223 Y176.981 E4.529
G1 X131.764 Y175.42 E4.60007
G1 X130.557 Y173.397 E4.67842
G1 X130.275 Y171.679 E4.73632
G1 X130.215 Y161.326 E5.08067
G1 X127.353 Y160.488 E5.17986
G1 X125.537 Y159.509 E5.24848
G1 X122.761 Y156.733 E5.37905
G1 X121.623 Y154.961 E5.4491
G1 X120.564 Y151.348 E5.57432
G1 X120.401 Y148.984 E5.65313
G1 X121.527 Y145.146 E5.78617
G1 X122.408 Y143.46 E5.84944
G1 X125.069 Y140.649 E5.97818
G1 X126.832 Y139.414 E6.04977
G1 X130.2 Y138.472 E6.16609
G1 X130.2 Y128.447 E6.49952
G1 X130.666 Y126.551 E6.56446
G1 X131.719 Y124.523 E6.64046
M204 S2000
G0 F7500 X132.042 Y124.768
M204 S500
G1 F1500 X133.519 Y123.388 E6.7077
G1 X135.443 Y122.24 E6.78221
G1 X137.086 Y121.97 E6.83759
G1 X162.807 Y121.9 E7.69308
G1 X164.606 Y122.342 E7.75469
G1 X166.532 Y123.342 E7.82687
G1 X167.912 Y124.819 E7.8941
G1 X169.06 Y126.743 E7.96862
G1 X169.33 Y128.386 E8.024
G1 X169.386 Y138.715 E8.36755
G1 X172.514 Y139.595 E8.47563
G1 X174.339 Y140.546 E8.54407
G1 X177.034 Y143.373 E8.67398
G1 X178.03 Y144.943 E8.73582
G1 X179.062 Y148.484 E8.85849
G1 X179.236 Y150.603 E8.92921
G1 X178.128 Y154.538 E9.06518
G1 X177.212 Y156.273 E9.13043
G1 X174.541 Y158.944 E9.25607
G1 X172.83 Y160.045 E9.32374
G1 X169.4 Y160.997 E9.44213
G1 X169.4 Y171.507 E9.7917
G1 X168.958 Y173.306 E9.85331
G1 X167.958 Y175.232 E9.92549
G1 X166.481 Y176.612 E9.99272
G1 X164.557 Y177.76 E10.06724
G1 X162.914 Y178.03 E10.12262
G1 X137.193 Y178.1 E10.97811
G1 X135.394 Y177.658 E11.03972
G1 X133.468 Y176.658 E11.1119
G1 X132.088 Y175.181 E11.17913
G1 X130.94 Y173.257 E11.25365
G1 X130.67 Y171.614 E11.30903
G1 X130.613 Y161.026 E11.66119
G1 X127.506 Y160.116 E11.76887
G1 X125.779 Y159.185 E11.83413
G1 X123.075 Y156.481 E11.96132
G1 X121.991 Y154.793 E12.02804
G1 X120.96 Y151.276 E12.14994
G1 X120.805 Y149.029 E12.22485
G1 X121.9 Y145.297 E12.35421
G1 X122.738 Y143.693 E12.4144
G1 X125.328 Y140.957 E12.53971
G1 X127.008 Y139.78 E12.60793
G1 X130.6 Y138.775 E12.73199
G1 X130.6 Y128.493 E13.07397
G1 X131.042 Y126.694 E13.13559
G1 X132.042 Y124.768 E13.20777
M204 S2000
G0 F7500 X132.365 Y125.013
M204 S500
G1 F1500 X133.761 Y123.709 E13.2713
G1 X135.581 Y122.623 E13.34179
G1 X137.151 Y122.365 E13.39471
G1 X162.76 Y122.3 E14.24647
G1 X164.464 Y122.719 E14.30484
G1 X166.287 Y123.665 E14.37315
G1 X167.591 Y125.061 E14.43669
G1 X168.677 Y126.881 E14.50718
G1 X168.935 Y128.451 E14.5601
G1 X168.988 Y139.018 E14.91156
G1 X172.364 Y139.968 E15.02821
G1 X174.095 Y140.87 E15.09313
G1 X176.718 Y143.622 E15.21958
G1 X177.662 Y145.11 E15.27819
G1 X178.666 Y148.555 E15.39753
G1 X178.831 Y150.565 E15.46461
G1 X177.755 Y154.387 E15.59667
G1 X176.886 Y156.033 E15.65858
G1 X174.288 Y158.631 E15.78078
G1 X172.663 Y159.677 E15.84506
G1 X169 Y160.693 E15.97149
G1 X169 Y171.46 E16.3296
G1 X168.581 Y173.164 E16.38797
G1 X167.635 Y174.987 E16.45628
G1 X166.239 Y176.291 E16.51981
G1 X164.419 Y177.377 E16.59031
G1 X162.849 Y177.635 E16.64322
G1 X137.24 Y177.7 E17.49499
G1 X135.536 Y177.281 E17.55335
G1 X133.713 Y176.335 E17.62166
G1 X132.409 Y174.939 E17.6852
G1 X131.323 Y173.119 E17.75569
G1 X131.065 Y171.549 E17.80861
G1 X131.012 Y160.726 E18.16859
G1 X127.659 Y159.744 E18.28479
G1 X126.021 Y158.861 E18.34668
G1 X123.389 Y156.229 E18.47048
G1 X122.358 Y154.624 E18.53393
G1 X121.356 Y151.205 E18.65243
G1 X121.209 Y149.074 E18.72348
G1 X122.273 Y145.448 E18.84916
G1 X123.068 Y143.926 E18.90627
G1 X125.587 Y141.265 E19.02815
G1 X127.184 Y140.146 E19.093
G1 X131 Y139.078 E19.2248
G1 X131 Y128.54 E19.5753
G1 X131.419 Y126.836 E19.63366
G1 X132.365 Y125.013 E19.70197
M204 S2000
G0 F7500 X132.688 Y125.258
M204 S500
G1 F1500 X134.003 Y124.03 E19.76181
G1 X135.719 Y123.006 E19.82828
G1 X137.216 Y122.76 E19.87874
G1 X162.714 Y122.7 E20.72681
G1 X164.321 Y123.095 E20.78185
G1 X166.042 Y123.988 E20.84633
G1 X167.27 Y125.303 E20.90618
G1 X168.294 Y127.019 E20.97264
G1 X168.54 Y128.516 E21.0231
G1 X168.589 Y139.321 E21.38248
G1 X172.214 Y140.341 E21.50773
G1 X173.851 Y141.194 E21.56912
G1 X176.402 Y143.871 E21.69211
G1 X177.294 Y145.277 E21.74749
G1 X178.27 Y148.626 E21.86352
G1 X178.426 Y150.527 E21.92696
G1 X177.382 Y154.236 E22.05511
G1 X176.56 Y155.793 E22.11367
G1 X174.033 Y158.32 E22.23253
G1 X172.498 Y159.308 E22.29325
G1 X169.022 Y160.272 E22.41322
G1 X168.6 Y160.302 E22.4273
G1 X168.6 Y171.414 E22.79688
G1 X168.205 Y173.021 E22.85192
G1 X167.312 Y174.742 E22.91641
G1 X165.997 Y175.97 E22.97625
G1 X164.281 Y176.994 E23.04272
G1 X162.784 Y177.24 E23.09318
G1 X137.286 Y177.3 E23.94124
G1 X135.679 Y176.905 E23.99628
G1 X133.958 Y176.012 E24.06077
G1 X132.73 Y174.697 E24.12061
G1 X131.706 Y172.981 E24.18708
G1 X131.46 Y171.484 E24.23754
G1 X131.411 Y160.426 E24.60533
G1 X127.812 Y159.372 E24.73006
G1 X126.263 Y158.537 E24.78859
G1 X123.703 Y155.977 E24.909
G1 X122.726 Y154.456 E24.96913
G1 X121.752 Y151.133 E25.0843
G1 X121.613 Y149.119 E25.15145
G1 X122.646 Y145.599 E25.27346
G1 X123.398 Y144.159 E25.32749
G1 X125.846 Y141.573 E25.44593
G1 X127.36 Y140.512 E25.50742
G1 X130.956 Y139.506 E25.63162
G1 X131.4 Y139.473 E25.64643
G1 X131.4 Y128.586 E26.00853
G1 X131.795 Y126.979 E26.06357
G1 X132.688 Y125.258 E26.12806
M204 S2000
G0 F7500 X133.011 Y125.503
M204 S500
G1 F1500 X134.245 Y124.351 E26.1842
G1 X135.857 Y123.389 E26.24664
G1 X137.281 Y123.155 E26.29464
G1 X162.668 Y123.1 E27.13902
G1 X164.178 Y123.471 E27.19073
G1 X165.797 Y124.311 E27.2514
G1 X166.949 Y125.545 E27.30754
G1 X167.911 Y127.157 E27.36998
G1 X168.145 Y128.581 E27.41798
G1 X168.191 Y139.742 E27.7892
G1 X168.523 Y139.718 E27.80027
G1 X172.064 Y140.714 E27.92261
G1 X173.607 Y141.518 E27.98048
G1 X176.086 Y144.12 E28.10002
G1 X176.926 Y145.444 E28.15217
G1 X177.874 Y148.697 E28.26486
G1 X178.021 Y150.489 E28.32467
G1 X177.009 Y154.085 E28.44892
G1 X176.234 Y155.553 E28.50413
G1 X173.778 Y158.009 E28.61965
G1 X172.333 Y158.939 E28.6768
G1 X168.956 Y159.876 E28.79337
G1 X168.2 Y159.93 E28.81858
G1 X168.2 Y171.368 E29.19901
G1 X167.829 Y172.878 E29.25072
G1 X166.989 Y174.497 E29.31139
G1 X165.755 Y175.649 E29.36754
G1 X164.143 Y176.611 E29.42997
G1 X162.719 Y176.845 E29.47797
G1 X137.332 Y176.9 E30.32235
G1 X135.822 Y176.529 E30.37406
G1 X134.203 Y175.689 E30.43473
G1 X133.051 Y174.455 E30.49088
G1 X132.089 Y172.843 E30.55331
G1 X131.855 Y171.419 E30.60131
G1 X131.809 Y159.983 E30.98168
G1 X131.417 Y160.011 E30.99475
G1 X127.965 Y159 E31.11438
G1 X126.505 Y158.213 E31.16955
G1 X124.017 Y155.725 E31.28658
G1 X123.094 Y154.288 E31.34338
G1 X122.148 Y151.061 E31.45523
G1 X122.017 Y149.164 E31.51847
G1 X123.019 Y145.75 E31.63681
G1 X123.728 Y144.392 E31.68777
G1 X126.105 Y141.881 E31.80277
G1 X127.536 Y140.878 E31.86089
G1 X131.024 Y139.902 E31.98136
G1 X131.8 Y139.845 E32.00724
G1 X131.8 Y128.632 E32.38018
G1 X132.171 Y127.122 E32.4319
G1 X133.011 Y125.503 E32.49256
M204 S2000
G0 F7500 X133.334 Y125.748
M204 S500
G1 F1500 X134.487 Y124.672 E32.54502
G1 X135.995 Y123.772 E32.60343
G1 X137.346 Y123.55 E32.64896
G1 X162.621 Y123.5 E33.48962
G1 X164.036 Y123.848 E33.53808
G1 X165.552 Y124.634 E33.59488
G1 X166.628 Y125.787 E33.64733
G1 X167.528 Y127.295 E33.70574
G1 X167.75 Y128.646 E33.75128
G1 X167.793 Y140.173 E34.13467
G1 X168.483 Y140.122 E34.15768
G1 X171.914 Y141.087 E34.27623
G1 X173.363 Y141.842 E34.33057
G1 X175.77 Y144.369 E34.44664
G1 X176.558 Y145.611 E34.49557
G1 X177.478 Y148.768 E34.60494
G1 X177.616 Y150.451 E34.6611
G1 X176.636 Y153.934 E34.78144
G1 X175.908 Y155.313 E34.83331
G1 X173.523 Y157.698 E34.94549
G1 X172.168 Y158.57 E34.99909
G1 X168.89 Y159.48 E35.11224
G1 X167.8 Y159.558 E35.14858
G1 X167.8 Y171.321 E35.53982
G1 X167.452 Y172.736 E35.58829
G1 X166.666 Y174.252 E35.64508
G1 X165.513 Y175.328 E35.69754
G1 X164.005 Y176.228 E35.75595
G1 X162.654 Y176.45 E35.80148
G1 X137.379 Y176.5 E36.64214
G1 X135.964 Y176.152 E36.6906
G1 X134.448 Y175.366 E36.7474
G1 X133.372 Y174.213 E36.79985
G1 X132.472 Y172.705 E36.85826
G1 X132.25 Y171.354 E36.9038
G1 X132.207 Y159.554 E37.29627
G1 X131.46 Y159.607 E37.32118
G1 X128.118 Y158.628 E37.437
G1 X126.747 Y157.889 E37.48881
G1 X124.331 Y155.473 E37.60245
G1 X123.461 Y154.119 E37.65598
G1 X122.544 Y150.99 E37.76443
G1 X122.421 Y149.209 E37.8238
G1 X123.392 Y145.901 E37.93847
G1 X124.058 Y144.625 E37.98634
G1 X126.364 Y142.189 E38.09791
G1 X127.712 Y141.244 E38.15266
G1 X131.092 Y140.298 E38.2694
G1 X132.2 Y140.217 E38.30635
G1 X132.2 Y128.679 E38.69011
G1 X132.548 Y127.264 E38.73857
G1 X133.334 Y125.748 E38.79537
M204 S2000
G0 F7500 X133.657 Y125.993
M204 S500
G1 F1500 X134.729 Y124.993 E38.84413
G1 X136.133 Y124.155 E38.89851
G1 X137.411 Y123.945 E38.94159
G1 X162.575 Y123.9 E39.77855
G1 X163.893 Y124.224 E39.82369
G1 X165.307 Y124.957 E39.87666
G1 X166.307 Y126.029 E39.92542
G1 X167.145 Y127.433 E39.97981
G1 X167.355 Y128.711 E40.02288
G1 X167.394 Y140.603 E40.41841
G1 X168.443 Y140.526 E40.4534
G1 X171.764 Y141.46 E40.56814
G1 X173.119 Y142.166 E40.61896
G1 X175.454 Y144.618 E40.73158
G1 X176.19 Y145.778 E40.77727
G1 X177.082 Y148.839 E40.88331
G1 X177.211 Y150.413 E40.93584
G1 X176.263 Y153.783 E41.05228
G1 X175.582 Y155.073 E41.10079
G1 X173.268 Y157.387 E41.20964
G1 X172.003 Y158.201 E41.25967
G1 X168.824 Y159.084 E41.36941
G1 X167.4 Y159.185 E41.41689
G1 X167.4 Y171.275 E41.819
G1 X167.076 Y172.593 E41.86414
G1 X166.343 Y174.007 E41.91712
G1 X165.271 Y175.007 E41.96588
G1 X163.867 Y175.845 E42.02026
G1 X162.589 Y176.055 E42.06334
G1 X137.425 Y176.1 E42.9003
G1 X136.107 Y175.776 E42.94544
G1 X134.693 Y175.043 E42.99841
G1 X133.693 Y173.971 E43.04717
G1 X132.855 Y172.567 E43.10155
G1 X132.645 Y171.289 E43.14463
G1 X132.606 Y159.125 E43.54921
G1 X131.503 Y159.203 E43.58599
G1 X128.271 Y158.256 E43.698
G1 X126.989 Y157.565 E43.74644
G1 X124.645 Y155.221 E43.8567
G1 X123.829 Y153.951 E43.9069
G1 X122.94 Y150.918 E44.01203
G1 X122.825 Y149.254 E44.0675
G1 X123.765 Y146.052 E44.1785
G1 X124.388 Y144.858 E44.22329
G1 X126.623 Y142.497 E44.33142
G1 X127.888 Y141.61 E44.38281
G1 X131.16 Y140.694 E44.49582
G1 X132.6 Y140.589 E44.54384
G1 X132.6 Y128.725 E44.93844
G1 X132.924 Y127.407 E44.98358
G1 X133.657 Y125.993 E45.03655
M204 S2000
G0 F7500 X133.979 Y126.24
M204 S500
G1 F1500 X134.974 Y125.312 E45.08181
G1 X136.271 Y124.538 E45.13204
G1 X137.476 Y124.34 E45.17266
G1 X162.529 Y124.3 E46.00593
G1 X163.75 Y124.6 E46.04774
G1 X165.06 Y125.279 E46.09682
G1 X165.988 Y126.274 E46.14207
G1 X166.762 Y127.571 E46.19231
G1 X166.96 Y128.776 E46.23293
G1 X166.995 Y141.033 E46.6406
G1 X168.403 Y140.93 E46.68755
G1 X171.614 Y141.833 E46.79849
G1 X172.875 Y142.49 E46.84579
G1 X175.138 Y144.867 E46.95494
G1 X175.822 Y145.945 E46.99741
G1 X176.686 Y148.91 E47.10012
G1 X176.806 Y150.375 E47.14901
G1 X175.89 Y153.632 E47.26154
G1 X175.256 Y154.833 E47.30671
G1 X173.013 Y157.076 E47.41222
G1 X171.838 Y157.832 E47.45869
G1 X168.758 Y158.688 E47.56501
G1 X167.344 Y158.788 E47.61216
G1 X167 Y158.713 E47.62387
G1 X167 Y171.229 E48.04015
G1 X166.7 Y172.45 E48.08197
G1 X166.021 Y173.76 E48.13105
G1 X165.026 Y174.688 E48.1763
G1 X163.729 Y175.462 E48.22654
G1 X162.524 Y175.66 E48.26715
G1 X137.471 Y175.7 E49.10042
G1 X136.25 Y175.4 E49.14224
G1 X134.94 Y174.721 E49.19132
G1 X134.012 Y173.726 E49.23657
G1 X133.238 Y172.429 E49.2868
G1 X133.04 Y171.224 E49.32742
G1 X133.005 Y158.696 E49.74411
G1 X131.547 Y158.799 E49.79272
G1 X128.424 Y157.884 E49.90096
G1 X127.231 Y157.241 E49.94603
G1 X124.956 Y154.966 E50.05304
G1 X124.197 Y153.785 E50.09973
G1 X123.336 Y150.847 E50.20156
G1 X123.229 Y149.299 E50.25317
G1 X124.138 Y146.203 E50.36049
G1 X124.718 Y145.091 E50.40221
G1 X126.885 Y142.802 E50.50704
G1 X128.061 Y141.977 E50.55482
G1 X131.228 Y141.09 E50.66421
G1 X132.679 Y140.984 E50.7126
G1 X133 Y141.074 E50.72369
G1 X133 Y128.771 E51.13289
G1 X133.3 Y127.55 E51.17471
G1 X133.979 Y126.24 E51.22378
M204 S2000
G0 F7500 X134.301 Y126.487
M204 S500
G1 F1500 X135.216 Y125.634 E51.26539
G1 X136.411 Y124.921 E51.31167
G1 X137.541 Y124.735 E51.34976
G1 X162.483 Y124.7 E52.17934
G1 X163.607 Y124.976 E52.21783
G1 X164.813 Y125.601 E52.26301
G1 X165.666 Y126.516 E52.30462
G1 X166.379 Y127.711 E52.3509
G1 X166.565 Y128.841 E52.38899
G1 X166.596 Y141.551 E52.81173
G1 X167.02 Y141.432 E52.82637
G1 X168.363 Y141.334 E52.87116
G1 X171.464 Y142.206 E52.9783
G1 X172.631 Y142.814 E53.02207
G1 X174.822 Y145.116 E53.12777
G1 X175.454 Y146.112 E53.167
G1 X176.29 Y148.981 E53.26639
G1 X176.401 Y150.337 E53.31164
G1 X175.517 Y153.481 E53.42027
G1 X174.93 Y154.593 E53.46209
G1 X172.76 Y156.763 E53.56416
G1 X171.671 Y157.464 E53.60724
G1 X168.692 Y158.292 E53.71007
G1 X167.316 Y158.389 E53.75595
G1 X166.6 Y158.18 E53.78076
G1 X166.6 Y171.183 E54.21324
G1 X166.324 Y172.307 E54.25174
G1 X165.699 Y173.513 E54.29692
G1 X164.784 Y174.366 E54.33852
G1 X163.589 Y175.079 E54.38481
G1 X162.459 Y175.265 E54.4229
G1 X137.517 Y175.3 E55.25247
G1 X136.393 Y175.024 E55.29097
G1 X135.187 Y174.399 E55.33614
G1 X134.334 Y173.484 E55.37775
G1 X133.621 Y172.289 E55.42403
G1 X133.435 Y171.159 E55.46212
G1 X133.404 Y158.178 E55.89387
G1 X132.97 Y158.298 E55.90885
G1 X131.591 Y158.395 E55.95483
G1 X128.577 Y157.512 E56.05929
G1 X127.473 Y156.917 E56.101
G1 X125.267 Y154.711 E56.20477
G1 X124.565 Y153.619 E56.24794
G1 X123.732 Y150.776 E56.34648
G1 X123.633 Y149.344 E56.39422
G1 X124.511 Y146.354 E56.49787
G1 X125.047 Y145.326 E56.53643
G1 X127.147 Y143.107 E56.63804
G1 X128.237 Y142.343 E56.68231
G1 X131.296 Y141.486 E56.78797
G1 X132.639 Y141.388 E56.83276
G1 X133.4 Y141.601 E56.85904
G1 X133.4 Y128.817 E57.28424
G1 X133.676 Y127.693 E57.32274
G1 X134.301 Y126.487 E57.36791
M204 S2000
G0 F7500 X134.623 Y126.734
M204 S500
G1 F1500 X135.458 Y125.956 E57.40587
G1 X136.551 Y125.304 E57.4482
G1 X137.606 Y125.13 E57.48377
G1 X162.436 Y125.1 E58.30962
G1 X163.465 Y125.353 E58.34486
G1 X164.566 Y125.923 E58.3861
G1 X165.344 Y126.758 E58.42406
G1 X165.996 Y127.851 E58.46639
G1 X166.17 Y128.906 E58.50195
G1 X166.197 Y142.078 E58.94005
G1 X167.088 Y141.828 E58.97083
G1 X168.323 Y141.738 E59.01202
G1 X171.314 Y142.579 E59.11536
G1 X172.387 Y143.138 E59.1556
G1 X174.506 Y145.365 E59.25784
G1 X175.086 Y146.279 E59.29384
G1 X175.894 Y149.052 E59.38991
G1 X175.996 Y150.299 E59.43152
G1 X175.144 Y153.33 E59.53624
