;FLAVOR:Marlin
;TIME:5850
;Filament used: 3.50081m
;Layer height: 0.2
;MINX:120.401
;MINY:83.864
;MINZ:0.2
;MAXX:194.33
;MAXY:178.5
;MAXZ:23
;Generated with Cura_SteamEngine 5.4.0
M82 ;absolute extrusion mode
; Ender 3 S1 Plus Start G-code
; M413 S0 ; Disable power loss recovery
G92 E0 ; Reset Extruder

; Prep surfaces before auto home for better accuracy
M140 S60
M104 S200

G28 O ; Home all untrusted axes
G1 Z10.0 F3000 ; Move Z Axis up little to prevent scratching of Heat Bed
G1 X0 Y0

M190 S60
M109 S200

G1 X0.1 Y20 Z0.3 F5000.0 ; Move to start position
G1 X0.1 Y200.0 Z0.3 F1500.0 E15 ; Draw the first line
G1 X0.4 Y200.0 Z0.3 F5000.0 ; Move to side a little
G1 X0.4 Y20 Z0.3 F1500.0 E30 ; Draw the second line
G92 E0 ; Reset Extruder
G1 Z2.0 F3000 ; Move Z Axis up little to prevent scratching of Heat Bed
G1 X5 Y20 Z0.3 F5000.0 ; Move over to prevent blob squish

G92 E0
G92 E0
G1 F2400 E-0.8
;LAYER_COUNT:115
;LAYER:0
M107
M204 S2000
G0 F7500 X135.367 Y89.205 Z0.2
M204 S500
;TYPE:SKIRT
G1 F2400 E0
G1 F1500 X136.928 Y87.746 E0.07107
G1 X138.951 Y86.539 E0.14942
G1 X140.669 Y86.257 E0.20732
G1 X154.493 Y86.182 E0.66712
G1 X156.399 Y86.65 E0.73239
G1 X158.221 Y87.595 E0.80066
G1 X158.589 Y86.888 E0.82717
G1 X160.151 Y85.428 E0.89828
G1 X162.174 Y84.221 E0.97664
G1 X163.892 Y83.939 E1.03454
G1 X177.716 Y83.864 E1.49434
G1 X179.622 Y84.332 E1.55961
G1 X181.648 Y85.383 E1.63552
G1 X183.116 Y86.953 E1.70701
G1 X184.197 Y88.768 E1.77728
G1 X184.335 Y89.105 E1.78939
G1 X184.621 Y90.995 E1.85297
G1 X184.646 Y94.785 E1.97903
G1 X187.444 Y95.572 E2.0757
G1 X189.343 Y96.562 E2.14693
G1 X192.083 Y99.443 E2.27917
G1 X193.113 Y101.067 E2.34313
G1 X194.147 Y104.607 E2.46579
G1 X194.33 Y106.835 E2.54014
G1 X193.216 Y110.792 E2.67687
G1 X192.253 Y112.616 E2.74547
G1 X189.574 Y115.295 E2.87148
G1 X187.778 Y116.451 E2.94252
G1 X184.671 Y117.312 E3.04976
G1 X184.671 Y121.917 E3.20292
G1 X184.205 Y123.813 E3.26786
G1 X183.152 Y125.841 E3.34386
G1 X181.591 Y127.3 E3.41493
G1 X179.568 Y128.507 E3.49328
G1 X177.85 Y128.789 E3.55118
G1 X169.746 Y128.843 E3.82073
G1 X169.786 Y138.406 E4.1388
G1 X172.628 Y139.203 E4.23697
G1 X174.6 Y140.228 E4.31089
G1 X177.332 Y143.119 E4.44319
G1 X178.38 Y144.766 E4.50812
G1 X179.434 Y148.359 E4.63266
G1 X179.617 Y150.614 E4.7079
G1 X178.48 Y154.65 E4.84737
G1 X177.517 Y156.474 E4.91597
G1 X174.783 Y159.208 E5.04457
G1 X172.982 Y160.367 E5.1158
G1 X169.8 Y161.251 E5.22564
G1 X169.8 Y171.553 E5.56829
G1 X169.334 Y173.449 E5.63323
G1 X168.281 Y175.477 E5.70923
G1 X166.72 Y176.936 E5.7803
G1 X164.697 Y178.143 E5.85865
G1 X162.979 Y178.425 E5.91655
G1 X137.147 Y178.5 E6.77573
G1 X135.251 Y178.034 E6.84067
G1 X133.223 Y176.981 E6.91667
G1 X131.764 Y175.42 E6.98774
G1 X130.557 Y173.397 E7.06609
G1 X130.275 Y171.679 E7.12399
G1 X130.215 Y161.599 E7.45926
G1 X127.353 Y160.761 E7.55845
G1 X125.537 Y159.782 E7.62707
G1 X122.761 Y157.006 E7.75764
G1 X121.623 Y155.234 E7.82769
G1 X120.564 Y151.621 E7.95291
G1 X120.401 Y149.257 E8.03173
G1 X121.527 Y145.419 E8.16476
G1 X122.408 Y143.733 E8.22803
G1 X125.069 Y140.922 E8.35677
G1 X126.832 Y139.687 E8.42836
G1 X130.2 Y138.745 E8.54468
G1 X130.2 Y128.447 E8.8872
G1 X130.666 Y126.551 E8.95213
G1 X131.719 Y124.523 E9.02814
G1 X133.282 Y123.062 E9.0993
G1 X133.878 Y122.708 E9.12235
G1 X133.868 Y120.255 E9.20394
G1 X131.125 Y119.455 E9.29897
G1 X129.244 Y118.444 E9.37
G1 X126.547 Y115.747 E9.49686
G1 X125.405 Y113.969 E9.56714
G1 X124.369 Y110.435 E9.68963
G1 X124.206 Y108.075 E9.76831
G1 X125.306 Y104.328 E9.8982
G1 X126.191 Y102.629 E9.96191
G1 X128.785 Y99.891 E10.08736
G1 X130.575 Y98.63 E10.16018
G1 X133.848 Y97.717 E10.2732
G1 X133.848 Y93.129 E10.4258
G1 X134.314 Y91.233 E10.49074
G1 X135.367 Y89.205 E10.56674
M204 S2000
G0 F7500 X135.69 Y89.45
M204 S500
G1 F1500 X137.167 Y88.07 E10.63397
G1 X139.091 Y86.922 E10.70849
G1 X140.734 Y86.652 E10.76387
G1 X154.448 Y86.582 E11.22
G1 X156.256 Y87.026 E11.28192
G1 X158.119 Y87.992 E11.35172
G1 X158.353 Y88.209 E11.36234
G1 X158.913 Y87.132 E11.40271
G1 X160.39 Y85.752 E11.46994
G1 X162.314 Y84.604 E11.54446
G1 X163.957 Y84.334 E11.59984
G1 X177.671 Y84.264 E12.05597
G1 X179.479 Y84.708 E12.11789
G1 X181.403 Y85.706 E12.18998
G1 X182.792 Y87.192 E12.25764
G1 X183.853 Y88.973 E12.32659
G1 X183.948 Y89.216 E12.33527
G1 X184.221 Y90.998 E12.39523
G1 X184.248 Y95.088 E12.53126
G1 X187.294 Y95.945 E12.63651
G1 X189.099 Y96.886 E12.70421
G1 X191.767 Y99.692 E12.83299
G1 X192.745 Y101.234 E12.89373
G1 X193.751 Y104.678 E13.01306
G1 X193.925 Y106.797 E13.08378
G1 X192.843 Y110.641 E13.2166
G1 X191.927 Y112.376 E13.28185
G1 X189.319 Y114.984 E13.40452
G1 X187.613 Y116.082 E13.472
G1 X184.271 Y117.008 E13.58734
G1 X184.271 Y121.871 E13.74909
G1 X183.829 Y123.67 E13.8107
G1 X182.829 Y125.596 E13.88288
G1 X181.352 Y126.976 E13.95011
G1 X179.428 Y128.124 E14.02463
G1 X177.785 Y128.394 E14.08001
G1 X169.344 Y128.445 E14.36076
G1 X169.387 Y138.71 E14.70218
G1 X172.48 Y139.577 E14.80902
G1 X174.354 Y140.551 E14.87927
G1 X177.017 Y143.369 E15.00822
G1 X178.011 Y144.931 E15.0698
G1 X179.038 Y148.432 E15.19115
G1 X179.212 Y150.576 E15.2627
G1 X178.107 Y154.499 E15.39825
G1 X177.191 Y156.234 E15.46351
G1 X174.528 Y158.897 E15.58877
G1 X172.817 Y159.998 E15.65644
G1 X169.4 Y160.947 E15.77439
G1 X169.4 Y171.507 E16.12562
G1 X168.958 Y173.306 E16.18723
G1 X167.958 Y175.232 E16.25941
G1 X166.481 Y176.612 E16.32664
G1 X164.557 Y177.76 E16.40116
G1 X162.914 Y178.03 E16.45654
G1 X137.193 Y178.1 E17.31203
G1 X135.394 Y177.658 E17.37364
G1 X133.468 Y176.658 E17.44582
G1 X132.088 Y175.181 E17.51305
G1 X130.94 Y173.257 E17.58757
G1 X130.67 Y171.614 E17.64295
G1 X130.613 Y161.299 E17.98603
G1 X127.506 Y160.389 E18.09371
G1 X125.779 Y159.458 E18.15897
G1 X123.075 Y156.754 E18.28616
G1 X121.991 Y155.066 E18.35288
G1 X120.96 Y151.549 E18.47478
G1 X120.805 Y149.302 E18.54969
G1 X121.9 Y145.57 E18.67905
G1 X122.738 Y143.966 E18.73924
G1 X125.328 Y141.23 E18.86455
G1 X127.008 Y140.053 E18.93277
G1 X130.6 Y139.048 E19.05683
G1 X130.6 Y128.493 E19.40789
G1 X131.042 Y126.694 E19.46951
G1 X132.042 Y124.768 E19.54169
G1 X133.523 Y123.384 E19.60911
G1 X134.279 Y122.935 E19.63835
G1 X134.267 Y119.955 E19.73747
G1 X131.275 Y119.082 E19.84113
G1 X129.487 Y118.121 E19.90865
G1 X126.861 Y115.495 E20.03216
G1 X125.772 Y113.8 E20.09917
G1 X124.765 Y110.364 E20.21826
G1 X124.61 Y108.12 E20.29308
G1 X125.679 Y104.478 E20.41932
G1 X126.521 Y102.862 E20.47993
G1 X129.047 Y100.195 E20.6021
G1 X130.749 Y98.996 E20.67135
G1 X134.248 Y98.02 E20.79217
G1 X134.248 Y93.175 E20.95331
G1 X134.69 Y91.376 E21.01493
G1 X135.69 Y89.45 E21.08711
M204 S2000
G0 F7500 X136.013 Y89.695
M204 S500
G1 F1500 X137.409 Y88.391 E21.15064
G1 X139.229 Y87.305 E21.22113
G1 X140.799 Y87.047 E21.27405
G1 X154.403 Y86.982 E21.72653
G1 X156.113 Y87.402 E21.78509
G1 X157.935 Y88.347 E21.85336
G1 X158.447 Y88.895 E21.8783
G1 X159.236 Y87.377 E21.9352
G1 X160.632 Y86.073 E21.99874
G1 X162.452 Y84.987 E22.06923
G1 X164.022 Y84.729 E22.12215
G1 X177.626 Y84.664 E22.57463
G1 X179.336 Y85.084 E22.63319
G1 X181.158 Y86.029 E22.70146
G1 X182.468 Y87.431 E22.76528
G1 X183.509 Y89.178 E22.83292
G1 X183.56 Y89.321 E22.83797
G1 X183.821 Y91.001 E22.89451
G1 X183.85 Y95.391 E23.04053
G1 X187.144 Y96.318 E23.15434
G1 X188.855 Y97.21 E23.21852
G1 X191.451 Y99.941 E23.34384
G1 X192.377 Y101.401 E23.40135
G1 X193.355 Y104.749 E23.51736
G1 X193.52 Y106.759 E23.58443
G1 X192.47 Y110.49 E23.71335
G1 X191.601 Y112.136 E23.77526
G1 X189.064 Y114.673 E23.89459
G1 X187.448 Y115.713 E23.9585
G1 X183.871 Y116.704 E24.08196
G1 X183.871 Y121.824 E24.25225
G1 X183.452 Y123.528 E24.31061
G1 X182.506 Y125.351 E24.37892
G1 X181.11 Y126.655 E24.44246
G1 X179.29 Y127.741 E24.51295
G1 X177.72 Y127.999 E24.56587
G1 X168.866 Y128.048 E24.86036
G1 X168.945 Y128.577 E24.87815
G1 X168.988 Y139.014 E25.22529
G1 X172.332 Y139.951 E25.34079
G1 X174.108 Y140.874 E25.40737
G1 X176.699 Y143.615 E25.53282
G1 X177.643 Y145.099 E25.59131
G1 X178.642 Y148.505 E25.70937
G1 X178.807 Y150.538 E25.77721
G1 X177.734 Y154.348 E25.90886
G1 X176.865 Y155.994 E25.97077
G1 X174.275 Y158.584 E26.09259
G1 X172.65 Y159.63 E26.15687
G1 X169 Y160.643 E26.28286
G1 X169 Y171.46 E26.64263
G1 X168.581 Y173.164 E26.701
G1 X167.635 Y174.987 E26.76931
G1 X166.239 Y176.291 E26.83285
G1 X164.419 Y177.377 E26.90334
G1 X162.849 Y177.635 E26.95625
G1 X137.24 Y177.7 E27.80802
G1 X135.536 Y177.281 E27.86638
G1 X133.713 Y176.335 E27.93469
G1 X132.409 Y174.939 E27.99823
G1 X131.323 Y173.119 E28.06872
G1 X131.065 Y171.549 E28.12164
G1 X131.012 Y160.999 E28.47254
G1 X127.659 Y160.017 E28.58874
G1 X126.021 Y159.134 E28.65063
G1 X123.389 Y156.502 E28.77443
G1 X122.358 Y154.897 E28.83788
G1 X121.356 Y151.478 E28.95638
G1 X121.209 Y149.347 E29.02743
G1 X122.273 Y145.721 E29.15311
G1 X123.068 Y144.199 E29.21023
G1 X125.587 Y141.538 E29.3321
G1 X127.184 Y140.419 E29.39695
G1 X131 Y139.351 E29.52875
G1 X131 Y128.54 E29.88833
G1 X131.419 Y126.836 E29.94669
G1 X132.365 Y125.013 E30.015
G1 X133.764 Y123.706 E30.07868
G1 X134.68 Y123.162 E30.11411
G1 X134.666 Y119.655 E30.23076
G1 X131.425 Y118.709 E30.34305
G1 X129.73 Y117.798 E30.40706
G1 X127.175 Y115.243 E30.52723
G1 X126.14 Y113.632 E30.59092
G1 X125.161 Y110.292 E30.70668
G1 X125.014 Y108.165 E30.7776
G1 X126.052 Y104.628 E30.9002
G1 X126.851 Y103.094 E30.95773
G1 X129.309 Y100.499 E31.07661
G1 X130.923 Y99.362 E31.14227
G1 X134.648 Y98.323 E31.2709
G1 X134.648 Y93.222 E31.44056
G1 X135.067 Y91.518 E31.49892
G1 X136.013 Y89.695 E31.56723
M204 S2000
G0 F7500 X136.336 Y89.94
M204 S500
G1 F1500 X137.651 Y88.712 E31.62707
G1 X139.367 Y87.688 E31.69354
G1 X140.864 Y87.442 E31.744
G1 X154.358 Y87.382 E32.19281
G1 X155.97 Y87.778 E32.24802
G1 X157.69 Y88.67 E32.31247
G1 X158.593 Y89.637 E32.35647
G1 X158.665 Y89.343 E32.36654
G1 X159.559 Y87.622 E32.43104
G1 X160.874 Y86.394 E32.49088
G1 X162.59 Y85.37 E32.55735
G1 X164.087 Y85.124 E32.60781
G1 X177.581 Y85.064 E33.05662
G1 X179.193 Y85.46 E33.11183
G1 X180.913 Y86.352 E33.17627
G1 X182.144 Y87.67 E33.23626
G1 X183.165 Y89.383 E33.30259
G1 X183.421 Y91.004 E33.35717
G1 X183.452 Y95.694 E33.51316
G1 X186.994 Y96.691 E33.63555
G1 X188.611 Y97.534 E33.6962
G1 X191.135 Y100.19 E33.81806
G1 X192.009 Y101.568 E33.87234
G1 X192.959 Y104.82 E33.98502
G1 X193.115 Y106.721 E34.04846
G1 X192.097 Y110.339 E34.17347
G1 X191.275 Y111.896 E34.23203
G1 X188.809 Y114.362 E34.34802
G1 X187.283 Y115.344 E34.40838
G1 X183.892 Y116.284 E34.52542
G1 X183.471 Y116.314 E34.53945
G1 X183.471 Y121.778 E34.72119
G1 X183.076 Y123.385 E34.77623
G1 X182.183 Y125.106 E34.84071
G1 X180.868 Y126.334 E34.90056
G1 X179.152 Y127.358 E34.96702
G1 X177.655 Y127.604 E35.01748
G1 X168.398 Y127.65 E35.32537
G1 X168.545 Y128.579 E35.35665
G1 X168.589 Y139.318 E35.71384
G1 X172.184 Y140.325 E35.83801
G1 X173.862 Y141.197 E35.90091
G1 X176.384 Y143.865 E36.02302
G1 X177.274 Y145.264 E36.07817
G1 X178.246 Y148.578 E36.19303
G1 X178.402 Y150.5 E36.25717
G1 X177.361 Y154.197 E36.38491
G1 X176.539 Y155.754 E36.44347
G1 X174.02 Y158.273 E36.56196
G1 X172.485 Y159.261 E36.62267
G1 X169.027 Y160.221 E36.74204
G1 X168.6 Y160.252 E36.75628
G1 X168.6 Y171.414 E37.12753
G1 X168.205 Y173.021 E37.18257
G1 X167.312 Y174.742 E37.24706
G1 X165.997 Y175.97 E37.3069
G1 X164.281 Y176.994 E37.37336
G1 X162.784 Y177.24 E37.42382
G1 X137.286 Y177.3 E38.27189
G1 X135.679 Y176.905 E38.32693
G1 X133.958 Y176.012 E38.39142
G1 X132.73 Y174.697 E38.45126
G1 X131.706 Y172.981 E38.51772
G1 X131.46 Y171.484 E38.56818
G1 X131.411 Y160.699 E38.9269
G1 X127.812 Y159.645 E39.05163
G1 X126.263 Y158.81 E39.11016
G1 X123.703 Y156.25 E39.23057
G1 X122.726 Y154.729 E39.2907
G1 X121.752 Y151.406 E39.40587
G1 X121.613 Y149.392 E39.47301
G1 X122.646 Y145.872 E39.59503
G1 X123.398 Y144.432 E39.64906
G1 X125.846 Y141.846 E39.7675
G1 X127.36 Y140.785 E39.82899
G1 X130.956 Y139.779 E39.95318
G1 X131.4 Y139.746 E39.96799
G1 X131.4 Y128.586 E40.33917
G1 X131.795 Y126.979 E40.39421
G1 X132.688 Y125.258 E40.4587
G1 X134.005 Y124.028 E40.51864
G1 X135.081 Y123.389 E40.56026
G1 X135.065 Y119.355 E40.69443
G1 X131.575 Y118.336 E40.81536
G1 X129.973 Y117.475 E40.87585
G1 X127.489 Y114.991 E40.99269
G1 X126.508 Y113.464 E41.05305
G1 X125.557 Y110.22 E41.16549
G1 X125.418 Y108.21 E41.2325
G1 X126.425 Y104.778 E41.35146
G1 X127.181 Y103.326 E41.40591
G1 X129.571 Y100.803 E41.5215
G1 X131.097 Y99.728 E41.58358
G1 X134.607 Y98.749 E41.70478
G1 X135.048 Y98.716 E41.71949
G1 X135.048 Y93.268 E41.90069
G1 X135.443 Y91.661 E41.95573
G1 X136.336 Y89.94 E42.02022
M204 S2000
G0 F7500 X136.659 Y90.185
M204 S500
G1 F1500 X137.893 Y89.033 E42.07637
G1 X139.505 Y88.071 E42.13881
G1 X140.929 Y87.837 E42.1868
G1 X154.313 Y87.782 E42.63196
G1 X155.827 Y88.154 E42.68381
G1 X157.445 Y88.993 E42.74443
G1 X158.597 Y90.227 E42.80058
G1 X158.783 Y90.539 E42.81266
G1 X159.042 Y89.486 E42.84873
G1 X159.882 Y87.867 E42.90939
G1 X161.116 Y86.715 E42.96554
G1 X162.728 Y85.753 E43.02798
G1 X164.152 Y85.519 E43.07598
G1 X177.536 Y85.464 E43.52113
G1 X179.05 Y85.836 E43.57299
G1 X180.668 Y86.675 E43.63361
G1 X181.82 Y87.909 E43.68976
G1 X182.782 Y89.522 E43.75222
G1 X183.021 Y91.007 E43.80225
G1 X183.055 Y96.118 E43.97225
G1 X183.394 Y96.093 E43.98355
G1 X186.844 Y97.064 E44.10276
G1 X188.369 Y97.859 E44.15996
G1 X190.817 Y100.436 E44.27818
G1 X191.641 Y101.735 E44.32934
G1 X192.563 Y104.891 E44.4387
G1 X192.71 Y106.683 E44.4985
G1 X191.724 Y110.188 E44.6196
G1 X190.949 Y111.656 E44.67481
G1 X188.554 Y114.051 E44.78747
G1 X187.118 Y114.975 E44.84426
G1 X183.826 Y115.888 E44.95789
G1 X183.071 Y115.942 E44.98306
G1 X183.071 Y121.732 E45.17564
G1 X182.7 Y123.242 E45.22735
G1 X181.86 Y124.861 E45.28802
G1 X180.626 Y126.013 E45.34417
G1 X179.014 Y126.975 E45.4066
G1 X177.59 Y127.209 E45.4546
G1 X167.927 Y127.252 E45.776
G1 X168.145 Y128.581 E45.82079
G1 X168.191 Y139.739 E46.19191
G1 X168.523 Y139.715 E46.20298
G1 X172.036 Y140.699 E46.32432
G1 X173.616 Y141.52 E46.38354
G1 X176.069 Y144.115 E46.50231
G1 X176.905 Y145.429 E46.55411
G1 X177.85 Y148.651 E46.66579
G1 X177.997 Y150.462 E46.72622
G1 X176.988 Y154.046 E46.85006
G1 X176.213 Y155.514 E46.90527
G1 X173.765 Y157.962 E47.02042
G1 X172.32 Y158.892 E47.07757
G1 X168.96 Y159.825 E47.19356
G1 X168.2 Y159.879 E47.2189
G1 X168.2 Y171.368 E47.60102
G1 X167.829 Y172.878 E47.65274
G1 X166.989 Y174.497 E47.7134
G1 X165.755 Y175.649 E47.76955
G1 X164.143 Y176.611 E47.83199
G1 X162.719 Y176.845 E47.87999
G1 X137.332 Y176.9 E48.72436
G1 X135.822 Y176.529 E48.77608
G1 X134.203 Y175.689 E48.83675
G1 X133.051 Y174.455 E48.89289
G1 X132.089 Y172.843 E48.95533
G1 X131.855 Y171.419 E49.00333
G1 X131.809 Y160.256 E49.37461
G1 X131.417 Y160.284 E49.38769
G1 X127.965 Y159.273 E49.50732
G1 X126.505 Y158.486 E49.56249
G1 X124.017 Y155.998 E49.67952
G1 X123.094 Y154.561 E49.73632
G1 X122.148 Y151.334 E49.84817
G1 X122.017 Y149.437 E49.91141
G1 X123.019 Y146.023 E50.02975
G1 X123.728 Y144.665 E50.0807
G1 X126.105 Y142.154 E50.19571
G1 X127.536 Y141.151 E50.25383
G1 X131.024 Y140.175 E50.3743
G1 X131.8 Y140.118 E50.40017
G1 X131.8 Y128.632 E50.7822
G1 X132.171 Y127.122 E50.83392
G1 X133.011 Y125.503 E50.89458
G1 X134.246 Y124.35 E50.95078
G1 X135.482 Y123.616 E50.99859
G1 X135.463 Y118.911 E51.15508
G1 X135.069 Y118.939 E51.16822
G1 X131.725 Y117.963 E51.28408
G1 X130.216 Y117.152 E51.34106
G1 X127.803 Y114.739 E51.45456
G1 X126.875 Y113.295 E51.51165
G1 X125.953 Y110.149 E51.62069
G1 X125.822 Y108.255 E51.68383
G1 X126.798 Y104.928 E51.79915
G1 X127.511 Y103.558 E51.85052
G1 X129.833 Y101.107 E51.96281
G1 X131.271 Y100.094 E52.02132
G1 X134.674 Y99.145 E52.13882
G1 X135.448 Y99.088 E52.16463
G1 X135.448 Y93.314 E52.35668
G1 X135.819 Y91.804 E52.40839
G1 X136.659 Y90.185 E52.46906
M204 S2000
G0 F7500 X136.982 Y90.43
M204 S500
G1 F1500 X138.135 Y89.354 E52.52151
G1 X139.643 Y88.454 E52.57992
G1 X140.994 Y88.232 E52.62546
G1 X154.268 Y88.182 E53.06696
G1 X155.684 Y88.53 E53.11546
G1 X157.2 Y89.316 E53.17225
G1 X158.276 Y90.469 E53.22471
G1 X159.071 Y91.801 E53.2763
