; HEADER_BLOCK_START
; generated by OrcaSlicer 2.0.0 on 2024-04-20 at 11:13:24
; total layer number: 240
; filament_density: 1.24
; filament_diameter: 1.75
; max_z_height: 48.00
; HEADER_BLOCK_END

; THUMBNAIL_BLOCK_START

;
; THUMBNAIL_BLOCK_END

; external perimeters extrusion width = 0.40mm
; perimeters extrusion width = 0.45mm
; infill extrusion width = 0.45mm
; solid infill extrusion width = 0.40mm
; top infill extrusion width = 0.40mm
; support material extrusion width = 0.40mm
; first layer extrusion width = 0.50mm

; EXECUTABLE_BLOCK_START
M73 P0 R79
M201 X10000 Y10000 Z500 E5000
M203 X500 Y500 Z10 E60
M204 P10000 R1000 T10000
M205 X8.00 Y8.00 Z0.40 E5.00 ; sets the jerk limits, mm/sec
;TYPE:Custom
G90 ; use absolute coordinates
M83 ; extruder relative mode
M204 S10000 T1000
M104 S220 ; set extruder temp
M140 S60 ; set bed temp
G28 ; home all
G1 Y1.0 Z0.3 F1000 ; move print head up
M190 S60 ; wait for bed temp
M109 S220 ; wait for extruder temp
G92 E0.0
; initial load
G1 X205.0 E19 F1000
G1 Y1.6
M73 P0 R78
G1 X5.0 E19 F1000
G92 E0.0
; intro line
G1 Y2.0 Z0.2 F1000
G1 X65.0 E9.0 F1000
G1 X105.0 E12.5 F1000
G92 E0.0
G90
G21
M83 ; use relative distances for extrusion
; filament start gcode
M106 S0
;LAYER_CHANGE
;Z:0.2
;HEIGHT:0.2
;BEFORE_LAYER_CHANGE
;0.2
G92 E0

G1 E-.9 F2700
;AFTER_LAYER_CHANGE
;0.2
;_SET_FAN_SPEED_CHANGING_LAYER
M204 S500
G1 Z.4 F9000
G1 X42.433 Y31.611
G1 Z.4
G1 Z.2
G1 E.9 F2100
;TYPE:Skirt
;WIDTH:0.5
G1 F3000
G1 X43.992 Y29.814 E.08861
G1 X45.763 Y28.25 E.08802
G1 X47.735 Y26.931 E.08836
G1 X49.862 Y25.885 E.08827
G1 X52.031 Y25.154 E.08527
G1 X54.348 Y24.696 E.08796
G1 X56.782 Y24.55 E.09083
G1 X81.18 Y26.01 E.91035
G1 X82.432 Y26.282 E.0477
G1 X83.383 Y26.759 E.03963
G1 X84.144 Y27.387 E.03676
G1 X84.844 Y28.318 E.04339
G1 X85.252 Y29.264 E.03836
G1 X85.451 Y30.314 E.03982
G1 X85.462 Y40.646 E.38482
G1 X85.252 Y41.86 E.0459
G1 X84.711 Y43.025 E.04783
G1 X84.114 Y43.768 E.0355
G1 X83.303 Y44.416 E.03865
G1 X82.509 Y44.813 E.03309
G1 X81.467 Y45.083 E.04009
G1 X56.726 Y46.575 E.92317
G1 X54.293 Y46.422 E.09078
G1 X52.989 Y46.199 E.0493
G1 X51.635 Y45.86 E.05198
G1 X49.135 Y44.922 E.09943
G1 X47.927 Y44.303 E.05057
G1 X46.761 Y43.59 E.05088
G1 X45.055 Y42.299 E.07971
G1 X43.481 Y40.773 E.08165
G1 X42.172 Y39.159 E.07742
G1 X41.228 Y37.697 E.06484
G1 X40.806 Y36.693 E.04054
G1 X40.65 Y35.604 E.04096
G1 X40.749 Y34.658 E.03545
G1 X41.194 Y33.488 E.04661
G1 X42.411 Y31.644 E.08228
G1 X42.791 Y31.895 F9000
G1 F3000
G1 X42.793 Y31.891 E.00015
G1 X44.312 Y30.14 E.08633
G1 X45.977 Y28.661 E.08296
G1 X47.958 Y27.33 E.0889
G1 X50.03 Y26.31 E.086
G1 X52.145 Y25.596 E.08315
G1 X54.4 Y25.15 E.08561
G1 X56.772 Y25.007 E.0885
G1 X81.137 Y26.465 E.90913
G1 X82.27 Y26.709 E.04317
G1 X83.136 Y27.144 E.0361
G1 X83.821 Y27.71 E.03309
G1 X84.443 Y28.538 E.03859
G1 X84.813 Y29.392 E.03467
G1 X84.996 Y30.356 E.03654
G1 X85.005 Y40.63 E.38263
G1 X84.813 Y41.732 E.04167
G1 X84.324 Y42.783 E.04317
G1 X83.786 Y43.45 E.03194
G1 X83.055 Y44.032 E.03479
G1 X82.165 Y44.452 E.03665
G1 X81.268 Y44.647 E.03422
G1 X56.718 Y46.118 E.91603
G1 X54.36 Y45.97 E.08799
G1 X53.086 Y45.752 E.04813
G1 X51.769 Y45.423 E.05056
G1 X49.331 Y44.509 E.09699
G1 X47.072 Y43.248 E.09636
G1 X45.551 Y42.119 E.07055
G1 X44.2 Y40.871 E.0685
G1 X42.805 Y39.247 E.07974
G1 X41.622 Y37.465 E.07967
G1 X41.248 Y36.577 E.03589
G1 X41.107 Y35.592 E.03708
G1 X41.197 Y34.748 E.03161
G1 X41.589 Y33.719 E.04101
G1 X42.769 Y31.928 E.07988
; printing object 3DBenchy id:4294967308 copy 0
G1 E-.9 F2700
G1 Z.6 F9000
G1 X52.142 Y29.39 Z.6
G1 Z.2
G1 E.9 F2100
;TYPE:Inner wall
;WIDTH:0.499999
G1 F2700
G1 X51.873 Y29.645 E.01379
G1 X51.429 Y30.299 E.02945
G1 X51.146 Y30.926 E.02562
G1 X50.551 Y32.501 E.0627
G1 X50.483 Y32.265 E.00913
G1 X50.192 Y31.821 E.01979
G1 X49.91 Y31.566 E.01415
G1 X49.46 Y31.364 E.01838
G1 X49.045 Y31.306 E.01559
G1 X48.471 Y31.321 E.02139
G1 X49.355 Y30.715 E.03993
G1 X50.411 Y30.125 E.04506
G1 X51.279 Y29.721 E.03564
G1 X52.104 Y29.404 E.03294
G1 E-.9
G1 Z.6 F9000
G1 X46.004 Y34.495 Z.6
G1 Z.2
G1 E.9 F2100
;WIDTH:0.535202
G1 F2700
G1 X45.564 Y35.133 E.0311
;WIDTH:0.538813
G1 X45.239 Y35.682 E.02577
;WIDTH:0.538964
G1 X45.082 Y36.14 E.0196
G1 X44.757 Y35.584 E.02605
G1 X44.815 Y35.426 E.00682
;WIDTH:0.538813
G1 X45.22 Y34.773 E.03104
;WIDTH:0.535202
G1 X45.579 Y34.255 E.02526
G1 X45.653 Y34.313 E.00378
G1 X45.969 Y34.476 E.01424
G1 E-.9
G1 Z.6 F9000
G1 X58.734 Y35.137 Z.6
G1 Z.2
G1 E.9 F2100
;WIDTH:0.734875
G1 F2700
G1 X59.114 Y35.325 E.02391
G1 X59.527 Y35.427 E.02397
G1 X59.798 Y35.451 E.01534
G1 X59.792 Y35.707 E.01444
G1 X59.814 Y35.929 E.01254
;WIDTH:0.705318
G1 X59.836 Y36.15 E.012
;WIDTH:0.678699
G1 X59.899 Y36.669 E.02709
G1 X59.935 Y36.739 E.00407
;WIDTH:0.639308
G1 X59.971 Y36.808 E.00382
;WIDTH:0.599916
G1 X60.008 Y36.878 E.00357
;WIDTH:0.560524
G1 X60.044 Y36.948 E.00332
;WIDTH:0.521132
G1 X60.237 Y37.524 E.02367
;WIDTH:0.499999
G1 X60.589 Y38.202 E.02848
G1 X60.961 Y38.646 E.02158
G1 X61.273 Y38.946 E.01611
G1 X61.927 Y39.344 E.02849
G1 X62.485 Y39.529 E.02192
G1 X63.127 Y39.638 E.02426
G1 X63.704 Y39.676 E.02151
G1 X64.926 Y39.693 E.04553
G1 X65.593 Y39.597 E.0251
G1 X66.02 Y39.408 E.01739
G1 X66.356 Y39.127 E.01631
G1 X66.544 Y38.834 E.01296
G1 X66.763 Y39.11 E.01311
G1 X67.226 Y39.44 E.02119
G1 X67.663 Y39.654 E.01808
G1 X68.391 Y39.821 E.02785
G1 X69.315 Y39.831 E.03439
G1 X70 Y39.7 E.02601
G1 X70.341 Y39.577 E.0135
G1 X70.874 Y39.282 E.02266
G1 X71.203 Y39.5 E.01471
G1 X71.65 Y39.654 E.0176
G1 X71.977 Y39.685 E.01224
G1 X75.162 Y39.67 E.11866
G1 X75.686 Y39.71 E.01956
G1 X76.14 Y39.675 E.01697
G1 X76.584 Y39.519 E.01753
G1 X77.008 Y39.187 E.02003
G1 X77.505 Y39.483 E.02157
G1 X78.097 Y39.729 E.02387
G1 X78.896 Y39.847 E.03006
G1 X79.744 Y39.794 E.03166
G1 X80.401 Y39.621 E.02532
G1 X80.68 Y39.506 E.0112
G1 X81.162 Y39.229 E.02073
G1 X81.389 Y39.054 E.01066
G1 X81.382 Y40.415 E.05067
G1 X81.289 Y40.787 E.0143
G1 X81.041 Y40.998 E.01212
G1 X80.804 Y41.053 E.00904
G1 X57.462 Y42.471 E.871
G1 X56.675 Y42.496 E.02934
G1 X55.62 Y42.46 E.03933
G1 X54.868 Y42.384 E.02816
G1 X54.106 Y42.263 E.02873
G1 X53.177 Y42.054 E.03545
G1 X51.949 Y41.667 E.04797
G1 X51.411 Y41.462 E.02143
G1 X50.637 Y41.118 E.03155
G1 X49.906 Y40.736 E.03073
G1 X49.334 Y40.395 E.02481
G1 X48.806 Y40.048 E.02353
G1 X48.376 Y39.737 E.01976
G1 X47.864 Y39.333 E.02429
G1 X47.441 Y38.966 E.02085
G1 X46.707 Y38.245 E.0383
G1 X48.911 Y38.238 E.08206
G1 X49.532 Y38.125 E.02353
G1 X49.917 Y37.933 E.016
G1 X50.19 Y38.106 E.01203
G1 X50.556 Y38.217 E.01427
G1 X51.036 Y38.22 E.01787
G1 X51.524 Y38.051 E.01923
G1 X51.872 Y37.776 E.01652
G1 X52.114 Y37.487 E.01404
G1 X52.258 Y37.671 E.00872
G1 X52.734 Y38.037 E.02237
G1 X53.288 Y38.211 E.02162
G1 X53.596 Y38.243 E.01153
G1 X54.158 Y38.138 E.02129
G1 X54.518 Y37.943 E.01525
G1 X54.945 Y38.154 E.01774
G1 X55.42 Y38.237 E.01795
G1 X55.851 Y38.19 E.01615
G1 X56.147 Y38.069 E.01193
G1 X56.49 Y37.837 E.01541
G1 X57.04 Y38.149 E.02352
G1 X57.449 Y38.242 E.01565
G1 X58.042 Y38.153 E.02232
G1 X58.444 Y37.983 E.01626
G1 X58.825 Y37.627 E.01942
G1 X59.065 Y37.26 E.01636
;WIDTH:0.544906
G1 X59.116 Y37.121 E.00604
;WIDTH:0.589812
G1 X59.166 Y36.982 E.00658
;WIDTH:0.634718
G1 X59.216 Y36.844 E.00711
;WIDTH:0.679624
G1 X59.266 Y36.705 E.00765
G1 X59.252 Y36.5 E.01067
;WIDTH:0.709933
G1 X59.157 Y36.003 E.02749
;WIDTH:0.734875
G1 X59.015 Y35.646 E.02166
G1 X58.753 Y35.172 E.03052
G1 E-.9
G1 Z.6 F9000
G1 X46.812 Y34.176 Z.6
G1 Z.2
G1 E.9 F2100
;WIDTH:0.499999
G1 F2700
G1 X45.971 Y35.368 E.05433
G1 X45.652 Y35.92 E.02375
G1 X45.541 Y36.269 E.01363
G1 X45.562 Y36.872 E.02249
G1 X45.642 Y37.053 E.00735
;WIDTH:0.473058
G1 X45.721 Y37.233 E.00692
;WIDTH:0.471218
G1 X46.006 Y37.557 E.01504
;WIDTH:0.499999
G1 X46.308 Y37.718 E.01275
G1 X46.733 Y37.788 E.01605
G1 X48.891 Y37.781 E.08039
G1 X49.349 Y37.7 E.01732
G1 X49.697 Y37.531 E.0144
G1 X49.92 Y37.306 E.01183
G1 X50.043 Y37.455 E.00721
G1 X50.386 Y37.693 E.01555
G1 X50.745 Y37.784 E.01378
G1 X51.137 Y37.721 E.01478
G1 X51.395 Y37.585 E.01087
G1 X51.686 Y37.303 E.0151
G1 X51.965 Y36.806 E.02122
G1 X52.151 Y36.325 E.01922
G1 X52.295 Y36.829 E.01953
G1 X52.52 Y37.278 E.01871
G1 X52.953 Y37.636 E.02092
G1 X53.481 Y37.782 E.02041
G1 X53.935 Y37.725 E.01705
G1 X54.232 Y37.587 E.01219
G1 X54.527 Y37.248 E.01675
G1 X54.718 Y37.486 E.01138
G1 X55.105 Y37.726 E.01694
G1 X55.346 Y37.772 E.00915
G1 X55.716 Y37.753 E.01378
G1 X56.107 Y37.567 E.01615
G1 X56.499 Y37.177 E.0206
G1 X56.769 Y37.477 E.01505
G1 X57.186 Y37.713 E.01783
G1 X57.467 Y37.786 E.01082
G1 X57.947 Y37.706 E.01812
G1 X58.189 Y37.604 E.00976
G1 X58.498 Y37.308 E.01594
G1 X58.642 Y37.088 E.00981
G1 X58.719 Y36.68 E.01544
G1 X58.667 Y36.31 E.01394
G1 X58.467 Y35.831 E.01932
G1 X57.87 Y34.795 E.04454
G1 X58.094 Y34.473 E.0146
G1 X58.398 Y33.94 E.02285
G1 X58.69 Y34.388 E.01991
G1 X59.045 Y34.661 E.01665
G1 X59.27 Y34.772 E.00935
G1 X59.664 Y34.869 E.01513
G1 X59.995 Y34.896 E.01237
G1 X60.419 Y34.816 E.01607
G1 X60.382 Y35.065 E.00938
G1 X60.366 Y35.721 E.02446
G1 X60.399 Y36.263 E.02021
G1 X60.495 Y36.822 E.02113
G1 X60.646 Y37.32 E.0194
G1 X61.002 Y37.99 E.02823
G1 X61.528 Y38.567 E.02907
G1 X62.082 Y38.914 E.02438
G1 X62.567 Y39.079 E.01907
G1 X63.158 Y39.182 E.02237
G1 X63.71 Y39.219 E.0206
G1 X64.895 Y39.236 E.04415
G1 X65.487 Y39.152 E.02225
G1 X65.878 Y38.957 E.01628
G1 X66.096 Y38.721 E.01199
G1 X66.253 Y38.38 E.01396
G1 X66.258 Y38.193 E.007
;WIDTH:0.469919
G1 X66.264 Y38.005 E.00654
;WIDTH:0.439838
G1 X66.207 Y37.487 E.01684
;WIDTH:0.427288
G1 X66.221 Y36.697 E.02476
;WIDTH:0.461829
G1 X66.239 Y36.499 E.00679
;WIDTH:0.49637
G1 X66.257 Y36.301 E.00735
;WIDTH:0.53091
G1 X66.275 Y36.103 E.00791
G1 X66.278 Y35.479 E.02482
;WIDTH:0.552596
G1 X66.292 Y34.835 E.02675
G1 X66.311 Y34.91 E.00324
;WIDTH:0.548305
G1 X66.52 Y35.567 E.02841
;WIDTH:0.53091
G1 X66.798 Y36.066 E.0227
G1 X66.71 Y36.27 E.00883
;WIDTH:0.519412
G1 X66.668 Y36.48 E.00834
;WIDTH:0.48402
G1 X66.626 Y36.691 E.00772
;WIDTH:0.448627
G1 X66.583 Y36.901 E.0071
;WIDTH:0.413234
G1 X66.592 Y37.821 E.02774
;WIDTH:0.45537
G1 X66.65 Y38.055 E.00811
;WIDTH:0.499999
G1 X66.708 Y38.289 E.00899
G1 X67.031 Y38.719 E.02003
G1 X67.225 Y38.901 E.00992
G1 X67.781 Y39.212 E.02371
G1 X68.412 Y39.364 E.02418
G1 X69.229 Y39.382 E.03044
G1 X69.945 Y39.244 E.02716
G1 X70.511 Y38.975 E.02336
G1 X70.91 Y38.621 E.01986
G1 X71.095 Y38.865 E.0114
G1 X71.503 Y39.142 E.01836
G1 X71.975 Y39.228 E.01787
G1 X75.179 Y39.213 E.11934
G1 X75.72 Y39.254 E.02024
G1 X76.081 Y39.222 E.01347
G1 X76.347 Y39.128 E.01052
G1 X76.633 Y38.908 E.01344
G1 X76.837 Y38.645 E.0124
G1 X76.91 Y38.442 E.00803
G1 X77.312 Y38.846 E.02125
G1 X77.712 Y39.076 E.01716
G1 X78.177 Y39.279 E.0189
G1 X78.884 Y39.39 E.02665
G1 X79.627 Y39.352 E.02773
G1 X80.452 Y39.11 E.032
G1 X81.08 Y38.72 E.02755
G1 X81.555 Y38.24 E.02515
G1 X81.845 Y37.774 E.02044
G1 X81.846 Y39.916 E.07979
G1 X81.823 Y40.564 E.02414
G1 X81.733 Y40.908 E.01323
G1 X81.533 Y41.217 E.0137
G1 X81.242 Y41.413 E.01308
G1 X80.846 Y41.508 E.01515
G1 X57.484 Y42.928 E.87178
G1 X56.675 Y42.954 E.03015
G1 X55.589 Y42.916 E.04047
G1 X54.809 Y42.837 E.02921
G1 X54.02 Y42.712 E.02975
G1 X53.063 Y42.497 E.03653
G1 X52.269 Y42.265 E.03079
G1 X51.793 Y42.097 E.01883
G1 X51.227 Y41.88 E.02254
G1 X50.427 Y41.524 E.03265
G1 X49.393 Y40.963 E.04379
G1 X48.539 Y40.419 E.03772
G1 X48.093 Y40.096 E.02051
G1 X47.566 Y39.679 E.02505
G1 X47.127 Y39.299 E.0216
G1 X46.675 Y38.872 E.02315
G1 X45.711 Y37.842 E.05255
;WIDTH:0.471218
G1 X45.291 Y37.317 E.02346
;WIDTH:0.499999
G1 X44.604 Y36.278 E.04639
G1 X44.328 Y35.809 E.02026
G1 X44.275 Y35.546 E.01002
G1 X44.346 Y35.276 E.01039
G1 X45.018 Y34.211 E.04689
G1 X45.557 Y33.494 E.03343
G1 X45.794 Y33.821 E.01505
G1 X46.007 Y33.981 E.00991
G1 X46.421 Y34.127 E.01637
G1 X46.772 Y34.171 E.01317
G1 E-.9
G1 Z.6 F9000
G1 X79.312 Y34.764 Z.6
G1 Z.2
G1 E.9 F2100
G1 F2700
G1 X79.415 Y35.136 E.01438
G1 X79.428 Y36.025 E.03313
G1 X79.32 Y36.419 E.01521
G1 X79.217 Y36.509 E.00509
G1 X79.032 Y36.435 E.00742
G1 X78.566 Y36.171 E.01995
;WIDTH:0.543386
G1 X78.405 Y36.108 E.00705
;WIDTH:0.586772
G1 X78.244 Y36.044 E.00766
;WIDTH:0.630158
G1 X78.084 Y35.981 E.00827
;WIDTH:0.673544
G1 X77.923 Y35.918 E.00889
;WIDTH:0.684308
G1 X77.714 Y35.909 E.01089
G1 X77.6 Y35.957 E.00649
;WIDTH:0.638231
G1 X77.485 Y36.005 E.00602
;WIDTH:0.592154
G1 X77.371 Y36.052 E.00556
;WIDTH:0.546077
G1 X77.256 Y36.1 E.00509
;WIDTH:0.499999
G1 X76.926 Y36.27 E.01382
G1 X76.602 Y36.552 E.01601
G1 X76.172 Y36.399 E.01701
G1 X75.563 Y36.379 E.0227
G1 X75.552 Y34.717 E.06192
;WIDTH:0.537872
G1 X75.568 Y34.184 E.02148
;WIDTH:0.575745
G1 X75.584 Y33.652 E.02312
;WIDTH:0.590236
G1 X75.627 Y33.074 E.02586
G1 X75.609 Y32.973 E.00457
;WIDTH:0.560506
G1 X75.592 Y32.872 E.00433
;WIDTH:0.530775
G1 X75.403 Y32.298 E.02401
;WIDTH:0.499999
G1 X75.17 Y31.985 E.01454
G1 X74.753 Y31.681 E.0192
G1 X74.174 Y31.506 E.02255
G1 X73.73 Y31.5 E.01654
G1 X73.3 Y31.619 E.0166
G1 X72.806 Y31.94 E.02196
G1 X72.55 Y32.259 E.01524
G1 X72.375 Y32.63 E.01526
;WIDTH:0.544867
G1 X72.302 Y32.934 E.01278
;WIDTH:0.589735
G1 X72.23 Y33.238 E.01392
;WIDTH:0.597845
G1 X72.233 Y33.609 E.01678
G1 X72.262 Y33.922 E.01423
;WIDTH:0.548922
G1 X72.291 Y34.235 E.01297
;WIDTH:0.499999
G1 X72.291 Y36.394 E.08041
G1 X72.004 Y36.411 E.01072
G1 X71.333 Y36.552 E.02554
G1 X71.118 Y36.668 E.0091
G1 X70.874 Y36.462 E.01188
G1 X70.957 Y35.727 E.02754
G1 X70.848 Y35.222 E.01926
G1 X70.661 Y34.897 E.01397
G1 X70.76 Y34.856 E.00399
G1 X71.143 Y34.572 E.01779
G1 X71.499 Y34.088 E.02235
;WIDTH:0.535607
G1 X71.556 Y33.963 E.00551
;WIDTH:0.571214
G1 X71.613 Y33.839 E.0059
;WIDTH:0.606821
G1 X71.671 Y33.714 E.0063
G1 X71.686 Y33.325 E.01791
;WIDTH:0.588729
G1 X71.649 Y33.18 E.00666
;WIDTH:0.5563
G1 X71.611 Y33.035 E.00626
;WIDTH:0.52387
G1 X71.424 Y32.525 E.02127
;WIDTH:0.499999
G1 X71.077 Y32.076 E.02116
G1 X70.752 Y31.802 E.01584
G1 X70.226 Y31.546 E.02177
G1 X69.551 Y31.38 E.02589
G1 X69.033 Y31.345 E.01937
G1 X68.353 Y31.385 E.02538
G1 X67.8 Y31.521 E.02122
G1 X67.313 Y31.763 E.02023
G1 X66.878 Y32.038 E.01919
G1 X66.56 Y32.388 E.0176
G1 X66.293 Y31.99 E.01785
G1 X65.93 Y31.697 E.01738
G1 X65.443 Y31.516 E.01934
G1 X65.164 Y31.483 E.01048
G1 X64.546 Y31.521 E.02307
G1 X63.776 Y31.515 E.02867
G1 X63.11 Y31.561 E.02489
G1 X62.18 Y31.765 E.03546
G1 X61.717 Y32.004 E.01941
M73 P1 R78
G1 X61.499 Y31.727 E.01312
G1 X61.144 Y31.428 E.0173
G1 X60.734 Y31.209 E.0173
G1 X60.051 Y31.038 E.02625
G1 X59.497 Y31.083 E.02068
G1 X59.114 Y31.196 E.01489
G1 X58.791 Y31.356 E.01341
G1 X58.493 Y31.573 E.01372
G1 X58.218 Y31.428 E.0116
G1 X57.879 Y31.341 E.01302
G1 X57.376 Y31.336 E.01873
G1 X56.877 Y31.53 E.01994
G1 X56.582 Y31.765 E.01406
G1 X56.209 Y31.499 E.01704
G1 X55.825 Y31.337 E.01554
G1 X55.34 Y31.311 E.01807
G1 X55.369 Y31.275 E.00175
G1 X55.516 Y30.879 E.0157
G1 X55.54 Y30.305 E.02143
G1 X55.441 Y29.911 E.01513
G1 X55.297 Y29.611 E.01237
G1 X55.098 Y29.321 E.01312
G1 X54.737 Y29.033 E.01721
G1 X54.271 Y28.833 E.01886
G1 X55.335 Y28.688 E.03997
G1 X56.24 Y28.633 E.03378
G1 X57.175 Y28.639 E.03482
G1 X80.81 Y30.075 E.88195
G1 X81.155 Y30.193 E.01359
G1 X81.344 Y30.474 E.01261
G1 X81.385 Y30.755 E.01059
G1 X81.386 Y32.139 E.05152
G1 X81.091 Y31.918 E.01372
G1 X80.358 Y31.554 E.03046
G1 X79.644 Y31.383 E.02737
G1 X78.856 Y31.35 E.02936
G1 X78.218 Y31.439 E.024
G1 X77.646 Y31.626 E.02243
G1 X77.16 Y31.891 E.02061
G1 X76.723 Y32.283 E.02187
G1 X76.487 Y32.611 E.01504
;WIDTH:0.545118
G1 X76.324 Y32.893 E.01332
;WIDTH:0.590236
G1 X76.161 Y33.174 E.01451
G1 X76.117 Y33.466 E.01316
;WIDTH:0.600175
G1 X76.151 Y33.937 E.02144
G1 X76.24 Y34.098 E.00835
;WIDTH:0.566783
G1 X76.329 Y34.259 E.00785
;WIDTH:0.533391
G1 X76.418 Y34.42 E.00735
;WIDTH:0.499999
G1 X76.851 Y34.86 E.023
G1 X76.979 Y34.928 E.00541
;WIDTH:0.546777
G1 X77.155 Y35.013 E.00801
;WIDTH:0.593554
G1 X77.33 Y35.098 E.00875
;WIDTH:0.640332
G1 X77.506 Y35.183 E.0095
;WIDTH:0.687109
G1 X77.681 Y35.269 E.01024
G1 X77.919 Y35.258 E.01248
;WIDTH:0.673544
G1 X78.082 Y35.205 E.00882
;WIDTH:0.630158
